(Exported by FreeCAD)
(Post Processor: smoothie_post)
(Output Time:2021-04-23 12:38:20.525713)
(begin preamble)
G17 G90
G21
(begin operation: Fixture)
G54
(finish operation: Fixture)
(begin operation: TC: Default Tool)
(TC: Default Tool)
M6 T1.0
M3 S0.0
(finish operation: TC: Default Tool)
(begin operation: Pocket_Shape)
(Pocket_Shape)
G0 Z5.0000
G0 X14.2021 Y10.2021
G0 Z3.0000
G1 X14.2021 Y10.2021 Z-4.0000 S0.0
G3 X12.5438 Y9.2321 Z-4.0000 I-0.7021 J-0.7021 S0.0
G3 X14.4562 Y9.7679 Z-4.0000 I0.9562 J0.2679 S0.0
G3 X14.2021 Y10.2021 Z-4.0000 I-0.9562 J-0.2679 S0.0
G1 X14.2021 Y10.2021 Z-8.0000 S0.0
G3 X12.5438 Y9.2321 Z-8.0000 I-0.7021 J-0.7021 S0.0
G3 X14.4562 Y9.7679 Z-8.0000 I0.9562 J0.2679 S0.0
G3 X14.2021 Y10.2021 Z-8.0000 I-0.9562 J-0.2679 S0.0
G1 X14.2021 Y10.2021 Z-12.0000 S0.0
G3 X12.5438 Y9.2321 Z-12.0000 I-0.7021 J-0.7021 S0.0
G3 X14.4562 Y9.7679 Z-12.0000 I0.9562 J0.2679 S0.0
G3 X14.2021 Y10.2021 Z-12.0000 I-0.9562 J-0.2679 S0.0
G1 X14.2021 Y10.2021 Z-16.0000 S0.0
G3 X12.5438 Y9.2321 Z-16.0000 I-0.7021 J-0.7021 S0.0
G3 X14.4562 Y9.7679 Z-16.0000 I0.9562 J0.2679 S0.0
G3 X14.2021 Y10.2021 Z-16.0000 I-0.9562 J-0.2679 S0.0
G1 X14.2021 Y10.2021 Z-17.0000 S0.0
G3 X12.5438 Y9.2321 Z-17.0000 I-0.7021 J-0.7021 S0.0
G3 X14.4562 Y9.7679 Z-17.0000 I0.9562 J0.2679 S0.0
G3 X14.2021 Y10.2021 Z-17.0000 I-0.9562 J-0.2679 S0.0
G0 Z5.0000
G0 Z5.0000
(finish operation: Pocket_Shape)
(begin operation: Profile)
(Profile)
(Compensated Tool Path. Diameter: 6.0)
G0 Z5.0000
G0 X21.6300 Y17.6300
G0 Z3.0000
G1 X21.6300 Y17.6300 Z-4.0000 S0.0
G2 X14.9948 Y-1.8999 Z-4.0000 I-8.1300 J-8.1300 S0.0
G2 X2.1001 Y8.0052 Z-4.0000 I-1.4948 J11.3999 S0.0
G2 X12.0052 Y20.8999 Z-4.0000 I11.3999 J1.4948 S0.0
G2 X21.6300 Y17.6300 Z-4.0000 I1.4948 J-11.3999 S0.0
G1 X21.6300 Y17.6300 Z-8.0000 S0.0
G2 X14.9948 Y-1.8999 Z-8.0000 I-8.1300 J-8.1300 S0.0
G2 X2.1001 Y8.0052 Z-8.0000 I-1.4948 J11.3999 S0.0
G2 X12.0052 Y20.8999 Z-8.0000 I11.3999 J1.4948 S0.0
G2 X21.6300 Y17.6300 Z-8.0000 I1.4948 J-11.3999 S0.0
G1 X21.6300 Y17.6300 Z-12.0000 S0.0
G2 X14.9948 Y-1.8999 Z-12.0000 I-8.1300 J-8.1300 S0.0
G2 X2.1001 Y8.0052 Z-12.0000 I-1.4948 J11.3999 S0.0
G2 X12.0052 Y20.8999 Z-12.0000 I11.3999 J1.4948 S0.0
G2 X21.6300 Y17.6300 Z-12.0000 I1.4948 J-11.3999 S0.0
G1 X21.6300 Y17.6300 Z-16.0000 S0.0
G2 X14.9948 Y-1.8999 Z-16.0000 I-8.1300 J-8.1300 S0.0
G2 X2.1001 Y8.0052 Z-16.0000 I-1.4948 J11.3999 S0.0
G2 X12.0052 Y20.8999 Z-16.0000 I11.3999 J1.4948 S0.0
G2 X21.6300 Y17.6300 Z-16.0000 I1.4948 J-11.3999 S0.0
G1 X21.6300 Y17.6300 Z-17.0000 S0.0
G2 X14.9948 Y-1.8999 Z-17.0000 I-8.1300 J-8.1300 S0.0
G2 X2.1001 Y8.0052 Z-17.0000 I-1.4948 J11.3999 S0.0
G2 X12.0052 Y20.8999 Z-17.0000 I11.3999 J1.4948 S0.0
G2 X21.6300 Y17.6300 Z-17.0000 I1.4948 J-11.3999 S0.0
G0 Z5.0000
G0 Z5.0000
(finish operation: Profile)
(begin postamble)
M05
G17 G90
M2
