(Exported by FreeCAD)
(Post Processor: smoothie_post)
(Output Time:2021-04-19 23:07:03.661909)
(begin preamble)
G17 G90
G21
(begin operation: Fixture)
G54
(finish operation: Fixture)
(begin operation: TC: Default Tool)
(TC: Default Tool)
M6 T1.0
M3 S0.0
(finish operation: TC: Default Tool)
(begin operation: Profile)
(Profile)
(Compensated Tool Path. Diameter: 6.0)
G0 Z5.0000
G0 X31.1365 Y31.1772
G0 Z3.0000
G1 X31.1365 Y31.1772 Z-4.0000 S0.0
G2 X23.2088 Y9.0501 Z-4.0000 I-9.1908 J-9.1908 S0.0
G2 X9.0094 Y20.7233 Z-4.0000 I-1.2631 J12.9363 S0.0
G2 X20.6825 Y34.9227 Z-4.0000 I12.9363 J1.2631 S0.0
G2 X31.1365 Y31.1772 Z-4.0000 I1.2631 J-12.9363 S0.0
G1 X31.1365 Y31.1772 Z-8.0000 S0.0
G2 X23.2088 Y9.0501 Z-8.0000 I-9.1908 J-9.1908 S0.0
G2 X9.0094 Y20.7233 Z-8.0000 I-1.2631 J12.9363 S0.0
G2 X20.6825 Y34.9227 Z-8.0000 I12.9363 J1.2631 S0.0
G2 X31.1365 Y31.1772 Z-8.0000 I1.2631 J-12.9363 S0.0
G1 X31.1365 Y31.1772 Z-12.0000 S0.0
G2 X23.2088 Y9.0501 Z-12.0000 I-9.1908 J-9.1908 S0.0
G2 X9.0094 Y20.7233 Z-12.0000 I-1.2631 J12.9363 S0.0
G2 X20.6825 Y34.9227 Z-12.0000 I12.9363 J1.2631 S0.0
G2 X31.1365 Y31.1772 Z-12.0000 I1.2631 J-12.9363 S0.0
G1 X31.1365 Y31.1772 Z-16.0000 S0.0
G2 X23.2088 Y9.0501 Z-16.0000 I-9.1908 J-9.1908 S0.0
G2 X9.0094 Y20.7233 Z-16.0000 I-1.2631 J12.9363 S0.0
G2 X20.6825 Y34.9227 Z-16.0000 I12.9363 J1.2631 S0.0
G2 X31.1365 Y31.1772 Z-16.0000 I1.2631 J-12.9363 S0.0
G0 Z5.0000
G0 Z5.0000
(finish operation: Profile)
(begin operation: DressupTag)
G0 Z5.0000
G0 X32.5510 Y32.5917 Z5.0000
G0 X32.5510 Y32.5917 Z3.0000
G1 X32.5510 Y32.5917 Z-4.0000 S0.0
G2 X23.8404 Y7.1084 Z-4.0000 I-10.6053 J-10.6053 S0.0
G2 X7.0677 Y20.0917 Z-4.0000 I-1.8947 J14.8780 S0.0
G2 X20.0509 Y36.8644 Z-4.0000 I14.8780 J1.8947 S0.0
G2 X32.5510 Y32.5917 Z-4.0000 I1.8947 J-14.8780 S0.0
G1 X32.5510 Y32.5917 Z-8.0000 S0.0
G2 X23.8404 Y7.1084 Z-8.0000 I-10.6053 J-10.6053 S0.0
G2 X7.0677 Y20.0917 Z-8.0000 I-1.8947 J14.8780 S0.0
G2 X20.0509 Y36.8644 Z-8.0000 I14.8780 J1.8947 S0.0
G2 X32.5510 Y32.5917 Z-8.0000 I1.8947 J-14.8780 S0.0
G1 X32.5510 Y32.5917 Z-12.0000 S0.0
G2 X23.8404 Y7.1084 Z-12.0000 I-10.6053 J-10.6053 S0.0
G2 X7.0677 Y20.0917 Z-12.0000 I-1.8947 J14.8780 S0.0
G2 X20.0509 Y36.8644 Z-12.0000 I14.8780 J1.8947 S0.0
G2 X32.5510 Y32.5917 Z-12.0000 I1.8947 J-14.8780 S0.0
G1 X32.5510 Y32.5917 Z-16.0000 S0.0
G2 X36.3915 Y26.0190 Z-16.0000 I-10.6053 J-10.6053 S0.0
G1 X36.4765 Y25.7011 Z-15.6678 S0.0
G1 X36.5167 Y25.5402 Z-15.5003 S0.0
G1 X36.5358 Y25.4609 Z-15.4179 S0.0
G1 X36.5452 Y25.4213 Z-15.3767 S0.0
G1 X36.5503 Y25.3997 Z-15.3543 S0.0
G1 X36.5556 Y25.3767 Z-15.3305 S0.0
G1 X36.6911 Y24.7278 Z-16.0000 S0.0
G2 X31.9279 Y10.7927 Z-16.0000 I-14.7455 J-2.7414 S0.0
G1 X31.6800 Y10.5765 Z-15.6678 S0.0
G1 X31.5533 Y10.4695 Z-15.5003 S0.0
G1 X31.4905 Y10.4174 Z-15.4179 S0.0
G1 X31.4590 Y10.3915 Z-15.3767 S0.0
G1 X31.4418 Y10.3775 Z-15.3543 S0.0
G1 X31.4236 Y10.3626 Z-15.3305 S0.0
G1 X30.9007 Y9.9551 Z-16.0000 S0.0
G2 X23.8404 Y7.1084 Z-16.0000 I-8.9550 J12.0313 S0.0
G2 X13.2982 Y9.7322 Z-16.0000 I-1.8947 J14.8780 S0.0
G1 X13.0315 Y9.9248 Z-15.6678 S0.0
G1 X12.8986 Y10.0241 Z-15.5003 S0.0
G1 X12.8337 Y10.0735 Z-15.4179 S0.0
G1 X12.8014 Y10.0983 Z-15.3767 S0.0
G1 X12.7838 Y10.1119 Z-15.3543 S0.0
G1 X12.7651 Y10.1263 Z-15.3305 S0.0
G1 X12.2500 Y10.5436 Z-16.0000 S0.0
G2 X7.0677 Y20.0917 Z-16.0000 I9.6957 J11.4428 S0.0
G2 X9.6915 Y30.6339 Z-16.0000 I14.8780 J1.8947 S0.0
G1 X9.8841 Y30.9006 Z-15.6678 S0.0
G1 X9.9834 Y31.0334 Z-15.5003 S0.0
G1 X10.0328 Y31.0984 Z-15.4179 S0.0
G1 X10.0576 Y31.1307 Z-15.3767 S0.0
G1 X10.0711 Y31.1483 Z-15.3543 S0.0
G1 X10.0856 Y31.1670 Z-15.3305 S0.0
G1 X10.5028 Y31.6821 Z-16.0000 S0.0
G2 X20.0509 Y36.8644 Z-16.0000 I11.4428 J-9.6957 S0.0
G2 X32.5510 Y32.5917 Z-16.0000 I1.8947 J-14.8780 S0.0
G1 X32.5510 Y32.5917 Z-20.0000 S0.0
G2 X34.8289 Y29.6654 Z-20.0000 I-10.6053 J-10.6053 S0.0
G1 X35.3842 Y28.6459 Z-18.8380 S0.0
G1 X35.8143 Y27.6966 Z-17.7903 S0.0
G1 X35.8591 Y27.5866 Z-17.6707 S0.0
G1 X36.2505 Y26.4936 Z-16.4999 S0.0
G1 X36.5346 Y25.4660 Z-15.4231 S0.0
G1 X36.5454 Y25.4202 Z-15.3756 S0.0
G1 X36.5504 Y25.3991 Z-15.3537 S0.0
G1 X36.5556 Y25.3767 Z-15.3305 S0.0
G1 X36.7404 Y24.4480 Z-16.2869 S0.0
G1 X36.8759 Y23.4120 Z-17.3410 S0.0
G1 X36.9389 Y22.3687 Z-18.3931 S0.0
G1 X36.9291 Y21.3233 Z-19.4418 S0.0
G1 X36.8941 Y20.7658 Z-20.0000 S0.0
G2 X34.5136 Y13.8015 Z-20.0000 I-14.9484 J1.2206 S0.0
G1 X33.8409 Y12.8514 Z-18.8347 S0.0
G1 X33.0987 Y11.9587 Z-17.6674 S0.0
G1 X32.2873 Y11.1239 Z-16.4934 S0.0
G1 X31.8604 Y10.7328 Z-15.9088 S0.0
G1 X31.6401 Y10.5425 Z-15.6148 S0.0
G1 X31.5318 Y10.4517 Z-15.4721 S0.0
G1 X31.4781 Y10.4072 Z-15.4016 S0.0
G1 X31.4513 Y10.3853 Z-15.3667 S0.0
G1 X31.4236 Y10.3626 Z-15.3305 S0.0
G1 X30.6711 Y9.7876 Z-16.2869 S0.0
G1 X29.8007 Y9.2098 Z-17.3410 S0.0
G1 X28.8918 Y8.6937 Z-18.3931 S0.0
G1 X27.9489 Y8.2421 Z-19.4418 S0.0
G1 X27.4329 Y8.0281 Z-20.0000 S0.0
G2 X23.8404 Y7.1084 Z-20.0000 I-5.4873 J13.9583 S0.0
G2 X16.8136 Y7.8936 Z-20.0000 I-1.8947 J14.8780 S0.0
G1 X15.7360 Y8.3341 Z-18.8347 S0.0
G1 X14.6986 Y8.8553 Z-17.6674 S0.0
G1 X13.7020 Y9.4570 Z-16.4934 S0.0
G1 X13.2245 Y9.7845 Z-15.9088 S0.0
G1 X12.9894 Y9.9561 Z-15.6148 S0.0
G1 X12.8764 Y10.0410 Z-15.4721 S0.0
G1 X12.8209 Y10.0833 Z-15.4016 S0.0
G1 X12.7935 Y10.1044 Z-15.3667 S0.0
G1 X12.7651 Y10.1263 Z-15.3305 S0.0
G1 X12.0350 Y10.7293 Z-16.2869 S0.0
G1 X11.2753 Y11.4466 Z-17.3410 S0.0
G1 X10.5672 Y12.2153 Z-18.3931 S0.0
G1 X9.9141 Y13.0317 Z-19.4418 S0.0
G1 X9.5890 Y13.4860 Z-20.0000 S0.0
G2 X7.0677 Y20.0917 Z-20.0000 I12.3567 J8.5005 S0.0
G2 X7.8529 Y27.1185 Z-20.0000 I14.8780 J1.8947 S0.0
G1 X8.2934 Y28.1961 Z-18.8347 S0.0
G1 X8.8146 Y29.2335 Z-17.6674 S0.0
G1 X9.4163 Y30.2301 Z-16.4934 S0.0
G1 X9.7438 Y30.7075 Z-15.9088 S0.0
G1 X9.9153 Y30.9427 Z-15.6148 S0.0
G1 X10.0003 Y31.0557 Z-15.4721 S0.0
G1 X10.0426 Y31.1111 Z-15.4016 S0.0
G1 X10.0636 Y31.1385 Z-15.3667 S0.0
G1 X10.0856 Y31.1670 Z-15.3305 S0.0
G1 X10.6885 Y31.8971 Z-16.2869 S0.0
G1 X11.4058 Y32.6568 Z-17.3410 S0.0
G1 X12.1746 Y33.3649 Z-18.3931 S0.0
G1 X12.9910 Y34.0180 Z-19.4418 S0.0
G1 X13.4452 Y34.3431 Z-20.0000 S0.0
G2 X20.0509 Y36.8644 Z-20.0000 I8.5005 J-12.3567 S0.0
G2 X32.5510 Y32.5917 Z-20.0000 I1.8947 J-14.8780 S0.0
G0 X32.5510 Y32.5917 Z5.0000
(finish operation: DressupTag)
(begin postamble)
M05
G17 G90
M2
