(Exported by FreeCAD)
(Post Processor: smoothie_post)
(Output Time:2021-04-11 22:04:21.241188)
(begin preamble)
G17 G90
G21
(begin operation: Fixture)
G54
(finish operation: Fixture)
(begin operation: TC: Default Tool)
(TC: Default Tool)
M6 T1.0
M3 S0.0
(finish operation: TC: Default Tool)
(begin operation: DressupTag)
G0 Z5.0000
G0 X5.5631 Y5.6014 Z5.0000
G0 X5.5631 Y5.6014 Z3.0000
G1 X5.5631 Y5.6014 Z-3.0000 S0.0
G3 X20.8812 Y-1.9614 Z-3.0000 I18.9427 J19.0729 S0.0
G1 X21.4417 Y-1.9989 Z-3.0000 S0.0
G3 X41.8847 Y6.5249 Z-3.0000 I-0.0675 J28.9385 S0.0
G1 X43.4041 Y7.1549 Z-3.0000 S0.0
G1 X49.7811 Y9.3475 Z-3.0000 S0.0
G1 X56.2815 Y11.1414 Z-3.0000 S0.0
G1 X62.8805 Y12.5297 Z-3.0000 S0.0
G1 X69.5527 Y13.5071 Z-3.0000 S0.0
G1 X76.2725 Y14.0699 Z-3.0000 S0.0
G1 X83.0144 Y14.2158 Z-3.0000 S0.0
G1 X89.7523 Y13.9444 Z-3.0000 S0.0
G1 X96.4606 Y13.2567 Z-3.0000 S0.0
G1 X103.1134 Y12.1552 Z-3.0000 S0.0
G1 X109.6854 Y10.6443 Z-3.0000 S0.0
G1 X116.2403 Y8.7034 Z-3.0000 S0.0
G1 X116.2404 Y8.7037 Z-3.0000 S0.0
G3 X123.0420 Y29.6359 Z-3.0000 I3.3633 J10.4783 S0.0
G3 X122.7230 Y29.7893 Z-3.0000 I-0.7955 J-1.2459 S0.0
G3 X121.8942 Y29.9875 Z-3.0000 I-1.2362 J-3.3366 S0.0
G1 X121.8104 Y29.9887 Z-3.0000 S0.0
G3 X21.6976 Y43.9872 Z-3.0000 I-100.3063 J-352.3699 S0.0
G3 X8.6678 Y42.1062 Z-3.0000 I-4.1549 J-17.2874 S0.0
G3 X-1.2294 Y29.1629 Z-3.0000 I10.1558 J-18.0215 S0.0
G3 X1.3317 Y11.0523 Z-3.0000 I22.9119 J-5.9963 S0.0
G3 X5.5631 Y5.6014 Z-3.0000 I23.1741 J13.6220 S0.0
G1 X5.5631 Y5.6014 Z-6.0000 S0.0
G3 X20.8812 Y-1.9614 Z-6.0000 I18.9427 J19.0729 S0.0
G1 X21.4417 Y-1.9989 Z-6.0000 S0.0
G3 X41.8847 Y6.5249 Z-6.0000 I-0.0675 J28.9385 S0.0
G1 X43.4041 Y7.1549 Z-6.0000 S0.0
G1 X49.7811 Y9.3475 Z-6.0000 S0.0
G1 X56.2815 Y11.1414 Z-6.0000 S0.0
G1 X62.8805 Y12.5297 Z-6.0000 S0.0
G1 X69.5527 Y13.5071 Z-6.0000 S0.0
G1 X76.2725 Y14.0699 Z-6.0000 S0.0
G1 X83.0144 Y14.2158 Z-6.0000 S0.0
G1 X89.7523 Y13.9444 Z-6.0000 S0.0
G1 X96.4606 Y13.2567 Z-6.0000 S0.0
G1 X103.1134 Y12.1552 Z-6.0000 S0.0
G1 X109.6854 Y10.6443 Z-6.0000 S0.0
G1 X116.2403 Y8.7034 Z-6.0000 S0.0
G1 X116.2404 Y8.7037 Z-6.0000 S0.0
G3 X123.0420 Y29.6359 Z-6.0000 I3.3633 J10.4783 S0.0
G3 X122.7230 Y29.7893 Z-6.0000 I-0.7955 J-1.2459 S0.0
G3 X121.8942 Y29.9875 Z-6.0000 I-1.2362 J-3.3366 S0.0
G1 X121.8104 Y29.9887 Z-6.0000 S0.0
G3 X21.6976 Y43.9872 Z-6.0000 I-100.3063 J-352.3699 S0.0
G3 X8.6678 Y42.1062 Z-6.0000 I-4.1549 J-17.2874 S0.0
G3 X-1.2294 Y29.1629 Z-6.0000 I10.1558 J-18.0215 S0.0
G3 X1.3317 Y11.0523 Z-6.0000 I22.9119 J-5.9963 S0.0
G3 X5.5631 Y5.6014 Z-6.0000 I23.1741 J13.6220 S0.0
G1 X5.5631 Y5.6014 Z-7.5000 S0.0
G3 X15.4688 Y-0.6424 Z-7.5000 I18.9427 J19.0729 S0.0
G1 X16.9084 Y-1.1109 Z-9.0000 S0.0
G3 X20.8812 Y-1.9614 Z-9.0000 I7.5974 J25.7853 S0.0
G1 X21.4417 Y-1.9989 Z-9.0000 S0.0
G3 X41.8847 Y6.5249 Z-9.0000 I-0.0675 J28.9385 S0.0
G1 X43.4041 Y7.1549 Z-9.0000 S0.0
G1 X49.7811 Y9.3475 Z-9.0000 S0.0
G1 X56.2815 Y11.1414 Z-9.0000 S0.0
G1 X62.8805 Y12.5297 Z-9.0000 S0.0
G1 X69.5527 Y13.5071 Z-9.0000 S0.0
G1 X76.2725 Y14.0699 Z-9.0000 S0.0
G1 X83.0144 Y14.2158 Z-9.0000 S0.0
G1 X89.7523 Y13.9444 Z-9.0000 S0.0
G1 X96.4606 Y13.2567 Z-9.0000 S0.0
G1 X103.1134 Y12.1552 Z-9.0000 S0.0
G1 X109.6854 Y10.6443 Z-9.0000 S0.0
G1 X116.2403 Y8.7034 Z-9.0000 S0.0
G1 X116.2404 Y8.7037 Z-9.0000 S0.0
G3 X124.4989 Y9.3258 Z-9.0000 I3.3633 J10.4783 S0.0
G1 X125.2752 Y9.7511 Z-8.1697 S0.0
G1 X125.8675 Y10.1337 Z-7.5000 S0.0
G3 X130.2816 Y21.8445 Z-7.5000 I-6.2638 J9.0483 S0.0
G1 X130.0294 Y22.7048 Z-8.3503 S0.0
G1 X129.7867 Y23.3547 Z-9.0000 S0.0
G3 X123.0420 Y29.6359 Z-9.0000 I-10.1830 J-4.1728 S0.0
G3 X122.7230 Y29.7893 Z-9.0000 I-0.7955 J-1.2459 S0.0
G3 X121.8942 Y29.9875 Z-9.0000 I-1.2362 J-3.3366 S0.0
G1 X121.8104 Y29.9887 Z-9.0000 S0.0
G3 X105.0683 Y34.3300 Z-9.0000 I-100.3063 J-352.3699 S0.0
G1 X103.6071 Y34.6692 Z-7.5000 S0.0
G3 X90.7805 Y37.3780 Z-7.5000 I-82.1030 J-357.0504 S0.0
G1 X89.3069 Y37.6586 Z-9.0000 S0.0
G3 X55.0582 Y42.4475 Z-9.0000 I-67.8028 J-360.0398 S0.0
G1 X53.5642 Y42.5818 Z-7.5000 S0.0
G3 X40.4865 Y43.4952 Z-7.5000 I-32.0601 J-364.9631 S0.0
G1 X38.9883 Y43.5699 Z-9.0000 S0.0
G3 X21.6976 Y43.9872 Z-9.0000 I-17.4842 J-365.9511 S0.0
G3 X8.6678 Y42.1062 Z-9.0000 I-4.1549 J-17.2874 S0.0
G3 X-1.2294 Y29.1629 Z-9.0000 I10.1558 J-18.0215 S0.0
G3 X1.3317 Y11.0523 Z-9.0000 I22.9119 J-5.9963 S0.0
G3 X3.6493 Y7.7153 Z-9.0000 I23.1741 J13.6220 S0.0
G1 X4.6371 Y6.5681 Z-7.5000 S0.0
G3 X5.5631 Y5.6014 Z-7.5000 I19.8687 J18.1062 S0.0
G1 X5.5631 Y5.6014 Z5.0000 S0.0
(finish operation: DressupTag)
(begin operation: Pocket_Shape)
(Pocket_Shape)
G0 Z5.0000
G0 X22.0421 Y27.7221
G0 Z3.0000
G1 X22.0421 Y27.7221 Z-3.0000 S0.0
G2 X20.7674 Y26.2088 Z-3.0000 I-0.7021 J-0.7021 S0.0
G2 X20.5288 Y27.5926 Z-3.0000 I0.5726 J0.8112 S0.0
G2 X21.9126 Y27.8312 Z-3.0000 I0.8112 J-0.5726 S0.0
G2 X22.0421 Y27.7221 Z-3.0000 I-0.5726 J-0.8112 S0.0
G1 X22.0421 Y27.7221 Z-6.0000 S0.0
G2 X20.7674 Y26.2088 Z-6.0000 I-0.7021 J-0.7021 S0.0
G2 X20.5288 Y27.5926 Z-6.0000 I0.5726 J0.8112 S0.0
G2 X21.9126 Y27.8312 Z-6.0000 I0.8112 J-0.5726 S0.0
G2 X22.0421 Y27.7221 Z-6.0000 I-0.5726 J-0.8112 S0.0
G1 X22.0421 Y27.7221 Z-9.0000 S0.0
G2 X20.7674 Y26.2088 Z-9.0000 I-0.7021 J-0.7021 S0.0
G2 X20.5288 Y27.5926 Z-9.0000 I0.5726 J0.8112 S0.0
G2 X21.9126 Y27.8312 Z-9.0000 I0.8112 J-0.5726 S0.0
G2 X22.0421 Y27.7221 Z-9.0000 I-0.5726 J-0.8112 S0.0
G0 Z5.0000
G0 Z5.0000
(finish operation: Pocket_Shape)
(begin postamble)
M05
G17 G90
M2
