(Exported by FreeCAD)
(Post Processor: smoothie_post)
(Output Time:2021-04-03 11:32:01.727028)
(begin preamble)
G17 G90
G21
(begin operation: Fixture)
G54
(finish operation: Fixture)
(begin operation: TC: 5mm Endmill)
(TC: 5mm Endmill)
M6 T1.0
M3 S0.0
(begin operation: Profile001)
(Profile001)
(Compensated Tool Path. Diameter: 6.0)
G0 Z5.0000
G0 X0.0000 Y0.0000
G0 X1.8787 Y1.8787
G0 X1.8787 Y1.8787 Z3.0000
G1 X1.8787 Y1.8787 Z-2.0000 S0.0
G3 X4.0000 Y1.0000 Z-2.0000 I2.1213 J2.1213 S0.0
G1 X144.9382 Y1.0010 Z-2.0000 S0.0
G3 X177.6842 Y37.4146 Z-2.0000 I-0.0760 J32.9990 S0.0
G3 X111.9898 Y36.7909 Z-2.0000 I-32.8178 J-3.4097 S0.0
G1 X3.7885 Y29.1455 Z-2.0000 S0.0
G3 X1.0000 Y26.1529 Z-2.0000 I0.2115 J-2.9925 S0.0
G1 X1.0000 Y4.0000 Z-2.0000 S0.0
G3 X1.8787 Y1.8787 Z-2.0000 I3.0000 J0.0000 S0.0
G1 X1.8787 Y1.8787 Z-4.0000 S0.0
G3 X4.0000 Y1.0000 Z-4.0000 I2.1213 J2.1213 S0.0
G1 X144.9382 Y1.0010 Z-4.0000 S0.0
G3 X177.6842 Y37.4146 Z-4.0000 I-0.0760 J32.9990 S0.0
G3 X111.9898 Y36.7909 Z-4.0000 I-32.8178 J-3.4097 S0.0
G1 X3.7885 Y29.1455 Z-4.0000 S0.0
G3 X1.0000 Y26.1529 Z-4.0000 I0.2115 J-2.9925 S0.0
G1 X1.0000 Y4.0000 Z-4.0000 S0.0
G3 X1.8787 Y1.8787 Z-4.0000 I3.0000 J0.0000 S0.0
G1 X1.8787 Y1.8787 Z-6.0000 S0.0
G3 X4.0000 Y1.0000 Z-6.0000 I2.1213 J2.1213 S0.0
G1 X144.9382 Y1.0010 Z-6.0000 S0.0
G3 X177.6842 Y37.4146 Z-6.0000 I-0.0760 J32.9990 S0.0
G3 X111.9898 Y36.7909 Z-6.0000 I-32.8178 J-3.4097 S0.0
G1 X3.7885 Y29.1455 Z-6.0000 S0.0
G3 X1.0000 Y26.1529 Z-6.0000 I0.2115 J-2.9925 S0.0
G1 X1.0000 Y4.0000 Z-6.0000 S0.0
G3 X1.8787 Y1.8787 Z-6.0000 I3.0000 J0.0000 S0.0
G1 X1.8787 Y1.8787 Z-8.0000 S0.0
G3 X4.0000 Y1.0000 Z-8.0000 I2.1213 J2.1213 S0.0
G1 X144.9382 Y1.0010 Z-8.0000 S0.0
G3 X177.6842 Y37.4146 Z-8.0000 I-0.0760 J32.9990 S0.0
G3 X111.9898 Y36.7909 Z-8.0000 I-32.8178 J-3.4097 S0.0
G1 X3.7885 Y29.1455 Z-8.0000 S0.0
G3 X1.0000 Y26.1529 Z-8.0000 I0.2115 J-2.9925 S0.0
G1 X1.0000 Y4.0000 Z-8.0000 S0.0
G3 X1.8787 Y1.8787 Z-8.0000 I3.0000 J0.0000 S0.0
G1 X1.8787 Y1.8787 Z-9.0000 S0.0
G3 X4.0000 Y1.0000 Z-9.0000 I2.1213 J2.1213 S0.0
G1 X144.9382 Y1.0010 Z-9.0000 S0.0
G3 X177.6842 Y37.4146 Z-9.0000 I-0.0760 J32.9990 S0.0
G3 X111.9898 Y36.7909 Z-9.0000 I-32.8178 J-3.4097 S0.0
G1 X3.7885 Y29.1455 Z-9.0000 S0.0
G3 X1.0000 Y26.1529 Z-9.0000 I0.2115 J-2.9925 S0.0
G1 X1.0000 Y4.0000 Z-9.0000 S0.0
G3 X1.8787 Y1.8787 Z-9.0000 I3.0000 J0.0000 S0.0
G0 Z5.0000
G0 Z5.0000
(finish operation: Profile001)
(begin postamble)
M05
G17 G90
M2
