(Exported by FreeCAD)
(Post Processor: smoothie_post)
(Output Time:2021-02-20 16:55:35.393145)
(begin preamble)
G17 G90
G21
(begin operation: Default Tool)
(Default Tool)
M6 T1.0
M3 S0.0
(finish operation: Default Tool)
(begin operation: Engrave)
(Engrave)
G0 Z4.0000
G0 X22.8110 Y3.1138 Z4.0000
G0 X22.8110 Y3.1138 Z2.0000
G1 X22.8110 Y3.1138 Z-2.0000 F300.0000 S0.0
G1 X23.6632 Y3.1688 Z-2.0000 F480.0000 S0.0
G1 X24.4828 Y3.3339 Z-2.0000 F480.0000 S0.0
G1 X25.2697 Y3.6092 Z-2.0000 F480.0000 S0.0
G1 X26.0067 Y3.9843 Z-2.0000 F480.0000 S0.0
G1 X26.6765 Y4.4369 Z-2.0000 F480.0000 S0.0
G1 X27.2789 Y4.9670 Z-2.0000 F480.0000 S0.0
G1 X27.8130 Y5.5704 Z-2.0000 F480.0000 S0.0
G1 X28.2656 Y6.2432 Z-2.0000 F480.0000 S0.0
G1 X28.6367 Y6.9853 Z-2.0000 F480.0000 S0.0
G1 X28.9119 Y7.7865 Z-2.0000 F480.0000 S0.0
G1 X29.0771 Y8.6245 Z-2.0000 F480.0000 S0.0
G1 X29.1321 Y9.4991 Z-2.0000 F480.0000 S0.0
G1 X29.1321 Y17.2789 Z-2.0000 F480.0000 S0.0
G1 X29.0771 Y18.1372 Z-2.0000 F480.0000 S0.0
G1 X28.9119 Y18.9629 Z-2.0000 F480.0000 S0.0
G1 X28.6367 Y19.7560 Z-2.0000 F480.0000 S0.0
G1 X28.2656 Y20.5042 Z-2.0000 F480.0000 S0.0
G1 X27.8130 Y21.1831 Z-2.0000 F480.0000 S0.0
G1 X27.2789 Y21.7927 Z-2.0000 F480.0000 S0.0
G1 X26.6765 Y22.3319 Z-2.0000 F480.0000 S0.0
G1 X26.0067 Y22.7876 Z-2.0000 F480.0000 S0.0
G1 X25.2697 Y23.1596 Z-2.0000 F480.0000 S0.0
G1 X24.4828 Y23.4400 Z-2.0000 F480.0000 S0.0
G1 X23.6632 Y23.6082 Z-2.0000 F480.0000 S0.0
G1 X22.8110 Y23.6642 Z-2.0000 F480.0000 S0.0
G1 X4.3523 Y23.6642 Z-2.0000 F480.0000 S0.0
G1 X4.3523 Y3.1138 Z-2.0000 F480.0000 S0.0
G1 X4.3523 Y23.6642 Z-2.0000 F480.0000 S0.0
G1 X22.8110 Y23.6642 Z-2.0000 F480.0000 S0.0
G1 X23.6632 Y23.6082 Z-2.0000 F480.0000 S0.0
G1 X24.4828 Y23.4400 Z-2.0000 F480.0000 S0.0
G1 X25.2697 Y23.1596 Z-2.0000 F480.0000 S0.0
G1 X26.0067 Y22.7876 Z-2.0000 F480.0000 S0.0
G1 X26.6765 Y22.3319 Z-2.0000 F480.0000 S0.0
G1 X27.2789 Y21.7927 Z-2.0000 F480.0000 S0.0
G1 X27.8130 Y21.1831 Z-2.0000 F480.0000 S0.0
G1 X28.2656 Y20.5042 Z-2.0000 F480.0000 S0.0
G1 X28.6367 Y19.7560 Z-2.0000 F480.0000 S0.0
G1 X28.9119 Y18.9629 Z-2.0000 F480.0000 S0.0
G1 X29.0771 Y18.1372 Z-2.0000 F480.0000 S0.0
G1 X29.1321 Y17.2789 Z-2.0000 F480.0000 S0.0
G1 X29.1321 Y9.4991 Z-2.0000 F480.0000 S0.0
G1 X29.0771 Y8.6245 Z-2.0000 F480.0000 S0.0
G1 X28.9119 Y7.7865 Z-2.0000 F480.0000 S0.0
G1 X28.6367 Y6.9853 Z-2.0000 F480.0000 S0.0
G1 X28.2656 Y6.2432 Z-2.0000 F480.0000 S0.0
G1 X27.8130 Y5.5704 Z-2.0000 F480.0000 S0.0
G1 X27.2789 Y4.9670 Z-2.0000 F480.0000 S0.0
G1 X26.6765 Y4.4369 Z-2.0000 F480.0000 S0.0
G1 X26.0067 Y3.9843 Z-2.0000 F480.0000 S0.0
G1 X25.2697 Y3.6092 Z-2.0000 F480.0000 S0.0
G1 X24.4828 Y3.3339 Z-2.0000 F480.0000 S0.0
G1 X23.6632 Y3.1688 Z-2.0000 F480.0000 S0.0
G1 X22.8110 Y3.1138 Z-2.0000 F480.0000 S0.0
G1 X4.3523 Y3.1138 Z-2.0000 F480.0000 S0.0
G1 X22.8110 Y3.1138 Z-2.0000 F480.0000 S0.0
G0 Z4.0000
G0 X57.6459 Y6.2697 Z4.0000
G0 X57.6459 Y6.2697 Z2.0000
G1 X57.6459 Y6.2697 Z-2.0000 F300.0000 S0.0
G1 X57.4991 Y5.7479 Z-2.0000 F480.0000 S0.0
G1 X57.2862 Y5.2613 Z-2.0000 F480.0000 S0.0
G1 X57.0073 Y4.8099 Z-2.0000 F480.0000 S0.0
G1 X56.6624 Y4.3938 Z-2.0000 F480.0000 S0.0
G1 X56.2514 Y4.0128 Z-2.0000 F480.0000 S0.0
G1 X55.7908 Y3.6892 Z-2.0000 F480.0000 S0.0
G1 X55.2972 Y3.4374 Z-2.0000 F480.0000 S0.0
G1 X54.7706 Y3.2576 Z-2.0000 F480.0000 S0.0
G1 X54.2110 Y3.1497 Z-2.0000 F480.0000 S0.0
G1 X53.6183 Y3.1138 Z-2.0000 F480.0000 S0.0
G1 X44.5450 Y3.1138 Z-2.0000 F480.0000 S0.0
G1 X43.9884 Y3.1484 Z-2.0000 F480.0000 S0.0
G1 X43.4563 Y3.2524 Z-2.0000 F480.0000 S0.0
G1 X42.9486 Y3.4257 Z-2.0000 F480.0000 S0.0
G1 X42.4726 Y3.6601 Z-2.0000 F480.0000 S0.0
G1 X42.0353 Y3.9476 Z-2.0000 F480.0000 S0.0
G1 X41.6367 Y4.2881 Z-2.0000 F480.0000 S0.0
G1 X41.2891 Y4.6795 Z-2.0000 F480.0000 S0.0
G1 X40.9925 Y5.1076 Z-2.0000 F480.0000 S0.0
G1 X40.7468 Y5.5725 Z-2.0000 F480.0000 S0.0
G1 X40.5684 Y6.0699 Z-2.0000 F480.0000 S0.0
G1 X40.4614 Y6.5959 Z-2.0000 F480.0000 S0.0
G1 X40.4257 Y7.1505 Z-2.0000 F480.0000 S0.0
G1 X40.4257 Y13.1688 Z-2.0000 F480.0000 S0.0
G1 X40.4614 Y13.7233 Z-2.0000 F480.0000 S0.0
G1 X40.5684 Y14.2493 Z-2.0000 F480.0000 S0.0
G1 X40.7468 Y14.7468 Z-2.0000 F480.0000 S0.0
G1 X40.9925 Y15.2106 Z-2.0000 F480.0000 S0.0
G1 X41.2891 Y15.6357 Z-2.0000 F480.0000 S0.0
G1 X41.6367 Y16.0220 Z-2.0000 F480.0000 S0.0
G1 X42.0353 Y16.3676 Z-2.0000 F480.0000 S0.0
G1 X42.4726 Y16.6581 Z-2.0000 F480.0000 S0.0
G1 X42.9486 Y16.8936 Z-2.0000 F480.0000 S0.0
G1 X43.4563 Y17.0669 Z-2.0000 F480.0000 S0.0
G1 X43.9884 Y17.1708 Z-2.0000 F480.0000 S0.0
G1 X44.5450 Y17.2055 Z-2.0000 F480.0000 S0.0
G1 X53.6183 Y17.2055 Z-2.0000 F480.0000 S0.0
G1 X54.1719 Y17.1698 Z-2.0000 F480.0000 S0.0
G1 X54.7070 Y17.0628 Z-2.0000 F480.0000 S0.0
G1 X55.2239 Y16.8844 Z-2.0000 F480.0000 S0.0
G1 X55.7091 Y16.6428 Z-2.0000 F480.0000 S0.0
G1 X56.1494 Y16.3462 Z-2.0000 F480.0000 S0.0
G1 X56.5450 Y15.9945 Z-2.0000 F480.0000 S0.0
G1 X56.8966 Y15.5949 Z-2.0000 F480.0000 S0.0
G1 X57.1933 Y15.1545 Z-2.0000 F480.0000 S0.0
G1 X57.4349 Y14.6734 Z-2.0000 F480.0000 S0.0
G1 X57.6133 Y14.1637 Z-2.0000 F480.0000 S0.0
G1 X57.7203 Y13.6255 Z-2.0000 F480.0000 S0.0
G1 X57.7560 Y13.0587 Z-2.0000 F480.0000 S0.0
G1 X57.7560 Y10.7468 Z-2.0000 F480.0000 S0.0
G1 X40.4257 Y10.7743 Z-2.0000 F480.0000 S0.0
G1 X57.7560 Y10.7468 Z-2.0000 F480.0000 S0.0
G1 X57.7560 Y13.0587 Z-2.0000 F480.0000 S0.0
G1 X57.7203 Y13.6255 Z-2.0000 F480.0000 S0.0
G1 X57.6133 Y14.1637 Z-2.0000 F480.0000 S0.0
G1 X57.4349 Y14.6734 Z-2.0000 F480.0000 S0.0
G1 X57.1933 Y15.1545 Z-2.0000 F480.0000 S0.0
G1 X56.8966 Y15.5949 Z-2.0000 F480.0000 S0.0
G1 X56.5450 Y15.9945 Z-2.0000 F480.0000 S0.0
G1 X56.1494 Y16.3462 Z-2.0000 F480.0000 S0.0
G1 X55.7091 Y16.6428 Z-2.0000 F480.0000 S0.0
G1 X55.2239 Y16.8844 Z-2.0000 F480.0000 S0.0
G1 X54.7070 Y17.0628 Z-2.0000 F480.0000 S0.0
G1 X54.1719 Y17.1698 Z-2.0000 F480.0000 S0.0
G1 X53.6183 Y17.2055 Z-2.0000 F480.0000 S0.0
G1 X44.5450 Y17.2055 Z-2.0000 F480.0000 S0.0
G1 X43.9884 Y17.1708 Z-2.0000 F480.0000 S0.0
G1 X43.4563 Y17.0669 Z-2.0000 F480.0000 S0.0
G1 X42.9486 Y16.8936 Z-2.0000 F480.0000 S0.0
G1 X42.4726 Y16.6581 Z-2.0000 F480.0000 S0.0
G1 X42.0353 Y16.3676 Z-2.0000 F480.0000 S0.0
G1 X41.6367 Y16.0220 Z-2.0000 F480.0000 S0.0
G1 X41.2891 Y15.6357 Z-2.0000 F480.0000 S0.0
G1 X40.9925 Y15.2106 Z-2.0000 F480.0000 S0.0
G1 X40.7468 Y14.7468 Z-2.0000 F480.0000 S0.0
G1 X40.5684 Y14.2493 Z-2.0000 F480.0000 S0.0
G1 X40.4614 Y13.7233 Z-2.0000 F480.0000 S0.0
G1 X40.4257 Y13.1688 Z-2.0000 F480.0000 S0.0
G1 X40.4257 Y7.1505 Z-2.0000 F480.0000 S0.0
G1 X40.4614 Y6.5959 Z-2.0000 F480.0000 S0.0
G1 X40.5684 Y6.0699 Z-2.0000 F480.0000 S0.0
G1 X40.7468 Y5.5725 Z-2.0000 F480.0000 S0.0
G1 X40.9925 Y5.1076 Z-2.0000 F480.0000 S0.0
G1 X41.2891 Y4.6795 Z-2.0000 F480.0000 S0.0
G1 X41.6367 Y4.2881 Z-2.0000 F480.0000 S0.0
G1 X42.0353 Y3.9476 Z-2.0000 F480.0000 S0.0
G1 X42.4726 Y3.6601 Z-2.0000 F480.0000 S0.0
G1 X42.9486 Y3.4257 Z-2.0000 F480.0000 S0.0
G1 X43.4563 Y3.2524 Z-2.0000 F480.0000 S0.0
G1 X43.9884 Y3.1484 Z-2.0000 F480.0000 S0.0
G1 X44.5450 Y3.1138 Z-2.0000 F480.0000 S0.0
G1 X53.6183 Y3.1138 Z-2.0000 F480.0000 S0.0
G1 X54.2110 Y3.1497 Z-2.0000 F480.0000 S0.0
G1 X54.7706 Y3.2576 Z-2.0000 F480.0000 S0.0
G1 X55.2972 Y3.4374 Z-2.0000 F480.0000 S0.0
G1 X55.7908 Y3.6892 Z-2.0000 F480.0000 S0.0
G1 X56.2514 Y4.0128 Z-2.0000 F480.0000 S0.0
G1 X56.6624 Y4.3938 Z-2.0000 F480.0000 S0.0
G1 X57.0073 Y4.8099 Z-2.0000 F480.0000 S0.0
G1 X57.2862 Y5.2613 Z-2.0000 F480.0000 S0.0
G1 X57.4991 Y5.7479 Z-2.0000 F480.0000 S0.0
G1 X57.6459 Y6.2697 Z-2.0000 F480.0000 S0.0
G0 Z4.0000
G0 X86.2239 Y-0.1706 Z4.0000
G0 X86.2239 Y-0.1706 Z2.0000
G1 X86.2239 Y-0.1706 Z-2.0000 F300.0000 S0.0
G1 X86.2026 Y-0.7710 Z-2.0000 F480.0000 S0.0
G1 X86.1390 Y-1.3060 Z-2.0000 F480.0000 S0.0
G1 X86.0329 Y-1.7756 Z-2.0000 F480.0000 S0.0
G1 X85.8844 Y-2.1798 Z-2.0000 F480.0000 S0.0
G1 X85.6986 Y-2.5296 Z-2.0000 F480.0000 S0.0
G1 X85.4807 Y-2.8358 Z-2.0000 F480.0000 S0.0
G1 X85.2307 Y-3.0984 Z-2.0000 F480.0000 S0.0
G1 X84.9486 Y-3.3174 Z-2.0000 F480.0000 S0.0
G1 X84.6413 Y-3.4969 Z-2.0000 F480.0000 S0.0
G1 X84.3064 Y-3.6408 Z-2.0000 F480.0000 S0.0
G1 X83.9440 Y-3.7492 Z-2.0000 F480.0000 S0.0
G1 X83.5541 Y-3.8220 Z-2.0000 F480.0000 S0.0
G1 X82.7307 Y-3.9046 Z-2.0000 F480.0000 S0.0
G1 X81.8569 Y-3.9321 Z-2.0000 F480.0000 S0.0
G1 X72.6642 Y-3.9321 Z-2.0000 F480.0000 S0.0
G1 X72.0661 Y-3.9046 Z-2.0000 F480.0000 S0.0
G1 X71.5134 Y-3.8220 Z-2.0000 F480.0000 S0.0
G1 X71.0060 Y-3.6844 Z-2.0000 F480.0000 S0.0
G1 X70.5439 Y-3.4917 Z-2.0000 F480.0000 S0.0
G1 X70.1273 Y-3.2440 Z-2.0000 F480.0000 S0.0
G1 X69.7560 Y-2.9413 Z-2.0000 F480.0000 S0.0
G1 X69.4392 Y-2.5896 Z-2.0000 F480.0000 S0.0
G1 X69.1800 Y-2.1951 Z-2.0000 F480.0000 S0.0
G1 X68.9784 Y-1.7578 Z-2.0000 F480.0000 S0.0
G1 X68.8345 Y-1.2777 Z-2.0000 F480.0000 S0.0
G1 X68.7481 Y-0.7547 Z-2.0000 F480.0000 S0.0
G1 X68.7193 Y-0.1890 Z-2.0000 F480.0000 S0.0
G1 X68.7481 Y-0.7547 Z-2.0000 F480.0000 S0.0
G1 X68.8345 Y-1.2777 Z-2.0000 F480.0000 S0.0
G1 X68.9784 Y-1.7578 Z-2.0000 F480.0000 S0.0
G1 X69.1800 Y-2.1951 Z-2.0000 F480.0000 S0.0
G1 X69.4392 Y-2.5896 Z-2.0000 F480.0000 S0.0
G1 X69.7560 Y-2.9413 Z-2.0000 F480.0000 S0.0
G1 X70.1273 Y-3.2440 Z-2.0000 F480.0000 S0.0
G1 X70.5439 Y-3.4917 Z-2.0000 F480.0000 S0.0
G1 X71.0060 Y-3.6844 Z-2.0000 F480.0000 S0.0
G1 X71.5134 Y-3.8220 Z-2.0000 F480.0000 S0.0
G1 X72.0661 Y-3.9046 Z-2.0000 F480.0000 S0.0
G1 X72.6642 Y-3.9321 Z-2.0000 F480.0000 S0.0
G1 X81.8569 Y-3.9321 Z-2.0000 F480.0000 S0.0
G1 X82.7307 Y-3.9046 Z-2.0000 F480.0000 S0.0
G1 X83.5541 Y-3.8220 Z-2.0000 F480.0000 S0.0
G1 X83.9440 Y-3.7492 Z-2.0000 F480.0000 S0.0
G1 X84.3064 Y-3.6408 Z-2.0000 F480.0000 S0.0
G1 X84.6413 Y-3.4969 Z-2.0000 F480.0000 S0.0
G1 X84.9486 Y-3.3174 Z-2.0000 F480.0000 S0.0
G1 X85.2307 Y-3.0984 Z-2.0000 F480.0000 S0.0
G1 X85.4807 Y-2.8358 Z-2.0000 F480.0000 S0.0
G1 X85.6986 Y-2.5296 Z-2.0000 F480.0000 S0.0
G1 X85.8844 Y-2.1798 Z-2.0000 F480.0000 S0.0
G1 X86.0329 Y-1.7756 Z-2.0000 F480.0000 S0.0
G1 X86.1390 Y-1.3060 Z-2.0000 F480.0000 S0.0
G1 X86.2026 Y-0.7710 Z-2.0000 F480.0000 S0.0
G1 X86.2239 Y-0.1706 Z-2.0000 F480.0000 S0.0
G1 X86.2239 Y17.2055 Z-2.0000 F480.0000 S0.0
G1 X86.2239 Y-0.1706 Z-2.0000 F480.0000 S0.0
G0 Z4.0000
G0 X86.2239 Y13.1321 Z4.0000
G0 X86.2239 Y13.1321 Z2.0000
G1 X86.2239 Y13.1321 Z-2.0000 F300.0000 S0.0
G1 X86.1872 Y13.6775 Z-2.0000 F480.0000 S0.0
G1 X86.0771 Y14.2004 Z-2.0000 F480.0000 S0.0
G1 X85.8936 Y14.7009 Z-2.0000 F480.0000 S0.0
G1 X85.6540 Y15.1759 Z-2.0000 F480.0000 S0.0
G1 X85.3635 Y15.6102 Z-2.0000 F480.0000 S0.0
G1 X85.0220 Y16.0037 Z-2.0000 F480.0000 S0.0
G1 X84.6336 Y16.3503 Z-2.0000 F480.0000 S0.0
G1 X84.2024 Y16.6438 Z-2.0000 F480.0000 S0.0
G1 X83.7284 Y16.8844 Z-2.0000 F480.0000 S0.0
G1 X83.2208 Y17.0628 Z-2.0000 F480.0000 S0.0
G1 X82.6887 Y17.1698 Z-2.0000 F480.0000 S0.0
G1 X82.1321 Y17.2055 Z-2.0000 F480.0000 S0.0
G1 X72.4165 Y17.2055 Z-2.0000 F480.0000 S0.0
G1 X71.8599 Y17.1698 Z-2.0000 F480.0000 S0.0
G1 X71.3278 Y17.0628 Z-2.0000 F480.0000 S0.0
G1 X70.8202 Y16.8844 Z-2.0000 F480.0000 S0.0
G1 X70.3462 Y16.6438 Z-2.0000 F480.0000 S0.0
G1 X69.9150 Y16.3503 Z-2.0000 F480.0000 S0.0
G1 X69.5266 Y16.0037 Z-2.0000 F480.0000 S0.0
G1 X69.1841 Y15.6102 Z-2.0000 F480.0000 S0.0
G1 X68.8905 Y15.1759 Z-2.0000 F480.0000 S0.0
G1 X68.6459 Y14.7009 Z-2.0000 F480.0000 S0.0
G1 X68.4675 Y14.1994 Z-2.0000 F480.0000 S0.0
G1 X68.3604 Y13.6734 Z-2.0000 F480.0000 S0.0
G1 X68.3248 Y13.1229 Z-2.0000 F480.0000 S0.0
G1 X68.3248 Y7.2606 Z-2.0000 F480.0000 S0.0
G1 X68.3604 Y6.7040 Z-2.0000 F480.0000 S0.0
G1 X68.4675 Y6.1719 Z-2.0000 F480.0000 S0.0
G1 X68.6459 Y5.6642 Z-2.0000 F480.0000 S0.0
G1 X68.8905 Y5.1902 Z-2.0000 F480.0000 S0.0
G1 X69.1841 Y4.7590 Z-2.0000 F480.0000 S0.0
G1 X69.5266 Y4.3706 Z-2.0000 F480.0000 S0.0
G1 X69.9150 Y4.0281 Z-2.0000 F480.0000 S0.0
G1 X70.3462 Y3.7346 Z-2.0000 F480.0000 S0.0
G1 X70.8202 Y3.4899 Z-2.0000 F480.0000 S0.0
G1 X71.3278 Y3.3115 Z-2.0000 F480.0000 S0.0
G1 X71.8599 Y3.2045 Z-2.0000 F480.0000 S0.0
G1 X72.4165 Y3.1688 Z-2.0000 F480.0000 S0.0
G1 X82.1321 Y3.1688 Z-2.0000 F480.0000 S0.0
G1 X82.6887 Y3.2045 Z-2.0000 F480.0000 S0.0
G1 X83.2208 Y3.3115 Z-2.0000 F480.0000 S0.0
G1 X83.7284 Y3.4899 Z-2.0000 F480.0000 S0.0
G1 X84.2024 Y3.7346 Z-2.0000 F480.0000 S0.0
G1 X84.6336 Y4.0281 Z-2.0000 F480.0000 S0.0
G1 X85.0220 Y4.3706 Z-2.0000 F480.0000 S0.0
G1 X85.3635 Y4.7590 Z-2.0000 F480.0000 S0.0
G1 X85.6540 Y5.1902 Z-2.0000 F480.0000 S0.0
G1 X85.8936 Y5.6642 Z-2.0000 F480.0000 S0.0
G1 X86.0771 Y6.1719 Z-2.0000 F480.0000 S0.0
G1 X86.1872 Y6.7040 Z-2.0000 F480.0000 S0.0
G1 X86.2239 Y7.2606 Z-2.0000 F480.0000 S0.0
G1 X86.1872 Y6.7040 Z-2.0000 F480.0000 S0.0
G1 X86.0771 Y6.1719 Z-2.0000 F480.0000 S0.0
G1 X85.8936 Y5.6642 Z-2.0000 F480.0000 S0.0
G1 X85.6540 Y5.1902 Z-2.0000 F480.0000 S0.0
G1 X85.3635 Y4.7590 Z-2.0000 F480.0000 S0.0
G1 X85.0220 Y4.3706 Z-2.0000 F480.0000 S0.0
G1 X84.6336 Y4.0281 Z-2.0000 F480.0000 S0.0
G1 X84.2024 Y3.7346 Z-2.0000 F480.0000 S0.0
G1 X83.7284 Y3.4899 Z-2.0000 F480.0000 S0.0
G1 X83.2208 Y3.3115 Z-2.0000 F480.0000 S0.0
G1 X82.6887 Y3.2045 Z-2.0000 F480.0000 S0.0
G1 X82.1321 Y3.1688 Z-2.0000 F480.0000 S0.0
G1 X72.4165 Y3.1688 Z-2.0000 F480.0000 S0.0
G1 X71.8599 Y3.2045 Z-2.0000 F480.0000 S0.0
G1 X71.3278 Y3.3115 Z-2.0000 F480.0000 S0.0
G1 X70.8202 Y3.4899 Z-2.0000 F480.0000 S0.0
G1 X70.3462 Y3.7346 Z-2.0000 F480.0000 S0.0
G1 X69.9150 Y4.0281 Z-2.0000 F480.0000 S0.0
G1 X69.5266 Y4.3706 Z-2.0000 F480.0000 S0.0
G1 X69.1841 Y4.7590 Z-2.0000 F480.0000 S0.0
G1 X68.8905 Y5.1902 Z-2.0000 F480.0000 S0.0
G1 X68.6459 Y5.6642 Z-2.0000 F480.0000 S0.0
G1 X68.4675 Y6.1719 Z-2.0000 F480.0000 S0.0
G1 X68.3604 Y6.7040 Z-2.0000 F480.0000 S0.0
G1 X68.3248 Y7.2606 Z-2.0000 F480.0000 S0.0
G1 X68.3248 Y13.1229 Z-2.0000 F480.0000 S0.0
G1 X68.3604 Y13.6734 Z-2.0000 F480.0000 S0.0
G1 X68.4675 Y14.1994 Z-2.0000 F480.0000 S0.0
G1 X68.6459 Y14.7009 Z-2.0000 F480.0000 S0.0
G1 X68.8905 Y15.1759 Z-2.0000 F480.0000 S0.0
G1 X69.1841 Y15.6102 Z-2.0000 F480.0000 S0.0
G1 X69.5266 Y16.0037 Z-2.0000 F480.0000 S0.0
G1 X69.9150 Y16.3503 Z-2.0000 F480.0000 S0.0
G1 X70.3462 Y16.6438 Z-2.0000 F480.0000 S0.0
G1 X70.8202 Y16.8844 Z-2.0000 F480.0000 S0.0
G1 X71.3278 Y17.0628 Z-2.0000 F480.0000 S0.0
G1 X71.8599 Y17.1698 Z-2.0000 F480.0000 S0.0
G1 X72.4165 Y17.2055 Z-2.0000 F480.0000 S0.0
G1 X82.1321 Y17.2055 Z-2.0000 F480.0000 S0.0
G1 X82.6887 Y17.1698 Z-2.0000 F480.0000 S0.0
G1 X83.2208 Y17.0628 Z-2.0000 F480.0000 S0.0
G1 X83.7284 Y16.8844 Z-2.0000 F480.0000 S0.0
G1 X84.2024 Y16.6438 Z-2.0000 F480.0000 S0.0
G1 X84.6336 Y16.3503 Z-2.0000 F480.0000 S0.0
G1 X85.0220 Y16.0037 Z-2.0000 F480.0000 S0.0
G1 X85.3635 Y15.6102 Z-2.0000 F480.0000 S0.0
G1 X85.6540 Y15.1759 Z-2.0000 F480.0000 S0.0
G1 X85.8936 Y14.7009 Z-2.0000 F480.0000 S0.0
G1 X86.0771 Y14.2004 Z-2.0000 F480.0000 S0.0
G1 X86.1872 Y13.6775 Z-2.0000 F480.0000 S0.0
G1 X86.2239 Y13.1321 Z-2.0000 F480.0000 S0.0
G0 Z4.0000
G0 X114.0312 Y6.2697 Z4.0000
G0 X114.0312 Y6.2697 Z2.0000
G1 X114.0312 Y6.2697 Z-2.0000 F300.0000 S0.0
G1 X113.8844 Y5.7479 Z-2.0000 F480.0000 S0.0
G1 X113.6716 Y5.2613 Z-2.0000 F480.0000 S0.0
G1 X113.3927 Y4.8099 Z-2.0000 F480.0000 S0.0
G1 X113.0477 Y4.3938 Z-2.0000 F480.0000 S0.0
G1 X112.6367 Y4.0128 Z-2.0000 F480.0000 S0.0
G1 X112.1761 Y3.6892 Z-2.0000 F480.0000 S0.0
G1 X111.6826 Y3.4374 Z-2.0000 F480.0000 S0.0
G1 X111.1560 Y3.2576 Z-2.0000 F480.0000 S0.0
G1 X110.5963 Y3.1497 Z-2.0000 F480.0000 S0.0
G1 X110.0037 Y3.1138 Z-2.0000 F480.0000 S0.0
G1 X100.9303 Y3.1138 Z-2.0000 F480.0000 S0.0
G1 X100.3737 Y3.1484 Z-2.0000 F480.0000 S0.0
G1 X99.8416 Y3.2524 Z-2.0000 F480.0000 S0.0
G1 X99.3339 Y3.4257 Z-2.0000 F480.0000 S0.0
G1 X98.8579 Y3.6601 Z-2.0000 F480.0000 S0.0
G1 X98.4206 Y3.9476 Z-2.0000 F480.0000 S0.0
G1 X98.0220 Y4.2881 Z-2.0000 F480.0000 S0.0
G1 X97.6744 Y4.6795 Z-2.0000 F480.0000 S0.0
G1 X97.3778 Y5.1076 Z-2.0000 F480.0000 S0.0
G1 X97.1321 Y5.5725 Z-2.0000 F480.0000 S0.0
G1 X96.9537 Y6.0699 Z-2.0000 F480.0000 S0.0
G1 X96.8467 Y6.5959 Z-2.0000 F480.0000 S0.0
G1 X96.8110 Y7.1505 Z-2.0000 F480.0000 S0.0
G1 X96.8110 Y13.1688 Z-2.0000 F480.0000 S0.0
G1 X96.8467 Y13.7233 Z-2.0000 F480.0000 S0.0
G1 X96.9537 Y14.2493 Z-2.0000 F480.0000 S0.0
G1 X97.1321 Y14.7468 Z-2.0000 F480.0000 S0.0
G1 X97.3778 Y15.2106 Z-2.0000 F480.0000 S0.0
G1 X97.6744 Y15.6357 Z-2.0000 F480.0000 S0.0
G1 X98.0220 Y16.0220 Z-2.0000 F480.0000 S0.0
G1 X98.4206 Y16.3676 Z-2.0000 F480.0000 S0.0
G1 X98.8579 Y16.6581 Z-2.0000 F480.0000 S0.0
G1 X99.3339 Y16.8936 Z-2.0000 F480.0000 S0.0
G1 X99.8416 Y17.0669 Z-2.0000 F480.0000 S0.0
G1 X100.3737 Y17.1708 Z-2.0000 F480.0000 S0.0
G1 X100.9303 Y17.2055 Z-2.0000 F480.0000 S0.0
G1 X110.0037 Y17.2055 Z-2.0000 F480.0000 S0.0
G1 X110.5572 Y17.1698 Z-2.0000 F480.0000 S0.0
G1 X111.0924 Y17.0628 Z-2.0000 F480.0000 S0.0
G1 X111.6092 Y16.8844 Z-2.0000 F480.0000 S0.0
G1 X112.0944 Y16.6428 Z-2.0000 F480.0000 S0.0
G1 X112.5348 Y16.3462 Z-2.0000 F480.0000 S0.0
G1 X112.9303 Y15.9945 Z-2.0000 F480.0000 S0.0
G1 X113.2820 Y15.5949 Z-2.0000 F480.0000 S0.0
G1 X113.5786 Y15.1545 Z-2.0000 F480.0000 S0.0
G1 X113.8202 Y14.6734 Z-2.0000 F480.0000 S0.0
G1 X113.9986 Y14.1637 Z-2.0000 F480.0000 S0.0
G1 X114.1056 Y13.6255 Z-2.0000 F480.0000 S0.0
G1 X114.1413 Y13.0587 Z-2.0000 F480.0000 S0.0
G1 X114.1413 Y10.7468 Z-2.0000 F480.0000 S0.0
G1 X96.8110 Y10.7743 Z-2.0000 F480.0000 S0.0
G1 X114.1413 Y10.7468 Z-2.0000 F480.0000 S0.0
G1 X114.1413 Y13.0587 Z-2.0000 F480.0000 S0.0
G1 X114.1056 Y13.6255 Z-2.0000 F480.0000 S0.0
G1 X113.9986 Y14.1637 Z-2.0000 F480.0000 S0.0
G1 X113.8202 Y14.6734 Z-2.0000 F480.0000 S0.0
G1 X113.5786 Y15.1545 Z-2.0000 F480.0000 S0.0
G1 X113.2820 Y15.5949 Z-2.0000 F480.0000 S0.0
G1 X112.9303 Y15.9945 Z-2.0000 F480.0000 S0.0
G1 X112.5348 Y16.3462 Z-2.0000 F480.0000 S0.0
G1 X112.0944 Y16.6428 Z-2.0000 F480.0000 S0.0
G1 X111.6092 Y16.8844 Z-2.0000 F480.0000 S0.0
G1 X111.0924 Y17.0628 Z-2.0000 F480.0000 S0.0
G1 X110.5572 Y17.1698 Z-2.0000 F480.0000 S0.0
G1 X110.0037 Y17.2055 Z-2.0000 F480.0000 S0.0
G1 X100.9303 Y17.2055 Z-2.0000 F480.0000 S0.0
G1 X100.3737 Y17.1708 Z-2.0000 F480.0000 S0.0
G1 X99.8416 Y17.0669 Z-2.0000 F480.0000 S0.0
G1 X99.3339 Y16.8936 Z-2.0000 F480.0000 S0.0
G1 X98.8579 Y16.6581 Z-2.0000 F480.0000 S0.0
G1 X98.4206 Y16.3676 Z-2.0000 F480.0000 S0.0
G1 X98.0220 Y16.0220 Z-2.0000 F480.0000 S0.0
G1 X97.6744 Y15.6357 Z-2.0000 F480.0000 S0.0
G1 X97.3778 Y15.2106 Z-2.0000 F480.0000 S0.0
G1 X97.1321 Y14.7468 Z-2.0000 F480.0000 S0.0
G1 X96.9537 Y14.2493 Z-2.0000 F480.0000 S0.0
G1 X96.8467 Y13.7233 Z-2.0000 F480.0000 S0.0
G1 X96.8110 Y13.1688 Z-2.0000 F480.0000 S0.0
G1 X96.8110 Y7.1505 Z-2.0000 F480.0000 S0.0
G1 X96.8467 Y6.5959 Z-2.0000 F480.0000 S0.0
G1 X96.9537 Y6.0699 Z-2.0000 F480.0000 S0.0
G1 X97.1321 Y5.5725 Z-2.0000 F480.0000 S0.0
G1 X97.3778 Y5.1076 Z-2.0000 F480.0000 S0.0
G1 X97.6744 Y4.6795 Z-2.0000 F480.0000 S0.0
G1 X98.0220 Y4.2881 Z-2.0000 F480.0000 S0.0
G1 X98.4206 Y3.9476 Z-2.0000 F480.0000 S0.0
G1 X98.8579 Y3.6601 Z-2.0000 F480.0000 S0.0
G1 X99.3339 Y3.4257 Z-2.0000 F480.0000 S0.0
G1 X99.8416 Y3.2524 Z-2.0000 F480.0000 S0.0
G1 X100.3737 Y3.1484 Z-2.0000 F480.0000 S0.0
G1 X100.9303 Y3.1138 Z-2.0000 F480.0000 S0.0
G1 X110.0037 Y3.1138 Z-2.0000 F480.0000 S0.0
G1 X110.5963 Y3.1497 Z-2.0000 F480.0000 S0.0
G1 X111.1560 Y3.2576 Z-2.0000 F480.0000 S0.0
G1 X111.6826 Y3.4374 Z-2.0000 F480.0000 S0.0
G1 X112.1761 Y3.6892 Z-2.0000 F480.0000 S0.0
G1 X112.6367 Y4.0128 Z-2.0000 F480.0000 S0.0
G1 X113.0477 Y4.3938 Z-2.0000 F480.0000 S0.0
G1 X113.3927 Y4.8099 Z-2.0000 F480.0000 S0.0
G1 X113.6716 Y5.2613 Z-2.0000 F480.0000 S0.0
G1 X113.8844 Y5.7479 Z-2.0000 F480.0000 S0.0
G1 X114.0312 Y6.2697 Z-2.0000 F480.0000 S0.0
G0 Z4.0000
G0 X143.0312 Y3.3982 Z4.0000
G0 X143.0312 Y3.3982 Z2.0000
G1 X143.0312 Y3.3982 Z-2.0000 F300.0000 S0.0
G1 X143.0312 Y13.3706 Z-2.0000 F480.0000 S0.0
G1 X143.0052 Y13.9912 Z-2.0000 F480.0000 S0.0
G1 X142.9272 Y14.5562 Z-2.0000 F480.0000 S0.0
G1 X142.7972 Y15.0656 Z-2.0000 F480.0000 S0.0
G1 X142.6153 Y15.5195 Z-2.0000 F480.0000 S0.0
G1 X142.3813 Y15.9178 Z-2.0000 F480.0000 S0.0
G1 X142.0954 Y16.2606 Z-2.0000 F480.0000 S0.0
G1 X141.7560 Y16.5493 Z-2.0000 F480.0000 S0.0
G1 X141.3554 Y16.7855 Z-2.0000 F480.0000 S0.0
G1 X140.8936 Y16.9693 Z-2.0000 F480.0000 S0.0
G1 X140.3706 Y17.1005 Z-2.0000 F480.0000 S0.0
G1 X139.7865 Y17.1793 Z-2.0000 F480.0000 S0.0
G1 X139.1413 Y17.2055 Z-2.0000 F480.0000 S0.0
G1 X131.6734 Y17.2055 Z-2.0000 F480.0000 S0.0
G1 X130.7697 Y17.1550 Z-2.0000 F480.0000 S0.0
G1 X129.9119 Y17.0037 Z-2.0000 F480.0000 S0.0
G1 X129.3788 Y16.8446 Z-2.0000 F480.0000 S0.0
G1 X128.8926 Y16.6245 Z-2.0000 F480.0000 S0.0
G1 X128.4532 Y16.3431 Z-2.0000 F480.0000 S0.0
G1 X128.0709 Y16.0067 Z-2.0000 F480.0000 S0.0
G1 X127.7437 Y15.6092 Z-2.0000 F480.0000 S0.0
G1 X127.4716 Y15.1505 Z-2.0000 F480.0000 S0.0
G1 X127.3110 Y14.7640 Z-2.0000 F480.0000 S0.0
G1 X127.1963 Y14.3385 Z-2.0000 F480.0000 S0.0
G1 X127.1275 Y13.8741 Z-2.0000 F480.0000 S0.0
G1 X127.1046 Y13.3706 Z-2.0000 F480.0000 S0.0
G1 X127.1275 Y13.8741 Z-2.0000 F480.0000 S0.0
G1 X127.1963 Y14.3385 Z-2.0000 F480.0000 S0.0
G1 X127.3110 Y14.7640 Z-2.0000 F480.0000 S0.0
G1 X127.4716 Y15.1505 Z-2.0000 F480.0000 S0.0
G1 X127.7437 Y15.6092 Z-2.0000 F480.0000 S0.0
G1 X128.0709 Y16.0067 Z-2.0000 F480.0000 S0.0
G1 X128.4532 Y16.3431 Z-2.0000 F480.0000 S0.0
G1 X128.8926 Y16.6245 Z-2.0000 F480.0000 S0.0
G1 X129.3788 Y16.8446 Z-2.0000 F480.0000 S0.0
G1 X129.9119 Y17.0037 Z-2.0000 F480.0000 S0.0
G1 X130.7697 Y17.1550 Z-2.0000 F480.0000 S0.0
G1 X131.6734 Y17.2055 Z-2.0000 F480.0000 S0.0
G1 X139.1413 Y17.2055 Z-2.0000 F480.0000 S0.0
G1 X139.7865 Y17.1793 Z-2.0000 F480.0000 S0.0
G1 X140.3706 Y17.1005 Z-2.0000 F480.0000 S0.0
G1 X140.8936 Y16.9693 Z-2.0000 F480.0000 S0.0
G1 X141.3554 Y16.7855 Z-2.0000 F480.0000 S0.0
G1 X141.7560 Y16.5493 Z-2.0000 F480.0000 S0.0
G1 X142.0954 Y16.2606 Z-2.0000 F480.0000 S0.0
G1 X142.3813 Y15.9178 Z-2.0000 F480.0000 S0.0
G1 X142.6153 Y15.5195 Z-2.0000 F480.0000 S0.0
G1 X142.7972 Y15.0656 Z-2.0000 F480.0000 S0.0
G1 X142.9272 Y14.5562 Z-2.0000 F480.0000 S0.0
G1 X143.0052 Y13.9912 Z-2.0000 F480.0000 S0.0
G1 X143.0312 Y13.3706 Z-2.0000 F480.0000 S0.0
G1 X143.0312 Y3.3982 Z-2.0000 F480.0000 S0.0
G0 Z4.0000
G0 X127.1046 Y17.2055 Z4.0000
G0 X127.1046 Y17.2055 Z2.0000
G1 X127.1046 Y17.2055 Z-2.0000 F300.0000 S0.0
G1 X127.1046 Y3.1138 Z-2.0000 F480.0000 S0.0
G1 X127.1046 Y17.2055 Z-2.0000 F480.0000 S0.0
G0 Z4.0000
G0 X158.9853 Y13.3706 Z4.0000
G0 X158.9853 Y13.3706 Z2.0000
G1 X158.9853 Y13.3706 Z-2.0000 F300.0000 S0.0
G1 X158.9586 Y13.9912 Z-2.0000 F480.0000 S0.0
G1 X158.8783 Y14.5562 Z-2.0000 F480.0000 S0.0
G1 X158.7445 Y15.0656 Z-2.0000 F480.0000 S0.0
G1 X158.5572 Y15.5195 Z-2.0000 F480.0000 S0.0
G1 X158.3164 Y15.9178 Z-2.0000 F480.0000 S0.0
G1 X158.0220 Y16.2606 Z-2.0000 F480.0000 S0.0
G1 X157.6742 Y16.5493 Z-2.0000 F480.0000 S0.0
G1 X157.2667 Y16.7855 Z-2.0000 F480.0000 S0.0
G1 X156.7995 Y16.9693 Z-2.0000 F480.0000 S0.0
G1 X156.2728 Y17.1005 Z-2.0000 F480.0000 S0.0
G1 X155.6864 Y17.1793 Z-2.0000 F480.0000 S0.0
G1 X155.0404 Y17.2055 Z-2.0000 F480.0000 S0.0
G1 X147.5725 Y17.2055 Z-2.0000 F480.0000 S0.0
G1 X146.6619 Y17.1550 Z-2.0000 F480.0000 S0.0
G1 X145.8018 Y17.0037 Z-2.0000 F480.0000 S0.0
G1 X145.2758 Y16.8446 Z-2.0000 F480.0000 S0.0
G1 X144.7988 Y16.6245 Z-2.0000 F480.0000 S0.0
G1 X144.3706 Y16.3431 Z-2.0000 F480.0000 S0.0
G1 X143.9935 Y16.0067 Z-2.0000 F480.0000 S0.0
G1 X143.6693 Y15.6092 Z-2.0000 F480.0000 S0.0
G1 X143.3982 Y15.1505 Z-2.0000 F480.0000 S0.0
G1 X143.2376 Y14.7640 Z-2.0000 F480.0000 S0.0
G1 X143.1229 Y14.3385 Z-2.0000 F480.0000 S0.0
G1 X143.0541 Y13.8741 Z-2.0000 F480.0000 S0.0
G1 X143.0312 Y13.3706 Z-2.0000 F480.0000 S0.0
G1 X143.0541 Y13.8741 Z-2.0000 F480.0000 S0.0
G1 X143.1229 Y14.3385 Z-2.0000 F480.0000 S0.0
G1 X143.2376 Y14.7640 Z-2.0000 F480.0000 S0.0
G1 X143.3982 Y15.1505 Z-2.0000 F480.0000 S0.0
G1 X143.6693 Y15.6092 Z-2.0000 F480.0000 S0.0
G1 X143.9935 Y16.0067 Z-2.0000 F480.0000 S0.0
G1 X144.3706 Y16.3431 Z-2.0000 F480.0000 S0.0
G1 X144.7988 Y16.6245 Z-2.0000 F480.0000 S0.0
G1 X145.2758 Y16.8446 Z-2.0000 F480.0000 S0.0
G1 X145.8018 Y17.0037 Z-2.0000 F480.0000 S0.0
G1 X146.6619 Y17.1550 Z-2.0000 F480.0000 S0.0
G1 X147.5725 Y17.2055 Z-2.0000 F480.0000 S0.0
G1 X155.0404 Y17.2055 Z-2.0000 F480.0000 S0.0
G1 X155.6864 Y17.1793 Z-2.0000 F480.0000 S0.0
G1 X156.2728 Y17.1005 Z-2.0000 F480.0000 S0.0
G1 X156.7995 Y16.9693 Z-2.0000 F480.0000 S0.0
G1 X157.2667 Y16.7855 Z-2.0000 F480.0000 S0.0
G1 X157.6742 Y16.5493 Z-2.0000 F480.0000 S0.0
G1 X158.0220 Y16.2606 Z-2.0000 F480.0000 S0.0
G1 X158.3164 Y15.9178 Z-2.0000 F480.0000 S0.0
G1 X158.5572 Y15.5195 Z-2.0000 F480.0000 S0.0
G1 X158.7445 Y15.0656 Z-2.0000 F480.0000 S0.0
G1 X158.8783 Y14.5562 Z-2.0000 F480.0000 S0.0
G1 X158.9586 Y13.9912 Z-2.0000 F480.0000 S0.0
G1 X158.9853 Y13.3706 Z-2.0000 F480.0000 S0.0
G1 X158.9853 Y3.3982 Z-2.0000 F480.0000 S0.0
G1 X158.9853 Y13.3706 Z-2.0000 F480.0000 S0.0
G0 Z4.0000
G0 X189.2055 Y6.2697 Z4.0000
G0 X189.2055 Y6.2697 Z2.0000
G1 X189.2055 Y6.2697 Z-2.0000 F300.0000 S0.0
G1 X189.0587 Y5.7479 Z-2.0000 F480.0000 S0.0
G1 X188.8459 Y5.2613 Z-2.0000 F480.0000 S0.0
G1 X188.5670 Y4.8099 Z-2.0000 F480.0000 S0.0
G1 X188.2220 Y4.3938 Z-2.0000 F480.0000 S0.0
G1 X187.8110 Y4.0128 Z-2.0000 F480.0000 S0.0
G1 X187.3505 Y3.6892 Z-2.0000 F480.0000 S0.0
G1 X186.8569 Y3.4374 Z-2.0000 F480.0000 S0.0
G1 X186.3303 Y3.2576 Z-2.0000 F480.0000 S0.0
G1 X185.7706 Y3.1497 Z-2.0000 F480.0000 S0.0
G1 X185.1780 Y3.1138 Z-2.0000 F480.0000 S0.0
G1 X176.1046 Y3.1138 Z-2.0000 F480.0000 S0.0
G1 X175.5480 Y3.1484 Z-2.0000 F480.0000 S0.0
G1 X175.0159 Y3.2524 Z-2.0000 F480.0000 S0.0
G1 X174.5083 Y3.4257 Z-2.0000 F480.0000 S0.0
G1 X174.0322 Y3.6601 Z-2.0000 F480.0000 S0.0
G1 X173.5949 Y3.9476 Z-2.0000 F480.0000 S0.0
G1 X173.1963 Y4.2881 Z-2.0000 F480.0000 S0.0
G1 X172.8487 Y4.6795 Z-2.0000 F480.0000 S0.0
G1 X172.5521 Y5.1076 Z-2.0000 F480.0000 S0.0
G1 X172.3064 Y5.5725 Z-2.0000 F480.0000 S0.0
G1 X172.1280 Y6.0699 Z-2.0000 F480.0000 S0.0
G1 X172.0210 Y6.5959 Z-2.0000 F480.0000 S0.0
G1 X171.9853 Y7.1505 Z-2.0000 F480.0000 S0.0
G1 X171.9853 Y13.1688 Z-2.0000 F480.0000 S0.0
G1 X172.0210 Y13.7233 Z-2.0000 F480.0000 S0.0
G1 X172.1280 Y14.2493 Z-2.0000 F480.0000 S0.0
G1 X172.3064 Y14.7468 Z-2.0000 F480.0000 S0.0
G1 X172.5521 Y15.2106 Z-2.0000 F480.0000 S0.0
G1 X172.8487 Y15.6357 Z-2.0000 F480.0000 S0.0
G1 X173.1963 Y16.0220 Z-2.0000 F480.0000 S0.0
G1 X173.5949 Y16.3676 Z-2.0000 F480.0000 S0.0
G1 X174.0322 Y16.6581 Z-2.0000 F480.0000 S0.0
G1 X174.5083 Y16.8936 Z-2.0000 F480.0000 S0.0
G1 X175.0159 Y17.0669 Z-2.0000 F480.0000 S0.0
G1 X175.5480 Y17.1708 Z-2.0000 F480.0000 S0.0
G1 X176.1046 Y17.2055 Z-2.0000 F480.0000 S0.0
G1 X185.1780 Y17.2055 Z-2.0000 F480.0000 S0.0
G1 X185.7315 Y17.1698 Z-2.0000 F480.0000 S0.0
G1 X186.2667 Y17.0628 Z-2.0000 F480.0000 S0.0
G1 X186.7835 Y16.8844 Z-2.0000 F480.0000 S0.0
G1 X187.2687 Y16.6428 Z-2.0000 F480.0000 S0.0
G1 X187.7091 Y16.3462 Z-2.0000 F480.0000 S0.0
G1 X188.1046 Y15.9945 Z-2.0000 F480.0000 S0.0
G1 X188.4563 Y15.5949 Z-2.0000 F480.0000 S0.0
G1 X188.7529 Y15.1545 Z-2.0000 F480.0000 S0.0
G1 X188.9945 Y14.6734 Z-2.0000 F480.0000 S0.0
G1 X189.1729 Y14.1637 Z-2.0000 F480.0000 S0.0
G1 X189.2799 Y13.6255 Z-2.0000 F480.0000 S0.0
G1 X189.3156 Y13.0587 Z-2.0000 F480.0000 S0.0
G1 X189.3156 Y10.7468 Z-2.0000 F480.0000 S0.0
G1 X171.9853 Y10.7743 Z-2.0000 F480.0000 S0.0
G1 X189.3156 Y10.7468 Z-2.0000 F480.0000 S0.0
G1 X189.3156 Y13.0587 Z-2.0000 F480.0000 S0.0
G1 X189.2799 Y13.6255 Z-2.0000 F480.0000 S0.0
G1 X189.1729 Y14.1637 Z-2.0000 F480.0000 S0.0
G1 X188.9945 Y14.6734 Z-2.0000 F480.0000 S0.0
G1 X188.7529 Y15.1545 Z-2.0000 F480.0000 S0.0
G1 X188.4563 Y15.5949 Z-2.0000 F480.0000 S0.0
G1 X188.1046 Y15.9945 Z-2.0000 F480.0000 S0.0
G1 X187.7091 Y16.3462 Z-2.0000 F480.0000 S0.0
G1 X187.2687 Y16.6428 Z-2.0000 F480.0000 S0.0
G1 X186.7835 Y16.8844 Z-2.0000 F480.0000 S0.0
G1 X186.2667 Y17.0628 Z-2.0000 F480.0000 S0.0
G1 X185.7315 Y17.1698 Z-2.0000 F480.0000 S0.0
G1 X185.1780 Y17.2055 Z-2.0000 F480.0000 S0.0
G1 X176.1046 Y17.2055 Z-2.0000 F480.0000 S0.0
G1 X175.5480 Y17.1708 Z-2.0000 F480.0000 S0.0
G1 X175.0159 Y17.0669 Z-2.0000 F480.0000 S0.0
G1 X174.5083 Y16.8936 Z-2.0000 F480.0000 S0.0
G1 X174.0322 Y16.6581 Z-2.0000 F480.0000 S0.0
G1 X173.5949 Y16.3676 Z-2.0000 F480.0000 S0.0
G1 X173.1963 Y16.0220 Z-2.0000 F480.0000 S0.0
G1 X172.8487 Y15.6357 Z-2.0000 F480.0000 S0.0
G1 X172.5521 Y15.2106 Z-2.0000 F480.0000 S0.0
G1 X172.3064 Y14.7468 Z-2.0000 F480.0000 S0.0
G1 X172.1280 Y14.2493 Z-2.0000 F480.0000 S0.0
G1 X172.0210 Y13.7233 Z-2.0000 F480.0000 S0.0
G1 X171.9853 Y13.1688 Z-2.0000 F480.0000 S0.0
G1 X171.9853 Y7.1505 Z-2.0000 F480.0000 S0.0
G1 X172.0210 Y6.5959 Z-2.0000 F480.0000 S0.0
G1 X172.1280 Y6.0699 Z-2.0000 F480.0000 S0.0
G1 X172.3064 Y5.5725 Z-2.0000 F480.0000 S0.0
G1 X172.5521 Y5.1076 Z-2.0000 F480.0000 S0.0
G1 X172.8487 Y4.6795 Z-2.0000 F480.0000 S0.0
G1 X173.1963 Y4.2881 Z-2.0000 F480.0000 S0.0
G1 X173.5949 Y3.9476 Z-2.0000 F480.0000 S0.0
G1 X174.0322 Y3.6601 Z-2.0000 F480.0000 S0.0
G1 X174.5083 Y3.4257 Z-2.0000 F480.0000 S0.0
G1 X175.0159 Y3.2524 Z-2.0000 F480.0000 S0.0
G1 X175.5480 Y3.1484 Z-2.0000 F480.0000 S0.0
G1 X176.1046 Y3.1138 Z-2.0000 F480.0000 S0.0
G1 X185.1780 Y3.1138 Z-2.0000 F480.0000 S0.0
G1 X185.7706 Y3.1497 Z-2.0000 F480.0000 S0.0
G1 X186.3303 Y3.2576 Z-2.0000 F480.0000 S0.0
G1 X186.8569 Y3.4374 Z-2.0000 F480.0000 S0.0
G1 X187.3505 Y3.6892 Z-2.0000 F480.0000 S0.0
G1 X187.8110 Y4.0128 Z-2.0000 F480.0000 S0.0
G1 X188.2220 Y4.3938 Z-2.0000 F480.0000 S0.0
G1 X188.5670 Y4.8099 Z-2.0000 F480.0000 S0.0
G1 X188.8459 Y5.2613 Z-2.0000 F480.0000 S0.0
G1 X189.0587 Y5.7479 Z-2.0000 F480.0000 S0.0
G1 X189.2055 Y6.2697 Z-2.0000 F480.0000 S0.0
G0 Z4.0000
G0 X216.3982 Y11.6275 Z4.0000
G0 X216.3982 Y11.6275 Z2.0000
G1 X216.3982 Y11.6275 Z-2.0000 F300.0000 S0.0
G1 X216.3982 Y13.2055 Z-2.0000 F480.0000 S0.0
G1 X216.3666 Y13.8701 Z-2.0000 F480.0000 S0.0
G1 X216.2718 Y14.4695 Z-2.0000 F480.0000 S0.0
G1 X216.1138 Y15.0037 Z-2.0000 F480.0000 S0.0
G1 X215.9109 Y15.4818 Z-2.0000 F480.0000 S0.0
G1 X215.6693 Y15.9007 Z-2.0000 F480.0000 S0.0
G1 X215.3890 Y16.2606 Z-2.0000 F480.0000 S0.0
G1 X215.1562 Y16.4911 Z-2.0000 F480.0000 S0.0
G1 X214.9073 Y16.6872 Z-2.0000 F480.0000 S0.0
G1 X214.6424 Y16.8489 Z-2.0000 F480.0000 S0.0
G1 X214.3615 Y16.9761 Z-2.0000 F480.0000 S0.0
G1 X213.9802 Y17.1036 Z-2.0000 F480.0000 S0.0
G1 X213.6071 Y17.1800 Z-2.0000 F480.0000 S0.0
G1 X213.2422 Y17.2055 Z-2.0000 F480.0000 S0.0
G1 X207.6367 Y17.2055 Z-2.0000 F480.0000 S0.0
G1 X207.2583 Y17.1797 Z-2.0000 F480.0000 S0.0
G1 X206.8569 Y17.1023 Z-2.0000 F480.0000 S0.0
G1 X206.4326 Y16.9733 Z-2.0000 F480.0000 S0.0
G1 X205.9853 Y16.7927 Z-2.0000 F480.0000 S0.0
G1 X205.3829 Y16.4807 Z-2.0000 F480.0000 S0.0
G1 X204.7988 Y16.0832 Z-2.0000 F480.0000 S0.0
G1 X204.2330 Y15.6000 Z-2.0000 F480.0000 S0.0
G1 X203.7111 Y15.0332 Z-2.0000 F480.0000 S0.0
G1 X203.2463 Y14.3849 Z-2.0000 F480.0000 S0.0
G1 X202.8385 Y13.6550 Z-2.0000 F480.0000 S0.0
G1 X202.5937 Y13.0558 Z-2.0000 F480.0000 S0.0
G1 X202.4188 Y12.4142 Z-2.0000 F480.0000 S0.0
G1 X202.3139 Y11.7302 Z-2.0000 F480.0000 S0.0
G1 X202.2789 Y11.0037 Z-2.0000 F480.0000 S0.0
G1 X202.3139 Y11.7302 Z-2.0000 F480.0000 S0.0
G1 X202.4188 Y12.4142 Z-2.0000 F480.0000 S0.0
G1 X202.5937 Y13.0558 Z-2.0000 F480.0000 S0.0
G1 X202.8385 Y13.6550 Z-2.0000 F480.0000 S0.0
G1 X203.2463 Y14.3849 Z-2.0000 F480.0000 S0.0
G1 X203.7111 Y15.0332 Z-2.0000 F480.0000 S0.0
G1 X204.2330 Y15.6000 Z-2.0000 F480.0000 S0.0
G1 X204.7988 Y16.0832 Z-2.0000 F480.0000 S0.0
G1 X205.3829 Y16.4807 Z-2.0000 F480.0000 S0.0
G1 X205.9853 Y16.7927 Z-2.0000 F480.0000 S0.0
G1 X206.4326 Y16.9733 Z-2.0000 F480.0000 S0.0
G1 X206.8569 Y17.1023 Z-2.0000 F480.0000 S0.0
G1 X207.2583 Y17.1797 Z-2.0000 F480.0000 S0.0
G1 X207.6367 Y17.2055 Z-2.0000 F480.0000 S0.0
G1 X213.2422 Y17.2055 Z-2.0000 F480.0000 S0.0
G1 X213.6071 Y17.1800 Z-2.0000 F480.0000 S0.0
G1 X213.9802 Y17.1036 Z-2.0000 F480.0000 S0.0
G1 X214.3615 Y16.9761 Z-2.0000 F480.0000 S0.0
G1 X214.7325 Y16.7998 Z-2.0000 F480.0000 S0.0
G1 X215.0750 Y16.5643 Z-2.0000 F480.0000 S0.0
G1 X215.3890 Y16.2697 Z-2.0000 F480.0000 S0.0
G1 X215.6693 Y15.9201 Z-2.0000 F480.0000 S0.0
G1 X215.9109 Y15.5072 Z-2.0000 F480.0000 S0.0
G1 X216.1138 Y15.0312 Z-2.0000 F480.0000 S0.0
G1 X216.2718 Y14.4940 Z-2.0000 F480.0000 S0.0
G1 X216.3666 Y13.8854 Z-2.0000 F480.0000 S0.0
G1 X216.3982 Y13.2055 Z-2.0000 F480.0000 S0.0
G1 X216.3982 Y11.6275 Z-2.0000 F480.0000 S0.0
G0 Z4.0000
G0 X202.2789 Y3.1138 Z4.0000
G0 X202.2789 Y3.1138 Z2.0000
G1 X202.2789 Y3.1138 Z-2.0000 F300.0000 S0.0
G1 X202.2789 Y17.2055 Z-2.0000 F480.0000 S0.0
G1 X202.2789 Y3.1138 Z-2.0000 F480.0000 S0.0
G0 Z4.0000
G0 X248.6826 Y23.6642 Z4.0000
G0 X248.6826 Y23.6642 Z2.0000
G1 X248.6826 Y23.6642 Z-2.0000 F300.0000 S0.0
G1 X250.2055 Y23.6642 Z-2.0000 F480.0000 S0.0
G1 X263.7376 Y3.1138 Z-2.0000 F480.0000 S0.0
G1 X264.9486 Y3.1138 Z-2.0000 F480.0000 S0.0
G1 X278.5633 Y23.6642 Z-2.0000 F480.0000 S0.0
G1 X279.9945 Y23.6642 Z-2.0000 F480.0000 S0.0
G1 X279.9945 Y3.1138 Z-2.0000 F480.0000 S0.0
G1 X279.9945 Y23.6642 Z-2.0000 F480.0000 S0.0
G1 X278.5633 Y23.6642 Z-2.0000 F480.0000 S0.0
G1 X264.9486 Y3.1138 Z-2.0000 F480.0000 S0.0
G1 X263.7376 Y3.1138 Z-2.0000 F480.0000 S0.0
G1 X250.2055 Y23.6642 Z-2.0000 F480.0000 S0.0
G1 X248.6826 Y23.6642 Z-2.0000 F480.0000 S0.0
G1 X248.6826 Y3.1138 Z-2.0000 F480.0000 S0.0
G1 X248.6826 Y23.6642 Z-2.0000 F480.0000 S0.0
G0 Z4.0000
G0 X297.3615 Y3.1138 Z4.0000
G0 X297.3615 Y3.1138 Z2.0000
G1 X297.3615 Y3.1138 Z-2.0000 F300.0000 S0.0
G1 X296.9252 Y3.1413 Z-2.0000 F480.0000 S0.0
G1 X296.5093 Y3.2239 Z-2.0000 F480.0000 S0.0
G1 X296.1138 Y3.3615 Z-2.0000 F480.0000 S0.0
G1 X295.7437 Y3.5450 Z-2.0000 F480.0000 S0.0
G1 X295.4043 Y3.7651 Z-2.0000 F480.0000 S0.0
G1 X295.0954 Y4.0220 Z-2.0000 F480.0000 S0.0
G1 X294.8222 Y4.3207 Z-2.0000 F480.0000 S0.0
G1 X294.5898 Y4.6540 Z-2.0000 F480.0000 S0.0
G1 X294.3982 Y5.0220 Z-2.0000 F480.0000 S0.0
G1 X294.2606 Y5.4175 Z-2.0000 F480.0000 S0.0
G1 X294.1780 Y5.8334 Z-2.0000 F480.0000 S0.0
G1 X294.1505 Y6.2697 Z-2.0000 F480.0000 S0.0
G1 X294.1505 Y7.5908 Z-2.0000 F480.0000 S0.0
G1 X294.1780 Y8.0251 Z-2.0000 F480.0000 S0.0
G1 X294.2606 Y8.4349 Z-2.0000 F480.0000 S0.0
G1 X294.3982 Y8.8202 Z-2.0000 F480.0000 S0.0
G1 X294.5898 Y9.1841 Z-2.0000 F480.0000 S0.0
G1 X294.8222 Y9.5174 Z-2.0000 F480.0000 S0.0
G1 X295.0954 Y9.8202 Z-2.0000 F480.0000 S0.0
G1 X295.4043 Y10.0873 Z-2.0000 F480.0000 S0.0
G1 X295.7437 Y10.3136 Z-2.0000 F480.0000 S0.0
G1 X296.1138 Y10.4991 Z-2.0000 F480.0000 S0.0
G1 X296.5093 Y10.6367 Z-2.0000 F480.0000 S0.0
G1 X296.9252 Y10.7193 Z-2.0000 F480.0000 S0.0
G1 X297.3615 Y10.7468 Z-2.0000 F480.0000 S0.0
G1 X306.8661 Y10.7468 Z-2.0000 F480.0000 S0.0
G1 X307.5755 Y10.7111 Z-2.0000 F480.0000 S0.0
G1 X308.2483 Y10.6041 Z-2.0000 F480.0000 S0.0
G1 X308.8844 Y10.4257 Z-2.0000 F480.0000 S0.0
G1 X309.4797 Y10.1953 Z-2.0000 F480.0000 S0.0
G1 X310.0179 Y9.9201 Z-2.0000 F480.0000 S0.0
G1 X310.4991 Y9.6000 Z-2.0000 F480.0000 S0.0
G1 X310.9180 Y9.2422 Z-2.0000 F480.0000 S0.0
G1 X311.2697 Y8.8538 Z-2.0000 F480.0000 S0.0
G1 X311.5541 Y8.4349 Z-2.0000 F480.0000 S0.0
G1 X311.7227 Y8.1103 Z-2.0000 F480.0000 S0.0
G1 X311.8431 Y7.7881 Z-2.0000 F480.0000 S0.0
G1 X311.9154 Y7.4681 Z-2.0000 F480.0000 S0.0
G1 X311.9394 Y7.1505 Z-2.0000 F480.0000 S0.0
G1 X311.9394 Y6.2697 Z-2.0000 F480.0000 S0.0
G1 X311.9109 Y5.8334 Z-2.0000 F480.0000 S0.0
G1 X311.8253 Y5.4175 Z-2.0000 F480.0000 S0.0
G1 X311.6826 Y5.0220 Z-2.0000 F480.0000 S0.0
G1 X311.4899 Y4.6540 Z-2.0000 F480.0000 S0.0
G1 X311.2544 Y4.3207 Z-2.0000 F480.0000 S0.0
G1 X310.9761 Y4.0220 Z-2.0000 F480.0000 S0.0
G1 X310.6622 Y3.7651 Z-2.0000 F480.0000 S0.0
G1 X310.3197 Y3.5450 Z-2.0000 F480.0000 S0.0
G1 X309.9486 Y3.3615 Z-2.0000 F480.0000 S0.0
G1 X309.5521 Y3.2239 Z-2.0000 F480.0000 S0.0
G1 X309.1331 Y3.1413 Z-2.0000 F480.0000 S0.0
G1 X308.6917 Y3.1138 Z-2.0000 F480.0000 S0.0
G1 X297.3615 Y3.1138 Z-2.0000 F480.0000 S0.0
G0 Z4.0000
G0 X297.3615 Y3.1138 Z4.0000
G0 X297.3615 Y3.1138 Z2.0000
G1 X297.3615 Y3.1138 Z-2.0000 F300.0000 S0.0
G1 X296.9252 Y3.1413 Z-2.0000 F480.0000 S0.0
G1 X296.5093 Y3.2239 Z-2.0000 F480.0000 S0.0
G1 X296.1138 Y3.3615 Z-2.0000 F480.0000 S0.0
G1 X295.7437 Y3.5450 Z-2.0000 F480.0000 S0.0
G1 X295.4043 Y3.7651 Z-2.0000 F480.0000 S0.0
G1 X295.0954 Y4.0220 Z-2.0000 F480.0000 S0.0
G1 X294.8222 Y4.3207 Z-2.0000 F480.0000 S0.0
G1 X294.5898 Y4.6540 Z-2.0000 F480.0000 S0.0
G1 X294.3982 Y5.0220 Z-2.0000 F480.0000 S0.0
G1 X294.2606 Y5.4175 Z-2.0000 F480.0000 S0.0
G1 X294.1780 Y5.8334 Z-2.0000 F480.0000 S0.0
G1 X294.1505 Y6.2697 Z-2.0000 F480.0000 S0.0
G1 X294.1505 Y7.5908 Z-2.0000 F480.0000 S0.0
G1 X294.1780 Y8.0251 Z-2.0000 F480.0000 S0.0
G1 X294.2606 Y8.4349 Z-2.0000 F480.0000 S0.0
G1 X294.3982 Y8.8202 Z-2.0000 F480.0000 S0.0
G1 X294.5898 Y9.1841 Z-2.0000 F480.0000 S0.0
G1 X294.8222 Y9.5174 Z-2.0000 F480.0000 S0.0
G1 X295.0954 Y9.8202 Z-2.0000 F480.0000 S0.0
G1 X295.4043 Y10.0873 Z-2.0000 F480.0000 S0.0
G1 X295.7437 Y10.3136 Z-2.0000 F480.0000 S0.0
G1 X296.1138 Y10.4991 Z-2.0000 F480.0000 S0.0
G1 X296.5093 Y10.6367 Z-2.0000 F480.0000 S0.0
G1 X296.9252 Y10.7193 Z-2.0000 F480.0000 S0.0
G1 X297.3615 Y10.7468 Z-2.0000 F480.0000 S0.0
G1 X306.8661 Y10.7468 Z-2.0000 F480.0000 S0.0
G1 X307.5755 Y10.7111 Z-2.0000 F480.0000 S0.0
G1 X308.2483 Y10.6041 Z-2.0000 F480.0000 S0.0
G1 X308.8844 Y10.4257 Z-2.0000 F480.0000 S0.0
G1 X309.4797 Y10.1953 Z-2.0000 F480.0000 S0.0
G1 X310.0179 Y9.9201 Z-2.0000 F480.0000 S0.0
G1 X310.4991 Y9.6000 Z-2.0000 F480.0000 S0.0
G1 X310.9180 Y9.2422 Z-2.0000 F480.0000 S0.0
G1 X311.2697 Y8.8538 Z-2.0000 F480.0000 S0.0
G1 X311.5541 Y8.4349 Z-2.0000 F480.0000 S0.0
G1 X311.7227 Y8.1103 Z-2.0000 F480.0000 S0.0
G1 X311.8431 Y7.7881 Z-2.0000 F480.0000 S0.0
G1 X311.9154 Y7.4681 Z-2.0000 F480.0000 S0.0
G1 X311.9394 Y7.1505 Z-2.0000 F480.0000 S0.0
G1 X311.9394 Y6.2697 Z-2.0000 F480.0000 S0.0
G1 X311.9109 Y5.8334 Z-2.0000 F480.0000 S0.0
G1 X311.8253 Y5.4175 Z-2.0000 F480.0000 S0.0
G1 X311.6826 Y5.0220 Z-2.0000 F480.0000 S0.0
G1 X311.4899 Y4.6540 Z-2.0000 F480.0000 S0.0
G1 X311.2544 Y4.3207 Z-2.0000 F480.0000 S0.0
G1 X310.9761 Y4.0220 Z-2.0000 F480.0000 S0.0
G1 X310.6622 Y3.7651 Z-2.0000 F480.0000 S0.0
G1 X310.3197 Y3.5450 Z-2.0000 F480.0000 S0.0
G1 X309.9486 Y3.3615 Z-2.0000 F480.0000 S0.0
G1 X309.5521 Y3.2239 Z-2.0000 F480.0000 S0.0
G1 X309.1331 Y3.1413 Z-2.0000 F480.0000 S0.0
G1 X308.6917 Y3.1138 Z-2.0000 F480.0000 S0.0
G1 X297.3615 Y3.1138 Z-2.0000 F480.0000 S0.0
G0 Z4.0000
G0 X311.9394 Y3.1138 Z4.0000
G0 X311.9394 Y3.1138 Z2.0000
G1 X311.9394 Y3.1138 Z-2.0000 F300.0000 S0.0
G1 X311.9394 Y14.2422 Z-2.0000 F480.0000 S0.0
G1 X311.9119 Y14.6479 Z-2.0000 F480.0000 S0.0
G1 X311.8294 Y15.0332 Z-2.0000 F480.0000 S0.0
G1 X311.6917 Y15.3982 Z-2.0000 F480.0000 S0.0
G1 X311.5154 Y15.7427 Z-2.0000 F480.0000 S0.0
G1 X311.3044 Y16.0546 Z-2.0000 F480.0000 S0.0
G1 X311.0587 Y16.3339 Z-2.0000 F480.0000 S0.0
G1 X310.7784 Y16.5796 Z-2.0000 F480.0000 S0.0
G1 X310.4634 Y16.7906 Z-2.0000 F480.0000 S0.0
G1 X310.1138 Y16.9670 Z-2.0000 F480.0000 S0.0
G1 X309.7468 Y17.0995 Z-2.0000 F480.0000 S0.0
G1 X309.3676 Y17.1790 Z-2.0000 F480.0000 S0.0
G1 X308.9761 Y17.2055 Z-2.0000 F480.0000 S0.0
G1 X298.4899 Y17.2055 Z-2.0000 F480.0000 S0.0
G1 X298.1036 Y17.1780 Z-2.0000 F480.0000 S0.0
G1 X297.7274 Y17.0954 Z-2.0000 F480.0000 S0.0
G1 X297.3615 Y16.9578 Z-2.0000 F480.0000 S0.0
G1 X297.0200 Y16.7804 Z-2.0000 F480.0000 S0.0
G1 X296.7050 Y16.5664 Z-2.0000 F480.0000 S0.0
G1 X296.4165 Y16.3156 Z-2.0000 F480.0000 S0.0
G1 X296.1668 Y16.0302 Z-2.0000 F480.0000 S0.0
G1 X295.9558 Y15.7121 Z-2.0000 F480.0000 S0.0
G1 X295.7835 Y15.3615 Z-2.0000 F480.0000 S0.0
G1 X295.6612 Y14.9853 Z-2.0000 F480.0000 S0.0
G1 X295.5878 Y14.5908 Z-2.0000 F480.0000 S0.0
G1 X295.5633 Y14.1780 Z-2.0000 F480.0000 S0.0
G1 X295.5633 Y13.7193 Z-2.0000 F480.0000 S0.0
G1 X295.5633 Y14.1780 Z-2.0000 F480.0000 S0.0
G1 X295.5878 Y14.5908 Z-2.0000 F480.0000 S0.0
G1 X295.6612 Y14.9853 Z-2.0000 F480.0000 S0.0
G1 X295.7835 Y15.3615 Z-2.0000 F480.0000 S0.0
G1 X295.9558 Y15.7121 Z-2.0000 F480.0000 S0.0
G1 X296.1668 Y16.0302 Z-2.0000 F480.0000 S0.0
G1 X296.4165 Y16.3156 Z-2.0000 F480.0000 S0.0
G1 X296.7050 Y16.5664 Z-2.0000 F480.0000 S0.0
G1 X297.0200 Y16.7804 Z-2.0000 F480.0000 S0.0
G1 X297.3615 Y16.9578 Z-2.0000 F480.0000 S0.0
G1 X297.7274 Y17.0954 Z-2.0000 F480.0000 S0.0
G1 X298.1036 Y17.1780 Z-2.0000 F480.0000 S0.0
G1 X298.4899 Y17.2055 Z-2.0000 F480.0000 S0.0
G1 X308.9761 Y17.2055 Z-2.0000 F480.0000 S0.0
G1 X309.3676 Y17.1790 Z-2.0000 F480.0000 S0.0
G1 X309.7468 Y17.0995 Z-2.0000 F480.0000 S0.0
G1 X310.1138 Y16.9670 Z-2.0000 F480.0000 S0.0
G1 X310.4634 Y16.7906 Z-2.0000 F480.0000 S0.0
G1 X310.7784 Y16.5796 Z-2.0000 F480.0000 S0.0
G1 X311.0587 Y16.3339 Z-2.0000 F480.0000 S0.0
G1 X311.3044 Y16.0546 Z-2.0000 F480.0000 S0.0
G1 X311.5154 Y15.7427 Z-2.0000 F480.0000 S0.0
G1 X311.6917 Y15.3982 Z-2.0000 F480.0000 S0.0
G1 X311.8294 Y15.0332 Z-2.0000 F480.0000 S0.0
G1 X311.9119 Y14.6479 Z-2.0000 F480.0000 S0.0
G1 X311.9394 Y14.2422 Z-2.0000 F480.0000 S0.0
G1 X311.9394 Y3.1138 Z-2.0000 F480.0000 S0.0
G0 Z4.0000
G0 X339.7101 Y8.6917 Z4.0000
G0 X339.7101 Y8.6917 Z2.0000
G1 X339.7101 Y8.6917 Z-2.0000 F300.0000 S0.0
G1 X339.7101 Y6.6367 Z-2.0000 F480.0000 S0.0
G1 X339.6754 Y6.1148 Z-2.0000 F480.0000 S0.0
G1 X339.5715 Y5.6255 Z-2.0000 F480.0000 S0.0
G1 X339.3982 Y5.1688 Z-2.0000 F480.0000 S0.0
G1 X339.1759 Y4.7560 Z-2.0000 F480.0000 S0.0
G1 X338.9252 Y4.3859 Z-2.0000 F480.0000 S0.0
G1 X338.6459 Y4.0587 Z-2.0000 F480.0000 S0.0
G1 X338.3482 Y3.7764 Z-2.0000 F480.0000 S0.0
G1 X338.0302 Y3.5409 Z-2.0000 F480.0000 S0.0
G1 X337.6917 Y3.3523 Z-2.0000 F480.0000 S0.0
G1 X337.4366 Y3.2479 Z-2.0000 F480.0000 S0.0
G1 X337.1940 Y3.1734 Z-2.0000 F480.0000 S0.0
G1 X336.9641 Y3.1287 Z-2.0000 F480.0000 S0.0
G1 X336.7468 Y3.1138 Z-2.0000 F480.0000 S0.0
G1 X331.8752 Y3.1138 Z-2.0000 F480.0000 S0.0
G1 X331.6487 Y3.1218 Z-2.0000 F480.0000 S0.0
G1 X331.3913 Y3.1459 Z-2.0000 F480.0000 S0.0
G1 X331.1029 Y3.1860 Z-2.0000 F480.0000 S0.0
G1 X330.7835 Y3.2422 Z-2.0000 F480.0000 S0.0
G1 X330.3492 Y3.3543 Z-2.0000 F480.0000 S0.0
G1 X329.9272 Y3.5195 Z-2.0000 F480.0000 S0.0
G1 X329.5174 Y3.7376 Z-2.0000 F480.0000 S0.0
G1 X329.1311 Y4.0230 Z-2.0000 F480.0000 S0.0
G1 X328.7794 Y4.3778 Z-2.0000 F480.0000 S0.0
G1 X328.4624 Y4.8018 Z-2.0000 F480.0000 S0.0
G1 X328.3006 Y5.0950 Z-2.0000 F480.0000 S0.0
G1 X328.1747 Y5.4242 Z-2.0000 F480.0000 S0.0
G1 X328.0848 Y5.7894 Z-2.0000 F480.0000 S0.0
G1 X328.0308 Y6.1905 Z-2.0000 F480.0000 S0.0
G1 X328.0128 Y6.6275 Z-2.0000 F480.0000 S0.0
G1 X328.0128 Y20.7284 Z-2.0000 F480.0000 S0.0
G1 X328.0128 Y6.6275 Z-2.0000 F480.0000 S0.0
G1 X328.0308 Y6.1996 Z-2.0000 F480.0000 S0.0
G1 X328.0848 Y5.8040 Z-2.0000 F480.0000 S0.0
G1 X328.1747 Y5.4407 Z-2.0000 F480.0000 S0.0
G1 X328.3006 Y5.1097 Z-2.0000 F480.0000 S0.0
G1 X328.4624 Y4.8110 Z-2.0000 F480.0000 S0.0
G1 X328.7794 Y4.3819 Z-2.0000 F480.0000 S0.0
G1 X329.1311 Y4.0241 Z-2.0000 F480.0000 S0.0
G1 X329.5174 Y3.7376 Z-2.0000 F480.0000 S0.0
G1 X329.9272 Y3.5195 Z-2.0000 F480.0000 S0.0
G1 X330.3492 Y3.3543 Z-2.0000 F480.0000 S0.0
G1 X330.7835 Y3.2422 Z-2.0000 F480.0000 S0.0
G1 X331.1029 Y3.1860 Z-2.0000 F480.0000 S0.0
G1 X331.3913 Y3.1459 Z-2.0000 F480.0000 S0.0
G1 X331.6487 Y3.1218 Z-2.0000 F480.0000 S0.0
G1 X331.8752 Y3.1138 Z-2.0000 F480.0000 S0.0
G1 X336.7468 Y3.1138 Z-2.0000 F480.0000 S0.0
G1 X336.9641 Y3.1287 Z-2.0000 F480.0000 S0.0
G1 X337.1940 Y3.1734 Z-2.0000 F480.0000 S0.0
G1 X337.4366 Y3.2479 Z-2.0000 F480.0000 S0.0
G1 X337.6917 Y3.3523 Z-2.0000 F480.0000 S0.0
G1 X338.0302 Y3.5409 Z-2.0000 F480.0000 S0.0
G1 X338.3482 Y3.7764 Z-2.0000 F480.0000 S0.0
G1 X338.6459 Y4.0587 Z-2.0000 F480.0000 S0.0
G1 X338.9252 Y4.3859 Z-2.0000 F480.0000 S0.0
G1 X339.1759 Y4.7560 Z-2.0000 F480.0000 S0.0
G1 X339.3982 Y5.1688 Z-2.0000 F480.0000 S0.0
G1 X339.5715 Y5.6255 Z-2.0000 F480.0000 S0.0
G1 X339.6754 Y6.1148 Z-2.0000 F480.0000 S0.0
G1 X339.7101 Y6.6367 Z-2.0000 F480.0000 S0.0
G1 X339.7101 Y8.6917 Z-2.0000 F480.0000 S0.0
G0 Z4.0000
G0 X323.8110 Y17.4073 Z4.0000
G0 X323.8110 Y17.4073 Z2.0000
G1 X323.8110 Y17.4073 Z-2.0000 F300.0000 S0.0
G1 X338.6367 Y17.4073 Z-2.0000 F480.0000 S0.0
G1 X323.8110 Y17.4073 Z-2.0000 F480.0000 S0.0
G0 Z4.0000
(finish operation: Engrave)
(begin postamble)
M05
G17 G90
M2
