(Exported by FreeCAD)
(Post Processor: smoothie_post)
(Output Time:2021-02-16 12:14:15.286917)
(begin preamble)
G17 G90
G21
(begin operation: T4: fraise 3mm)
(T4: fraise 3mm)
M6 T4.0
M3 S0.0
(finish operation: T4: fraise 3mm)
(begin operation: Engrave)
(Engrave)
G0 Z5.0000
G0 X15.5250 Y53.4853 Z5.0000
G0 X15.5250 Y53.4853 Z3.0000
G1 X15.5250 Y53.4853 Z-2.0000 F300.0000 S0.0
G1 X15.4936 Y53.8502 Z-2.0000 F300.0000 S0.0
G1 X15.4014 Y54.1993 Z-2.0000 F300.0000 S0.0
G1 X15.2517 Y54.5286 Z-2.0000 F300.0000 S0.0
G1 X15.0475 Y54.8340 Z-2.0000 F300.0000 S0.0
G1 X14.7920 Y55.1116 Z-2.0000 F300.0000 S0.0
G1 X14.4884 Y55.3575 Z-2.0000 F300.0000 S0.0
G1 X14.1398 Y55.5676 Z-2.0000 F300.0000 S0.0
G1 X13.7493 Y55.7379 Z-2.0000 F300.0000 S0.0
G1 X13.3202 Y55.8645 Z-2.0000 F300.0000 S0.0
G1 X12.8556 Y55.9434 Z-2.0000 F300.0000 S0.0
G1 X12.3586 Y55.9705 Z-2.0000 F300.0000 S0.0
G1 X12.1459 Y55.9607 Z-2.0000 F300.0000 S0.0
G1 X11.9412 Y55.9319 Z-2.0000 F300.0000 S0.0
G1 X11.7472 Y55.8854 Z-2.0000 F300.0000 S0.0
G1 X11.5663 Y55.8223 Z-2.0000 F300.0000 S0.0
G1 X11.4012 Y55.7437 Z-2.0000 F300.0000 S0.0
G1 X11.2545 Y55.6509 Z-2.0000 F300.0000 S0.0
G1 X11.1286 Y55.5449 Z-2.0000 F300.0000 S0.0
G1 X11.0263 Y55.4270 Z-2.0000 F300.0000 S0.0
G1 X10.9500 Y55.2983 Z-2.0000 F300.0000 S0.0
G1 X10.9023 Y55.1600 Z-2.0000 F300.0000 S0.0
G1 X10.8859 Y55.0133 Z-2.0000 F300.0000 S0.0
G1 X10.8991 Y54.8418 Z-2.0000 F300.0000 S0.0
G1 X10.9333 Y54.6648 Z-2.0000 F300.0000 S0.0
G1 X10.9801 Y54.4679 Z-2.0000 F300.0000 S0.0
G1 X11.0310 Y54.2365 Z-2.0000 F300.0000 S0.0
G1 X11.0777 Y53.9562 Z-2.0000 F300.0000 S0.0
G1 X11.1119 Y53.6124 Z-2.0000 F300.0000 S0.0
G1 X11.1252 Y53.1907 Z-2.0000 F300.0000 S0.0
G1 X11.1252 Y31.5412 Z-2.0000 F300.0000 S0.0
G1 X11.1598 Y30.2030 Z-2.0000 F300.0000 S0.0
G1 X11.2666 Y28.9598 Z-2.0000 F300.0000 S0.0
G1 X11.4494 Y27.8135 Z-2.0000 F300.0000 S0.0
G1 X11.7124 Y26.7664 Z-2.0000 F300.0000 S0.0
G1 X12.0597 Y25.8206 Z-2.0000 F300.0000 S0.0
G1 X12.4953 Y24.9781 Z-2.0000 F300.0000 S0.0
G1 X13.0233 Y24.2411 Z-2.0000 F300.0000 S0.0
G1 X13.6478 Y23.6117 Z-2.0000 F300.0000 S0.0
G1 X14.3729 Y23.0920 Z-2.0000 F300.0000 S0.0
G1 X15.2026 Y22.6841 Z-2.0000 F300.0000 S0.0
G1 X16.1410 Y22.3901 Z-2.0000 F300.0000 S0.0
G1 X17.1921 Y22.2122 Z-2.0000 F300.0000 S0.0
G1 X18.3601 Y22.1524 Z-2.0000 F300.0000 S0.0
G1 X19.9465 Y22.3341 Z-2.0000 F300.0000 S0.0
G1 X21.5720 Y22.8759 Z-2.0000 F300.0000 S0.0
G1 X23.2029 Y23.7725 Z-2.0000 F300.0000 S0.0
G1 X24.8054 Y25.0188 Z-2.0000 F300.0000 S0.0
G1 X26.3458 Y26.6099 Z-2.0000 F300.0000 S0.0
G1 X27.7903 Y28.5405 Z-2.0000 F300.0000 S0.0
G1 X29.1052 Y30.8055 Z-2.0000 F300.0000 S0.0
G1 X30.2567 Y33.3999 Z-2.0000 F300.0000 S0.0
G1 X31.2110 Y36.3185 Z-2.0000 F300.0000 S0.0
G1 X31.9345 Y39.5562 Z-2.0000 F300.0000 S0.0
G1 X32.3933 Y43.1078 Z-2.0000 F300.0000 S0.0
G1 X32.5538 Y46.9683 Z-2.0000 F300.0000 S0.0
G1 X32.4575 Y49.2333 Z-2.0000 F300.0000 S0.0
G1 X32.1655 Y51.4525 Z-2.0000 F300.0000 S0.0
G1 X31.6733 Y53.5972 Z-2.0000 F300.0000 S0.0
G1 X30.9760 Y55.6385 Z-2.0000 F300.0000 S0.0
G1 X30.0691 Y57.5476 Z-2.0000 F300.0000 S0.0
G1 X28.9478 Y59.2957 Z-2.0000 F300.0000 S0.0
G1 X27.6076 Y60.8540 Z-2.0000 F300.0000 S0.0
G1 X26.0436 Y62.1936 Z-2.0000 F300.0000 S0.0
G1 X24.2514 Y63.2857 Z-2.0000 F300.0000 S0.0
G1 X22.2262 Y64.1015 Z-2.0000 F300.0000 S0.0
G1 X19.9633 Y64.6121 Z-2.0000 F300.0000 S0.0
G1 X17.4580 Y64.7887 Z-2.0000 F300.0000 S0.0
G1 X15.0536 Y64.6414 Z-2.0000 F300.0000 S0.0
G1 X12.7999 Y64.2092 Z-2.0000 F300.0000 S0.0
G1 X10.7081 Y63.5060 Z-2.0000 F300.0000 S0.0
G1 X8.7892 Y62.5461 Z-2.0000 F300.0000 S0.0
G1 X7.0545 Y61.3436 Z-2.0000 F300.0000 S0.0
G1 X5.5149 Y59.9125 Z-2.0000 F300.0000 S0.0
G1 X4.1817 Y58.2670 Z-2.0000 F300.0000 S0.0
G1 X3.0659 Y56.4212 Z-2.0000 F300.0000 S0.0
G1 X2.1788 Y54.3893 Z-2.0000 F300.0000 S0.0
G1 X1.5313 Y52.1854 Z-2.0000 F300.0000 S0.0
G1 X1.1347 Y49.8237 Z-2.0000 F300.0000 S0.0
G1 X1.0000 Y47.3181 Z-2.0000 F300.0000 S0.0
G1 X1.0892 Y45.4041 Z-2.0000 F300.0000 S0.0
G1 X1.3362 Y43.6484 Z-2.0000 F300.0000 S0.0
G1 X1.7102 Y42.0522 Z-2.0000 F300.0000 S0.0
G1 X2.1802 Y40.6164 Z-2.0000 F300.0000 S0.0
G1 X2.7155 Y39.3422 Z-2.0000 F300.0000 S0.0
G1 X3.2851 Y38.2308 Z-2.0000 F300.0000 S0.0
G1 X3.8581 Y37.2830 Z-2.0000 F300.0000 S0.0
G1 X4.4037 Y36.5002 Z-2.0000 F300.0000 S0.0
G1 X4.8910 Y35.8833 Z-2.0000 F300.0000 S0.0
G1 X5.2891 Y35.4334 Z-2.0000 F300.0000 S0.0
G1 X5.5672 Y35.1516 Z-2.0000 F300.0000 S0.0
G1 X5.6944 Y35.0390 Z-2.0000 F300.0000 S0.0
G1 X5.8620 Y34.9255 Z-2.0000 F300.0000 S0.0
G1 X6.0323 Y34.8464 Z-2.0000 F300.0000 S0.0
G1 X6.2034 Y34.7965 Z-2.0000 F300.0000 S0.0
G1 X6.3736 Y34.7704 Z-2.0000 F300.0000 S0.0
G1 X6.5412 Y34.7629 Z-2.0000 F300.0000 S0.0
G1 X6.9783 Y34.8287 Z-2.0000 F300.0000 S0.0
G1 X7.4099 Y35.0137 Z-2.0000 F300.0000 S0.0
G1 X7.8238 Y35.2995 Z-2.0000 F300.0000 S0.0
G1 X8.2076 Y35.6675 Z-2.0000 F300.0000 S0.0
G1 X8.5492 Y36.0994 Z-2.0000 F300.0000 S0.0
G1 X8.8363 Y36.5766 Z-2.0000 F300.0000 S0.0
G1 X9.0565 Y37.0805 Z-2.0000 F300.0000 S0.0
G1 X9.1976 Y37.5928 Z-2.0000 F300.0000 S0.0
G1 X9.2474 Y38.0950 Z-2.0000 F300.0000 S0.0
G1 X9.2448 Y38.1998 Z-2.0000 F300.0000 S0.0
G1 X9.2367 Y38.2997 Z-2.0000 F300.0000 S0.0
G1 X9.2229 Y38.3942 Z-2.0000 F300.0000 S0.0
G1 X9.2031 Y38.4827 Z-2.0000 F300.0000 S0.0
G1 X9.1771 Y38.5648 Z-2.0000 F300.0000 S0.0
G1 X9.1445 Y38.6399 Z-2.0000 F300.0000 S0.0
G1 X9.1052 Y38.7075 Z-2.0000 F300.0000 S0.0
G1 X9.0587 Y38.7669 Z-2.0000 F300.0000 S0.0
G1 X9.0050 Y38.8178 Z-2.0000 F300.0000 S0.0
G1 X8.9436 Y38.8594 Z-2.0000 F300.0000 S0.0
G1 X8.8744 Y38.8914 Z-2.0000 F300.0000 S0.0
G1 X8.7970 Y38.9131 Z-2.0000 F300.0000 S0.0
G1 X8.7112 Y38.9240 Z-2.0000 F300.0000 S0.0
G1 X8.6167 Y38.9236 Z-2.0000 F300.0000 S0.0
G1 X8.5132 Y38.9113 Z-2.0000 F300.0000 S0.0
G1 X8.4006 Y38.8866 Z-2.0000 F300.0000 S0.0
G1 X8.2809 Y39.0056 Z-2.0000 F300.0000 S0.0
G1 X8.0584 Y39.2701 Z-2.0000 F300.0000 S0.0
G1 X7.7571 Y39.6768 Z-2.0000 F300.0000 S0.0
G1 X7.4012 Y40.2223 Z-2.0000 F300.0000 S0.0
G1 X7.0146 Y40.9033 Z-2.0000 F300.0000 S0.0
G1 X6.6215 Y41.7166 Z-2.0000 F300.0000 S0.0
G1 X6.2459 Y42.6587 Z-2.0000 F300.0000 S0.0
G1 X5.9118 Y43.7263 Z-2.0000 F300.0000 S0.0
G1 X5.6434 Y44.9162 Z-2.0000 F300.0000 S0.0
G1 X5.4648 Y46.2251 Z-2.0000 F300.0000 S0.0
G1 X5.3999 Y47.6495 Z-2.0000 F300.0000 S0.0
G1 X5.4545 Y49.1620 Z-2.0000 F300.0000 S0.0
G1 X5.6288 Y50.6811 Z-2.0000 F300.0000 S0.0
G1 X5.9378 Y52.1805 Z-2.0000 F300.0000 S0.0
G1 X6.3967 Y53.6339 Z-2.0000 F300.0000 S0.0
G1 X7.0208 Y55.0150 Z-2.0000 F300.0000 S0.0
G1 X7.8253 Y56.2973 Z-2.0000 F300.0000 S0.0
G1 X8.8254 Y57.4546 Z-2.0000 F300.0000 S0.0
G1 X10.0363 Y58.4606 Z-2.0000 F300.0000 S0.0
G1 X11.4732 Y59.2888 Z-2.0000 F300.0000 S0.0
G1 X13.1514 Y59.9131 Z-2.0000 F300.0000 S0.0
G1 X15.0860 Y60.3069 Z-2.0000 F300.0000 S0.0
G1 X17.2923 Y60.4440 Z-2.0000 F300.0000 S0.0
G1 X19.0814 Y60.3161 Z-2.0000 F300.0000 S0.0
G1 X20.6954 Y59.9437 Z-2.0000 F300.0000 S0.0
G1 X22.1380 Y59.3438 Z-2.0000 F300.0000 S0.0
G1 X23.4131 Y58.5335 Z-2.0000 F300.0000 S0.0
G1 X24.5243 Y57.5300 Z-2.0000 F300.0000 S0.0
G1 X25.4753 Y56.3502 Z-2.0000 F300.0000 S0.0
G1 X26.2699 Y55.0113 Z-2.0000 F300.0000 S0.0
G1 X26.9116 Y53.5303 Z-2.0000 F300.0000 S0.0
G1 X27.4043 Y51.9242 Z-2.0000 F300.0000 S0.0
G1 X27.7516 Y50.2102 Z-2.0000 F300.0000 S0.0
G1 X27.9573 Y48.4053 Z-2.0000 F300.0000 S0.0
G1 X28.0250 Y46.5265 Z-2.0000 F300.0000 S0.0
G1 X27.9047 Y43.5081 Z-2.0000 F300.0000 S0.0
G1 X27.5611 Y40.6469 Z-2.0000 F300.0000 S0.0
G1 X27.0201 Y37.9702 Z-2.0000 F300.0000 S0.0
G1 X26.3075 Y35.5055 Z-2.0000 F300.0000 S0.0
G1 X25.4493 Y33.2803 Z-2.0000 F300.0000 S0.0
G1 X24.4713 Y31.3221 Z-2.0000 F300.0000 S0.0
G1 X23.3995 Y29.6583 Z-2.0000 F300.0000 S0.0
G1 X22.2597 Y28.3165 Z-2.0000 F300.0000 S0.0
G1 X21.0779 Y27.3240 Z-2.0000 F300.0000 S0.0
G1 X19.8798 Y26.7084 Z-2.0000 F300.0000 S0.0
G1 X18.6915 Y26.4971 Z-2.0000 F300.0000 S0.0
G1 X18.1965 Y26.5261 Z-2.0000 F300.0000 S0.0
G1 X17.7475 Y26.6128 Z-2.0000 F300.0000 S0.0
G1 X17.3434 Y26.7568 Z-2.0000 F300.0000 S0.0
G1 X16.9829 Y26.9576 Z-2.0000 F300.0000 S0.0
G1 X16.6652 Y27.2147 Z-2.0000 F300.0000 S0.0
G1 X16.3889 Y27.5278 Z-2.0000 F300.0000 S0.0
G1 X16.1531 Y27.8963 Z-2.0000 F300.0000 S0.0
G1 X15.9566 Y28.3199 Z-2.0000 F300.0000 S0.0
G1 X15.7983 Y28.7979 Z-2.0000 F300.0000 S0.0
G1 X15.6771 Y29.3301 Z-2.0000 F300.0000 S0.0
G1 X15.5919 Y29.9159 Z-2.0000 F300.0000 S0.0
G1 X15.5416 Y30.5549 Z-2.0000 F300.0000 S0.0
G1 X15.5250 Y31.2467 Z-2.0000 F300.0000 S0.0
G1 X15.5250 Y53.4853 Z-2.0000 F300.0000 S0.0
G0 Z5.0000
G0 X54.1406 Y40.7644 Z5.0000
G0 X54.1406 Y40.7644 Z3.0000
G1 X54.1406 Y40.7644 Z-2.0000 F300.0000 S0.0
G1 X54.1008 Y41.5882 Z-2.0000 F300.0000 S0.0
G1 X53.9828 Y42.3633 Z-2.0000 F300.0000 S0.0
G1 X53.7891 Y43.0851 Z-2.0000 F300.0000 S0.0
G1 X53.5222 Y43.7494 Z-2.0000 F300.0000 S0.0
G1 X53.1845 Y44.3519 Z-2.0000 F300.0000 S0.0
G1 X52.7784 Y44.8881 Z-2.0000 F300.0000 S0.0
G1 X52.3062 Y45.3537 Z-2.0000 F300.0000 S0.0
G1 X51.7706 Y45.7444 Z-2.0000 F300.0000 S0.0
G1 X51.1739 Y46.0559 Z-2.0000 F300.0000 S0.0
G1 X50.5184 Y46.2838 Z-2.0000 F300.0000 S0.0
G1 X49.8067 Y46.4237 Z-2.0000 F300.0000 S0.0
G1 X49.0412 Y46.4713 Z-2.0000 F300.0000 S0.0
G1 X47.8605 Y46.3407 Z-2.0000 F300.0000 S0.0
G1 X46.7008 Y45.9596 Z-2.0000 F300.0000 S0.0
G1 X45.5814 Y45.3442 Z-2.0000 F300.0000 S0.0
G1 X44.5216 Y44.5106 Z-2.0000 F300.0000 S0.0
G1 X43.5407 Y43.4747 Z-2.0000 F300.0000 S0.0
G1 X42.6578 Y42.2529 Z-2.0000 F300.0000 S0.0
G1 X41.8923 Y40.8610 Z-2.0000 F300.0000 S0.0
G1 X41.2634 Y39.3153 Z-2.0000 F300.0000 S0.0
G1 X40.7904 Y37.6319 Z-2.0000 F300.0000 S0.0
G1 X40.4924 Y35.8267 Z-2.0000 F300.0000 S0.0
G1 X40.3888 Y33.9161 Z-2.0000 F300.0000 S0.0
G1 X40.5059 Y32.0616 Z-2.0000 F300.0000 S0.0
G1 X40.8434 Y30.3577 Z-2.0000 F300.0000 S0.0
G1 X41.3807 Y28.8099 Z-2.0000 F300.0000 S0.0
G1 X42.0972 Y27.4238 Z-2.0000 F300.0000 S0.0
G1 X42.9725 Y26.2046 Z-2.0000 F300.0000 S0.0
G1 X43.9858 Y25.1580 Z-2.0000 F300.0000 S0.0
G1 X45.1167 Y24.2894 Z-2.0000 F300.0000 S0.0
G1 X46.3444 Y23.6043 Z-2.0000 F300.0000 S0.0
G1 X47.6486 Y23.1082 Z-2.0000 F300.0000 S0.0
G1 X49.0085 Y22.8065 Z-2.0000 F300.0000 S0.0
G1 X50.4035 Y22.7047 Z-2.0000 F300.0000 S0.0
G1 X52.5255 Y22.8668 Z-2.0000 F300.0000 S0.0
G1 X54.3653 Y23.3224 Z-2.0000 F300.0000 S0.0
G1 X55.9420 Y24.0252 Z-2.0000 F300.0000 S0.0
G1 X57.2747 Y24.9292 Z-2.0000 F300.0000 S0.0
G1 X58.3825 Y25.9883 Z-2.0000 F300.0000 S0.0
G1 X59.2845 Y27.1562 Z-2.0000 F300.0000 S0.0
G1 X59.9998 Y28.3868 Z-2.0000 F300.0000 S0.0
G1 X60.5475 Y29.6341 Z-2.0000 F300.0000 S0.0
G1 X60.9466 Y30.8518 Z-2.0000 F300.0000 S0.0
G1 X61.2163 Y31.9938 Z-2.0000 F300.0000 S0.0
G1 X61.3756 Y33.0140 Z-2.0000 F300.0000 S0.0
G1 X61.3862 Y33.2462 Z-2.0000 F300.0000 S0.0
G1 X61.3666 Y33.4694 Z-2.0000 F300.0000 S0.0
G1 X61.3192 Y33.6824 Z-2.0000 F300.0000 S0.0
G1 X61.2462 Y33.8841 Z-2.0000 F300.0000 S0.0
G1 X61.1499 Y34.0735 Z-2.0000 F300.0000 S0.0
G1 X61.0328 Y34.2494 Z-2.0000 F300.0000 S0.0
G1 X60.8970 Y34.4107 Z-2.0000 F300.0000 S0.0
G1 X60.7449 Y34.5564 Z-2.0000 F300.0000 S0.0
G1 X60.5789 Y34.6853 Z-2.0000 F300.0000 S0.0
G1 X60.4012 Y34.7963 Z-2.0000 F300.0000 S0.0
G1 X60.2142 Y34.8884 Z-2.0000 F300.0000 S0.0
G1 X60.0201 Y34.9603 Z-2.0000 F300.0000 S0.0
G1 X59.8214 Y35.0111 Z-2.0000 F300.0000 S0.0
G1 X59.6203 Y35.0395 Z-2.0000 F300.0000 S0.0
G1 X59.4191 Y35.0446 Z-2.0000 F300.0000 S0.0
G1 X59.2203 Y35.0252 Z-2.0000 F300.0000 S0.0
G1 X59.0259 Y34.9802 Z-2.0000 F300.0000 S0.0
G1 X58.8385 Y34.9085 Z-2.0000 F300.0000 S0.0
G1 X58.6603 Y34.8090 Z-2.0000 F300.0000 S0.0
G1 X58.4937 Y34.6806 Z-2.0000 F300.0000 S0.0
G1 X58.3409 Y34.5221 Z-2.0000 F300.0000 S0.0
G1 X58.2042 Y34.3326 Z-2.0000 F300.0000 S0.0
G1 X58.0861 Y34.1108 Z-2.0000 F300.0000 S0.0
G1 X57.9888 Y33.8558 Z-2.0000 F300.0000 S0.0
G1 X57.9146 Y33.5663 Z-2.0000 F300.0000 S0.0
G1 X57.6795 Y32.5302 Z-2.0000 F300.0000 S0.0
G1 X57.3664 Y31.5034 Z-2.0000 F300.0000 S0.0
G1 X56.9667 Y30.5092 Z-2.0000 F300.0000 S0.0
G1 X56.4719 Y29.5713 Z-2.0000 F300.0000 S0.0
G1 X55.8734 Y28.7131 Z-2.0000 F300.0000 S0.0
G1 X55.1629 Y27.9582 Z-2.0000 F300.0000 S0.0
G1 X54.3317 Y27.3301 Z-2.0000 F300.0000 S0.0
G1 X53.3714 Y26.8523 Z-2.0000 F300.0000 S0.0
G1 X52.2735 Y26.5484 Z-2.0000 F300.0000 S0.0
G1 X51.0295 Y26.4418 Z-2.0000 F300.0000 S0.0
G1 X50.0992 Y26.4988 Z-2.0000 F300.0000 S0.0
G1 X49.2683 Y26.6628 Z-2.0000 F300.0000 S0.0
G1 X48.5312 Y26.9239 Z-2.0000 F300.0000 S0.0
G1 X47.8823 Y27.2717 Z-2.0000 F300.0000 S0.0
G1 X47.3160 Y27.6963 Z-2.0000 F300.0000 S0.0
G1 X46.8267 Y28.1873 Z-2.0000 F300.0000 S0.0
G1 X46.4087 Y28.7347 Z-2.0000 F300.0000 S0.0
G1 X46.0564 Y29.3283 Z-2.0000 F300.0000 S0.0
G1 X45.7644 Y29.9580 Z-2.0000 F300.0000 S0.0
G1 X47.4965 Y30.6220 Z-2.0000 F300.0000 S0.0
G1 X49.0339 Y31.4989 Z-2.0000 F300.0000 S0.0
G1 X50.3742 Y32.5551 Z-2.0000 F300.0000 S0.0
G1 X51.5150 Y33.7568 Z-2.0000 F300.0000 S0.0
G1 X52.4537 Y35.0701 Z-2.0000 F300.0000 S0.0
G1 X53.1881 Y36.4613 Z-2.0000 F300.0000 S0.0
G1 X53.7157 Y37.8966 Z-2.0000 F300.0000 S0.0
G1 X54.0340 Y39.3422 Z-2.0000 F300.0000 S0.0
G1 X54.1406 Y40.7644 Z-2.0000 F300.0000 S0.0
G0 Z5.0000
G0 X45.0280 Y34.0817 Z5.0000
G0 X45.0280 Y34.0817 Z3.0000
G1 X45.0280 Y34.0817 Z-2.0000 F300.0000 S0.0
G1 X45.0333 Y35.1330 Z-2.0000 F300.0000 S0.0
G1 X45.1396 Y36.4269 Z-2.0000 F300.0000 S0.0
G1 X45.3581 Y37.8456 Z-2.0000 F300.0000 S0.0
G1 X45.6999 Y39.2709 Z-2.0000 F300.0000 S0.0
G1 X46.1764 Y40.5849 Z-2.0000 F300.0000 S0.0
G1 X46.7987 Y41.6696 Z-2.0000 F300.0000 S0.0
G1 X47.5781 Y42.4069 Z-2.0000 F300.0000 S0.0
G1 X48.5258 Y42.6789 Z-2.0000 F300.0000 S0.0
G1 X48.7040 Y42.6637 Z-2.0000 F300.0000 S0.0
G1 X48.8701 Y42.6186 Z-2.0000 F300.0000 S0.0
G1 X49.0234 Y42.5443 Z-2.0000 F300.0000 S0.0
G1 X49.1633 Y42.4417 Z-2.0000 F300.0000 S0.0
G1 X49.2891 Y42.3114 Z-2.0000 F300.0000 S0.0
G1 X49.4002 Y42.1543 Z-2.0000 F300.0000 S0.0
G1 X49.4960 Y41.9711 Z-2.0000 F300.0000 S0.0
G1 X49.5758 Y41.7626 Z-2.0000 F300.0000 S0.0
G1 X49.6390 Y41.5295 Z-2.0000 F300.0000 S0.0
G1 X49.6849 Y41.2727 Z-2.0000 F300.0000 S0.0
G1 X49.7129 Y40.9928 Z-2.0000 F300.0000 S0.0
G1 X49.7224 Y40.6907 Z-2.0000 F300.0000 S0.0
G1 X49.6393 Y39.4436 Z-2.0000 F300.0000 S0.0
G1 X49.3962 Y38.2520 Z-2.0000 F300.0000 S0.0
G1 X49.0020 Y37.1304 Z-2.0000 F300.0000 S0.0
G1 X48.4659 Y36.0930 Z-2.0000 F300.0000 S0.0
G1 X47.7969 Y35.1539 Z-2.0000 F300.0000 S0.0
G1 X47.0041 Y34.3274 Z-2.0000 F300.0000 S0.0
G1 X46.0965 Y33.6278 Z-2.0000 F300.0000 S0.0
G1 X45.0832 Y33.0692 Z-2.0000 F300.0000 S0.0
G1 X45.0280 Y34.0817 Z-2.0000 F300.0000 S0.0
G0 Z5.0000
G0 X66.0074 Y7.4985 Z5.0000
G0 X66.0074 Y7.4985 Z3.0000
G1 X66.0074 Y7.4985 Z-2.0000 F300.0000 S0.0
G1 X66.0625 Y6.5297 Z-2.0000 F300.0000 S0.0
G1 X66.2237 Y5.6079 Z-2.0000 F300.0000 S0.0
G1 X66.4850 Y4.7426 Z-2.0000 F300.0000 S0.0
G1 X66.8401 Y3.9434 Z-2.0000 F300.0000 S0.0
G1 X67.2830 Y3.2198 Z-2.0000 F300.0000 S0.0
G1 X67.8074 Y2.5813 Z-2.0000 F300.0000 S0.0
G1 X68.4072 Y2.0375 Z-2.0000 F300.0000 S0.0
G1 X69.0764 Y1.5979 Z-2.0000 F300.0000 S0.0
G1 X69.8087 Y1.2721 Z-2.0000 F300.0000 S0.0
G1 X70.5980 Y1.0696 Z-2.0000 F300.0000 S0.0
G1 X71.4381 Y1.0000 Z-2.0000 F300.0000 S0.0
G1 X72.1057 Y1.0377 Z-2.0000 F300.0000 S0.0
G1 X72.7686 Y1.1542 Z-2.0000 F300.0000 S0.0
G1 X73.4185 Y1.3543 Z-2.0000 F300.0000 S0.0
G1 X74.0468 Y1.6429 Z-2.0000 F300.0000 S0.0
G1 X74.6451 Y2.0248 Z-2.0000 F300.0000 S0.0
G1 X75.2048 Y2.5050 Z-2.0000 F300.0000 S0.0
G1 X75.7174 Y3.0883 Z-2.0000 F300.0000 S0.0
G1 X76.1745 Y3.7795 Z-2.0000 F300.0000 S0.0
G1 X76.5675 Y4.5837 Z-2.0000 F300.0000 S0.0
G1 X76.8880 Y5.5056 Z-2.0000 F300.0000 S0.0
G1 X77.1274 Y6.5501 Z-2.0000 F300.0000 S0.0
G1 X77.2773 Y7.7221 Z-2.0000 F300.0000 S0.0
G1 X77.3292 Y9.0265 Z-2.0000 F300.0000 S0.0
G1 X77.3292 Y18.8019 Z-2.0000 F300.0000 S0.0
G1 X78.8682 Y20.2038 Z-2.0000 F300.0000 S0.0
G1 X80.4001 Y21.7877 Z-2.0000 F300.0000 S0.0
G1 X81.8809 Y23.6252 Z-2.0000 F300.0000 S0.0
G1 X83.2665 Y25.7880 Z-2.0000 F300.0000 S0.0
G1 X84.5131 Y28.3475 Z-2.0000 F300.0000 S0.0
G1 X85.5766 Y31.3756 Z-2.0000 F300.0000 S0.0
G1 X85.5999 Y31.4893 Z-2.0000 F300.0000 S0.0
G1 X85.6154 Y31.6046 Z-2.0000 F300.0000 S0.0
G1 X85.6249 Y31.7138 Z-2.0000 F300.0000 S0.0
G1 X85.6298 Y31.8092 Z-2.0000 F300.0000 S0.0
G1 X85.6316 Y31.8831 Z-2.0000 F300.0000 S0.0
G1 X85.6318 Y31.9278 Z-2.0000 F300.0000 S0.0
G1 X85.5940 Y32.2934 Z-2.0000 F300.0000 S0.0
G1 X85.4872 Y32.6586 Z-2.0000 F300.0000 S0.0
G1 X85.3216 Y33.0119 Z-2.0000 F300.0000 S0.0
G1 X85.1074 Y33.3421 Z-2.0000 F300.0000 S0.0
G1 X84.8547 Y33.6377 Z-2.0000 F300.0000 S0.0
G1 X84.5736 Y33.8874 Z-2.0000 F300.0000 S0.0
G1 X84.2744 Y34.0798 Z-2.0000 F300.0000 S0.0
G1 X83.9671 Y34.2036 Z-2.0000 F300.0000 S0.0
G1 X83.6620 Y34.2474 Z-2.0000 F300.0000 S0.0
G1 X83.5095 Y34.2349 Z-2.0000 F300.0000 S0.0
G1 X83.3633 Y34.1969 Z-2.0000 F300.0000 S0.0
G1 X83.2231 Y34.1324 Z-2.0000 F300.0000 S0.0
G1 X83.0888 Y34.0405 Z-2.0000 F300.0000 S0.0
G1 X82.9602 Y33.9203 Z-2.0000 F300.0000 S0.0
G1 X82.8372 Y33.7709 Z-2.0000 F300.0000 S0.0
G1 X82.7196 Y33.5914 Z-2.0000 F300.0000 S0.0
G1 X82.6072 Y33.3808 Z-2.0000 F300.0000 S0.0
G1 X82.4998 Y33.1383 Z-2.0000 F300.0000 S0.0
G1 X82.3974 Y32.8629 Z-2.0000 F300.0000 S0.0
G1 X82.2997 Y32.5538 Z-2.0000 F300.0000 S0.0
G1 X81.3341 Y29.8194 Z-2.0000 F300.0000 S0.0
G1 X80.1527 Y27.4405 Z-2.0000 F300.0000 S0.0
G1 X78.8022 Y25.3724 Z-2.0000 F300.0000 S0.0
G1 X77.3292 Y23.5700 Z-2.0000 F300.0000 S0.0
G1 X77.3292 Y38.9418 Z-2.0000 F300.0000 S0.0
G1 X77.2999 Y39.3068 Z-2.0000 F300.0000 S0.0
G1 X77.2137 Y39.6559 Z-2.0000 F300.0000 S0.0
G1 X77.0730 Y39.9851 Z-2.0000 F300.0000 S0.0
G1 X76.8801 Y40.2905 Z-2.0000 F300.0000 S0.0
G1 X76.6376 Y40.5682 Z-2.0000 F300.0000 S0.0
G1 X76.3477 Y40.8140 Z-2.0000 F300.0000 S0.0
G1 X76.0130 Y41.0241 Z-2.0000 F300.0000 S0.0
G1 X75.6358 Y41.1944 Z-2.0000 F300.0000 S0.0
G1 X75.2185 Y41.3210 Z-2.0000 F300.0000 S0.0
G1 X74.7635 Y41.3999 Z-2.0000 F300.0000 S0.0
G1 X74.2732 Y41.4271 Z-2.0000 F300.0000 S0.0
G1 X74.0605 Y41.4177 Z-2.0000 F300.0000 S0.0
G1 X73.8558 Y41.3900 Z-2.0000 F300.0000 S0.0
G1 X73.6617 Y41.3449 Z-2.0000 F300.0000 S0.0
G1 X73.4809 Y41.2835 Z-2.0000 F300.0000 S0.0
G1 X73.3158 Y41.2065 Z-2.0000 F300.0000 S0.0
G1 X73.1690 Y41.1149 Z-2.0000 F300.0000 S0.0
G1 X73.0432 Y41.0096 Z-2.0000 F300.0000 S0.0
G1 X72.9409 Y40.8916 Z-2.0000 F300.0000 S0.0
G1 X72.8646 Y40.7616 Z-2.0000 F300.0000 S0.0
G1 X72.8169 Y40.6207 Z-2.0000 F300.0000 S0.0
G1 X72.8004 Y40.4698 Z-2.0000 F300.0000 S0.0
G1 X72.8099 Y40.3251 Z-2.0000 F300.0000 S0.0
G1 X72.8350 Y40.1750 Z-2.0000 F300.0000 S0.0
G1 X72.8703 Y40.0106 Z-2.0000 F300.0000 S0.0
G1 X72.9109 Y39.8232 Z-2.0000 F300.0000 S0.0
G1 X72.9515 Y39.6038 Z-2.0000 F300.0000 S0.0
G1 X72.9868 Y39.3437 Z-2.0000 F300.0000 S0.0
G1 X73.0119 Y39.0339 Z-2.0000 F300.0000 S0.0
G1 X73.0214 Y38.6657 Z-2.0000 F300.0000 S0.0
G1 X73.0214 Y32.2776 Z-2.0000 F300.0000 S0.0
G1 X72.8640 Y31.5007 Z-2.0000 F300.0000 S0.0
G1 X72.6478 Y30.7000 Z-2.0000 F300.0000 S0.0
G1 X72.3695 Y29.9062 Z-2.0000 F300.0000 S0.0
G1 X72.0263 Y29.1502 Z-2.0000 F300.0000 S0.0
G1 X71.6150 Y28.4626 Z-2.0000 F300.0000 S0.0
G1 X71.1327 Y27.8744 Z-2.0000 F300.0000 S0.0
G1 X70.5763 Y27.4161 Z-2.0000 F300.0000 S0.0
G1 X69.9427 Y27.1185 Z-2.0000 F300.0000 S0.0
G1 X69.2290 Y27.0125 Z-2.0000 F300.0000 S0.0
G1 X68.7518 Y27.0475 Z-2.0000 F300.0000 S0.0
G1 X68.3064 Y27.1516 Z-2.0000 F300.0000 S0.0
G1 X67.8946 Y27.3232 Z-2.0000 F300.0000 S0.0
G1 X67.5183 Y27.5607 Z-2.0000 F300.0000 S0.0
G1 X67.1793 Y27.8627 Z-2.0000 F300.0000 S0.0
G1 X66.8795 Y28.2275 Z-2.0000 F300.0000 S0.0
G1 X66.6207 Y28.6538 Z-2.0000 F300.0000 S0.0
G1 X66.4049 Y29.1398 Z-2.0000 F300.0000 S0.0
G1 X66.2337 Y29.6842 Z-2.0000 F300.0000 S0.0
G1 X66.1092 Y30.2853 Z-2.0000 F300.0000 S0.0
G1 X66.0331 Y30.9417 Z-2.0000 F300.0000 S0.0
G1 X66.0074 Y31.6517 Z-2.0000 F300.0000 S0.0
G1 X66.1091 Y33.5936 Z-2.0000 F300.0000 S0.0
G1 X66.4009 Y35.3525 Z-2.0000 F300.0000 S0.0
G1 X66.8625 Y36.9312 Z-2.0000 F300.0000 S0.0
G1 X67.4740 Y38.3323 Z-2.0000 F300.0000 S0.0
G1 X68.2151 Y39.5585 Z-2.0000 F300.0000 S0.0
G1 X69.0656 Y40.6125 Z-2.0000 F300.0000 S0.0
G1 X70.0056 Y41.4970 Z-2.0000 F300.0000 S0.0
G1 X71.0147 Y42.2146 Z-2.0000 F300.0000 S0.0
G1 X72.0730 Y42.7681 Z-2.0000 F300.0000 S0.0
G1 X73.1602 Y43.1601 Z-2.0000 F300.0000 S0.0
G1 X74.2562 Y43.3934 Z-2.0000 F300.0000 S0.0
G1 X75.3409 Y43.4705 Z-2.0000 F300.0000 S0.0
G1 X76.9794 Y43.3601 Z-2.0000 F300.0000 S0.0
G1 X77.0882 Y43.3646 Z-2.0000 F300.0000 S0.0
G1 X77.1866 Y43.3785 Z-2.0000 F300.0000 S0.0
G1 X77.2751 Y43.4024 Z-2.0000 F300.0000 S0.0
G1 X77.3541 Y43.4367 Z-2.0000 F300.0000 S0.0
G1 X77.4239 Y43.4821 Z-2.0000 F300.0000 S0.0
G1 X77.4851 Y43.5392 Z-2.0000 F300.0000 S0.0
G1 X77.5381 Y43.6084 Z-2.0000 F300.0000 S0.0
G1 X77.5832 Y43.6903 Z-2.0000 F300.0000 S0.0
G1 X77.6209 Y43.7856 Z-2.0000 F300.0000 S0.0
G1 X77.6517 Y43.8946 Z-2.0000 F300.0000 S0.0
G1 X77.6759 Y44.0181 Z-2.0000 F300.0000 S0.0
G1 X77.6940 Y44.1566 Z-2.0000 F300.0000 S0.0
G1 X77.7064 Y44.3105 Z-2.0000 F300.0000 S0.0
G1 X77.7135 Y44.4805 Z-2.0000 F300.0000 S0.0
G1 X77.7158 Y44.6672 Z-2.0000 F300.0000 S0.0
G1 X77.6939 Y45.0194 Z-2.0000 F300.0000 S0.0
G1 X77.6296 Y45.3481 Z-2.0000 F300.0000 S0.0
G1 X77.5250 Y45.6518 Z-2.0000 F300.0000 S0.0
G1 X77.3823 Y45.9292 Z-2.0000 F300.0000 S0.0
G1 X77.2036 Y46.1791 Z-2.0000 F300.0000 S0.0
G1 X76.9909 Y46.3999 Z-2.0000 F300.0000 S0.0
G1 X76.7464 Y46.5905 Z-2.0000 F300.0000 S0.0
G1 X76.4721 Y46.7495 Z-2.0000 F300.0000 S0.0
G1 X76.1702 Y46.8754 Z-2.0000 F300.0000 S0.0
G1 X75.8429 Y46.9671 Z-2.0000 F300.0000 S0.0
G1 X75.4921 Y47.0230 Z-2.0000 F300.0000 S0.0
G1 X75.1200 Y47.0420 Z-2.0000 F300.0000 S0.0
G1 X73.2506 Y46.9002 Z-2.0000 F300.0000 S0.0
G1 X71.4264 Y46.4814 Z-2.0000 F300.0000 S0.0
G1 X69.6756 Y45.7950 Z-2.0000 F300.0000 S0.0
G1 X68.0260 Y44.8507 Z-2.0000 F300.0000 S0.0
G1 X66.5056 Y43.6578 Z-2.0000 F300.0000 S0.0
G1 X65.1423 Y42.2260 Z-2.0000 F300.0000 S0.0
G1 X63.9643 Y40.5649 Z-2.0000 F300.0000 S0.0
G1 X62.9993 Y38.6839 Z-2.0000 F300.0000 S0.0
G1 X62.2754 Y36.5926 Z-2.0000 F300.0000 S0.0
G1 X61.8206 Y34.3006 Z-2.0000 F300.0000 S0.0
G1 X61.6627 Y31.8174 Z-2.0000 F300.0000 S0.0
G1 X61.7109 Y30.6400 Z-2.0000 F300.0000 S0.0
G1 X61.8549 Y29.5163 Z-2.0000 F300.0000 S0.0
G1 X62.0939 Y28.4556 Z-2.0000 F300.0000 S0.0
G1 X62.4271 Y27.4673 Z-2.0000 F300.0000 S0.0
G1 X62.8535 Y26.5605 Z-2.0000 F300.0000 S0.0
G1 X63.3725 Y25.7446 Z-2.0000 F300.0000 S0.0
G1 X63.9831 Y25.0287 Z-2.0000 F300.0000 S0.0
G1 X64.6846 Y24.4222 Z-2.0000 F300.0000 S0.0
G1 X65.4761 Y23.9344 Z-2.0000 F300.0000 S0.0
G1 X66.3567 Y23.5745 Z-2.0000 F300.0000 S0.0
G1 X67.3257 Y23.3517 Z-2.0000 F300.0000 S0.0
G1 X68.3822 Y23.2754 Z-2.0000 F300.0000 S0.0
G1 X69.3382 Y23.3475 Z-2.0000 F300.0000 S0.0
G1 X70.2190 Y23.5515 Z-2.0000 F300.0000 S0.0
G1 X71.0262 Y23.8691 Z-2.0000 F300.0000 S0.0
G1 X71.7613 Y24.2818 Z-2.0000 F300.0000 S0.0
G1 X72.4259 Y24.7712 Z-2.0000 F300.0000 S0.0
G1 X73.0214 Y25.3189 Z-2.0000 F300.0000 S0.0
G1 X73.0214 Y19.3726 Z-2.0000 F300.0000 S0.0
G1 X71.4619 Y17.9826 Z-2.0000 F300.0000 S0.0
G1 X70.0046 Y16.5838 Z-2.0000 F300.0000 S0.0
G1 X68.6995 Y15.1204 Z-2.0000 F300.0000 S0.0
G1 X67.5971 Y13.5361 Z-2.0000 F300.0000 S0.0
G1 X66.7474 Y11.7751 Z-2.0000 F300.0000 S0.0
G1 X66.2007 Y9.7812 Z-2.0000 F300.0000 S0.0
G1 X66.0074 Y7.4985 Z-2.0000 F300.0000 S0.0
G0 Z5.0000
G0 X71.4381 Y4.5530 Z5.0000
G0 X71.4381 Y4.5530 Z3.0000
G1 X71.4381 Y4.5530 Z-2.0000 F300.0000 S0.0
G1 X71.2005 Y4.5861 Z-2.0000 F300.0000 S0.0
G1 X70.9804 Y4.6823 Z-2.0000 F300.0000 S0.0
G1 X70.7789 Y4.8372 Z-2.0000 F300.0000 S0.0
G1 X70.5970 Y5.0465 Z-2.0000 F300.0000 S0.0
G1 X70.4359 Y5.3058 Z-2.0000 F300.0000 S0.0
G1 X70.2966 Y5.6106 Z-2.0000 F300.0000 S0.0
G1 X70.1803 Y5.9566 Z-2.0000 F300.0000 S0.0
G1 X70.0879 Y6.3394 Z-2.0000 F300.0000 S0.0
G1 X70.0205 Y6.7545 Z-2.0000 F300.0000 S0.0
G1 X69.9794 Y7.1976 Z-2.0000 F300.0000 S0.0
G1 X69.9654 Y7.6642 Z-2.0000 F300.0000 S0.0
G1 X70.0665 Y9.2659 Z-2.0000 F300.0000 S0.0
G1 X70.3568 Y10.6840 Z-2.0000 F300.0000 S0.0
G1 X70.8168 Y11.9467 Z-2.0000 F300.0000 S0.0
G1 X71.4272 Y13.0820 Z-2.0000 F300.0000 S0.0
G1 X72.1686 Y14.1182 Z-2.0000 F300.0000 S0.0
G1 X73.0214 Y15.0832 Z-2.0000 F300.0000 S0.0
G1 X73.0214 Y9.0265 Z-2.0000 F300.0000 S0.0
G1 X73.0271 Y8.5919 Z-2.0000 F300.0000 S0.0
G1 X73.0316 Y8.0313 Z-2.0000 F300.0000 S0.0
G1 X73.0159 Y7.3922 Z-2.0000 F300.0000 S0.0
G1 X72.9612 Y6.7216 Z-2.0000 F300.0000 S0.0
G1 X72.8484 Y6.0670 Z-2.0000 F300.0000 S0.0
G1 X72.6586 Y5.4755 Z-2.0000 F300.0000 S0.0
G1 X72.3730 Y4.9945 Z-2.0000 F300.0000 S0.0
G1 X71.9724 Y4.6713 Z-2.0000 F300.0000 S0.0
G1 X71.4381 Y4.5530 Z-2.0000 F300.0000 S0.0
G0 Z5.0000
G0 X100.6649 Y40.7644 Z5.0000
G0 X100.6649 Y40.7644 Z3.0000
G1 X100.6649 Y40.7644 Z-2.0000 F300.0000 S0.0
G1 X100.6251 Y41.5882 Z-2.0000 F300.0000 S0.0
G1 X100.5071 Y42.3633 Z-2.0000 F300.0000 S0.0
G1 X100.3134 Y43.0851 Z-2.0000 F300.0000 S0.0
G1 X100.0465 Y43.7494 Z-2.0000 F300.0000 S0.0
G1 X99.7088 Y44.3519 Z-2.0000 F300.0000 S0.0
G1 X99.3027 Y44.8881 Z-2.0000 F300.0000 S0.0
G1 X98.8305 Y45.3537 Z-2.0000 F300.0000 S0.0
G1 X98.2949 Y45.7444 Z-2.0000 F300.0000 S0.0
G1 X97.6982 Y46.0559 Z-2.0000 F300.0000 S0.0
G1 X97.0427 Y46.2838 Z-2.0000 F300.0000 S0.0
G1 X96.3310 Y46.4237 Z-2.0000 F300.0000 S0.0
G1 X95.5655 Y46.4713 Z-2.0000 F300.0000 S0.0
G1 X94.3848 Y46.3407 Z-2.0000 F300.0000 S0.0
G1 X93.2251 Y45.9596 Z-2.0000 F300.0000 S0.0
G1 X92.1057 Y45.3442 Z-2.0000 F300.0000 S0.0
G1 X91.0459 Y44.5106 Z-2.0000 F300.0000 S0.0
G1 X90.0650 Y43.4747 Z-2.0000 F300.0000 S0.0
G1 X89.1821 Y42.2529 Z-2.0000 F300.0000 S0.0
G1 X88.4166 Y40.8610 Z-2.0000 F300.0000 S0.0
G1 X87.7877 Y39.3153 Z-2.0000 F300.0000 S0.0
G1 X87.3147 Y37.6319 Z-2.0000 F300.0000 S0.0
G1 X87.0167 Y35.8267 Z-2.0000 F300.0000 S0.0
G1 X86.9131 Y33.9161 Z-2.0000 F300.0000 S0.0
G1 X87.0302 Y32.0616 Z-2.0000 F300.0000 S0.0
G1 X87.3677 Y30.3577 Z-2.0000 F300.0000 S0.0
G1 X87.9050 Y28.8099 Z-2.0000 F300.0000 S0.0
G1 X88.6215 Y27.4238 Z-2.0000 F300.0000 S0.0
G1 X89.4968 Y26.2046 Z-2.0000 F300.0000 S0.0
G1 X90.5101 Y25.1580 Z-2.0000 F300.0000 S0.0
G1 X91.6410 Y24.2894 Z-2.0000 F300.0000 S0.0
G1 X92.8687 Y23.6043 Z-2.0000 F300.0000 S0.0
G1 X94.1729 Y23.1082 Z-2.0000 F300.0000 S0.0
G1 X95.5328 Y22.8065 Z-2.0000 F300.0000 S0.0
G1 X96.9278 Y22.7047 Z-2.0000 F300.0000 S0.0
G1 X99.0498 Y22.8668 Z-2.0000 F300.0000 S0.0
G1 X100.8896 Y23.3224 Z-2.0000 F300.0000 S0.0
G1 X102.4663 Y24.0252 Z-2.0000 F300.0000 S0.0
G1 X103.7990 Y24.9292 Z-2.0000 F300.0000 S0.0
G1 X104.9068 Y25.9883 Z-2.0000 F300.0000 S0.0
G1 X105.8088 Y27.1562 Z-2.0000 F300.0000 S0.0
G1 X106.5241 Y28.3868 Z-2.0000 F300.0000 S0.0
G1 X107.0718 Y29.6341 Z-2.0000 F300.0000 S0.0
G1 X107.4709 Y30.8518 Z-2.0000 F300.0000 S0.0
G1 X107.7406 Y31.9938 Z-2.0000 F300.0000 S0.0
G1 X107.8999 Y33.0140 Z-2.0000 F300.0000 S0.0
G1 X107.9105 Y33.2462 Z-2.0000 F300.0000 S0.0
G1 X107.8909 Y33.4694 Z-2.0000 F300.0000 S0.0
G1 X107.8435 Y33.6824 Z-2.0000 F300.0000 S0.0
G1 X107.7705 Y33.8841 Z-2.0000 F300.0000 S0.0
G1 X107.6742 Y34.0735 Z-2.0000 F300.0000 S0.0
G1 X107.5571 Y34.2494 Z-2.0000 F300.0000 S0.0
G1 X107.4213 Y34.4107 Z-2.0000 F300.0000 S0.0
G1 X107.2692 Y34.5564 Z-2.0000 F300.0000 S0.0
G1 X107.1032 Y34.6853 Z-2.0000 F300.0000 S0.0
G1 X106.9255 Y34.7963 Z-2.0000 F300.0000 S0.0
G1 X106.7385 Y34.8884 Z-2.0000 F300.0000 S0.0
G1 X106.5444 Y34.9603 Z-2.0000 F300.0000 S0.0
G1 X106.3457 Y35.0111 Z-2.0000 F300.0000 S0.0
G1 X106.1446 Y35.0395 Z-2.0000 F300.0000 S0.0
G1 X105.9434 Y35.0446 Z-2.0000 F300.0000 S0.0
G1 X105.7446 Y35.0252 Z-2.0000 F300.0000 S0.0
G1 X105.5502 Y34.9802 Z-2.0000 F300.0000 S0.0
G1 X105.3628 Y34.9085 Z-2.0000 F300.0000 S0.0
G1 X105.1846 Y34.8090 Z-2.0000 F300.0000 S0.0
G1 X105.0180 Y34.6806 Z-2.0000 F300.0000 S0.0
G1 X104.8652 Y34.5221 Z-2.0000 F300.0000 S0.0
G1 X104.7285 Y34.3326 Z-2.0000 F300.0000 S0.0
G1 X104.6104 Y34.1108 Z-2.0000 F300.0000 S0.0
G1 X104.5131 Y33.8558 Z-2.0000 F300.0000 S0.0
G1 X104.4389 Y33.5663 Z-2.0000 F300.0000 S0.0
G1 X104.2038 Y32.5302 Z-2.0000 F300.0000 S0.0
G1 X103.8907 Y31.5034 Z-2.0000 F300.0000 S0.0
G1 X103.4910 Y30.5092 Z-2.0000 F300.0000 S0.0
G1 X102.9962 Y29.5713 Z-2.0000 F300.0000 S0.0
G1 X102.3977 Y28.7131 Z-2.0000 F300.0000 S0.0
G1 X101.6872 Y27.9582 Z-2.0000 F300.0000 S0.0
G1 X100.8560 Y27.3301 Z-2.0000 F300.0000 S0.0
G1 X99.8957 Y26.8523 Z-2.0000 F300.0000 S0.0
G1 X98.7978 Y26.5484 Z-2.0000 F300.0000 S0.0
G1 X97.5538 Y26.4418 Z-2.0000 F300.0000 S0.0
G1 X96.6235 Y26.4988 Z-2.0000 F300.0000 S0.0
G1 X95.7926 Y26.6628 Z-2.0000 F300.0000 S0.0
G1 X95.0555 Y26.9239 Z-2.0000 F300.0000 S0.0
G1 X94.4066 Y27.2717 Z-2.0000 F300.0000 S0.0
G1 X93.8403 Y27.6963 Z-2.0000 F300.0000 S0.0
G1 X93.3510 Y28.1873 Z-2.0000 F300.0000 S0.0
G1 X92.9330 Y28.7347 Z-2.0000 F300.0000 S0.0
G1 X92.5807 Y29.3283 Z-2.0000 F300.0000 S0.0
G1 X92.2887 Y29.9580 Z-2.0000 F300.0000 S0.0
G1 X94.0208 Y30.6220 Z-2.0000 F300.0000 S0.0
G1 X95.5582 Y31.4989 Z-2.0000 F300.0000 S0.0
G1 X96.8985 Y32.5551 Z-2.0000 F300.0000 S0.0
G1 X98.0393 Y33.7568 Z-2.0000 F300.0000 S0.0
G1 X98.9780 Y35.0701 Z-2.0000 F300.0000 S0.0
G1 X99.7124 Y36.4613 Z-2.0000 F300.0000 S0.0
G1 X100.2400 Y37.8966 Z-2.0000 F300.0000 S0.0
G1 X100.5583 Y39.3422 Z-2.0000 F300.0000 S0.0
G1 X100.6649 Y40.7644 Z-2.0000 F300.0000 S0.0
G0 Z5.0000
G0 X91.5523 Y34.0817 Z5.0000
G0 X91.5523 Y34.0817 Z3.0000
G1 X91.5523 Y34.0817 Z-2.0000 F300.0000 S0.0
G1 X91.5576 Y35.1330 Z-2.0000 F300.0000 S0.0
G1 X91.6639 Y36.4269 Z-2.0000 F300.0000 S0.0
G1 X91.8824 Y37.8456 Z-2.0000 F300.0000 S0.0
G1 X92.2242 Y39.2709 Z-2.0000 F300.0000 S0.0
G1 X92.7007 Y40.5849 Z-2.0000 F300.0000 S0.0
G1 X93.3230 Y41.6696 Z-2.0000 F300.0000 S0.0
G1 X94.1024 Y42.4069 Z-2.0000 F300.0000 S0.0
G1 X95.0501 Y42.6789 Z-2.0000 F300.0000 S0.0
G1 X95.2283 Y42.6637 Z-2.0000 F300.0000 S0.0
G1 X95.3944 Y42.6186 Z-2.0000 F300.0000 S0.0
G1 X95.5477 Y42.5443 Z-2.0000 F300.0000 S0.0
G1 X95.6876 Y42.4417 Z-2.0000 F300.0000 S0.0
G1 X95.8134 Y42.3114 Z-2.0000 F300.0000 S0.0
G1 X95.9245 Y42.1543 Z-2.0000 F300.0000 S0.0
G1 X96.0203 Y41.9711 Z-2.0000 F300.0000 S0.0
G1 X96.1001 Y41.7626 Z-2.0000 F300.0000 S0.0
G1 X96.1633 Y41.5295 Z-2.0000 F300.0000 S0.0
G1 X96.2092 Y41.2727 Z-2.0000 F300.0000 S0.0
G1 X96.2372 Y40.9928 Z-2.0000 F300.0000 S0.0
G1 X96.2467 Y40.6907 Z-2.0000 F300.0000 S0.0
G1 X96.1636 Y39.4436 Z-2.0000 F300.0000 S0.0
G1 X95.9205 Y38.2520 Z-2.0000 F300.0000 S0.0
G1 X95.5263 Y37.1304 Z-2.0000 F300.0000 S0.0
G1 X94.9902 Y36.0930 Z-2.0000 F300.0000 S0.0
G1 X94.3212 Y35.1539 Z-2.0000 F300.0000 S0.0
G1 X93.5284 Y34.3274 Z-2.0000 F300.0000 S0.0
G1 X92.6208 Y33.6278 Z-2.0000 F300.0000 S0.0
G1 X91.6075 Y33.0692 Z-2.0000 F300.0000 S0.0
G1 X91.5523 Y34.0817 Z-2.0000 F300.0000 S0.0
G0 Z5.0000
G0 X142.9072 Y31.5412 Z5.0000
G0 X142.9072 Y31.5412 Z3.0000
G1 X142.9072 Y31.5412 Z-2.0000 F300.0000 S0.0
G1 X142.9237 Y31.6109 Z-2.0000 F300.0000 S0.0
G1 X142.9365 Y31.6728 Z-2.0000 F300.0000 S0.0
G1 X142.9461 Y31.7274 Z-2.0000 F300.0000 S0.0
G1 X142.9530 Y31.7752 Z-2.0000 F300.0000 S0.0
G1 X142.9576 Y31.8166 Z-2.0000 F300.0000 S0.0
G1 X142.9604 Y31.8522 Z-2.0000 F300.0000 S0.0
G1 X142.9618 Y31.8822 Z-2.0000 F300.0000 S0.0
G1 X142.9624 Y31.9073 Z-2.0000 F300.0000 S0.0
G1 X142.9624 Y31.9278 Z-2.0000 F300.0000 S0.0
G1 X142.9246 Y32.2934 Z-2.0000 F300.0000 S0.0
G1 X142.8178 Y32.6586 Z-2.0000 F300.0000 S0.0
G1 X142.6522 Y33.0119 Z-2.0000 F300.0000 S0.0
G1 X142.4380 Y33.3421 Z-2.0000 F300.0000 S0.0
G1 X142.1853 Y33.6377 Z-2.0000 F300.0000 S0.0
G1 X141.9042 Y33.8874 Z-2.0000 F300.0000 S0.0
G1 X141.6050 Y34.0798 Z-2.0000 F300.0000 S0.0
G1 X141.2978 Y34.2036 Z-2.0000 F300.0000 S0.0
G1 X140.9926 Y34.2474 Z-2.0000 F300.0000 S0.0
G1 X140.8373 Y34.2349 Z-2.0000 F300.0000 S0.0
G1 X140.6835 Y34.1969 Z-2.0000 F300.0000 S0.0
G1 X140.5328 Y34.1324 Z-2.0000 F300.0000 S0.0
G1 X140.3869 Y34.0405 Z-2.0000 F300.0000 S0.0
G1 X140.2473 Y33.9203 Z-2.0000 F300.0000 S0.0
G1 X140.1155 Y33.7709 Z-2.0000 F300.0000 S0.0
G1 X139.9933 Y33.5914 Z-2.0000 F300.0000 S0.0
G1 X139.8820 Y33.3808 Z-2.0000 F300.0000 S0.0
G1 X139.7834 Y33.1383 Z-2.0000 F300.0000 S0.0
G1 X139.6990 Y32.8629 Z-2.0000 F300.0000 S0.0
G1 X139.6303 Y32.5538 Z-2.0000 F300.0000 S0.0
G1 X139.4123 Y31.5776 Z-2.0000 F300.0000 S0.0
G1 X139.1387 Y30.5503 Z-2.0000 F300.0000 S0.0
G1 X138.8009 Y29.5277 Z-2.0000 F300.0000 S0.0
G1 X138.3900 Y28.5658 Z-2.0000 F300.0000 S0.0
G1 X137.8971 Y27.7204 Z-2.0000 F300.0000 S0.0
G1 X137.3133 Y27.0473 Z-2.0000 F300.0000 S0.0
G1 X136.6299 Y26.6025 Z-2.0000 F300.0000 S0.0
G1 X135.8380 Y26.4418 Z-2.0000 F300.0000 S0.0
G1 X135.4389 Y26.5011 Z-2.0000 F300.0000 S0.0
G1 X135.1193 Y26.6642 Z-2.0000 F300.0000 S0.0
G1 X134.8704 Y26.9091 Z-2.0000 F300.0000 S0.0
G1 X134.6834 Y27.2135 Z-2.0000 F300.0000 S0.0
G1 X134.5493 Y27.5556 Z-2.0000 F300.0000 S0.0
G1 X134.4595 Y27.9131 Z-2.0000 F300.0000 S0.0
G1 X134.4050 Y28.2640 Z-2.0000 F300.0000 S0.0
G1 X134.3770 Y28.5862 Z-2.0000 F300.0000 S0.0
G1 X134.3667 Y28.8575 Z-2.0000 F300.0000 S0.0
G1 X134.3652 Y29.0560 Z-2.0000 F300.0000 S0.0
G1 X134.3652 Y40.7644 Z-2.0000 F300.0000 S0.0
G1 X134.3465 Y41.4219 Z-2.0000 F300.0000 S0.0
G1 X134.2855 Y42.0884 Z-2.0000 F300.0000 S0.0
G1 X134.1754 Y42.7511 Z-2.0000 F300.0000 S0.0
G1 X134.0093 Y43.3976 Z-2.0000 F300.0000 S0.0
G1 X133.7804 Y44.0151 Z-2.0000 F300.0000 S0.0
G1 X133.4816 Y44.5912 Z-2.0000 F300.0000 S0.0
G1 X133.1061 Y45.1132 Z-2.0000 F300.0000 S0.0
G1 X132.6470 Y45.5685 Z-2.0000 F300.0000 S0.0
G1 X132.0974 Y45.9446 Z-2.0000 F300.0000 S0.0
G1 X131.4504 Y46.2288 Z-2.0000 F300.0000 S0.0
G1 X130.6991 Y46.4086 Z-2.0000 F300.0000 S0.0
G1 X129.8365 Y46.4713 Z-2.0000 F300.0000 S0.0
G1 X128.9106 Y46.3658 Z-2.0000 F300.0000 S0.0
G1 X128.0379 Y46.0620 Z-2.0000 F300.0000 S0.0
G1 X127.2183 Y45.5791 Z-2.0000 F300.0000 S0.0
G1 X126.4515 Y44.9364 Z-2.0000 F300.0000 S0.0
G1 X125.7374 Y44.1530 Z-2.0000 F300.0000 S0.0
G1 X125.0757 Y43.2482 Z-2.0000 F300.0000 S0.0
G1 X124.4662 Y42.2411 Z-2.0000 F300.0000 S0.0
G1 X123.9087 Y41.1510 Z-2.0000 F300.0000 S0.0
G1 X123.8625 Y41.7893 Z-2.0000 F300.0000 S0.0
G1 X123.7755 Y42.4272 Z-2.0000 F300.0000 S0.0
G1 X123.6420 Y43.0540 Z-2.0000 F300.0000 S0.0
G1 X123.4566 Y43.6594 Z-2.0000 F300.0000 S0.0
G1 X123.2137 Y44.2328 Z-2.0000 F300.0000 S0.0
G1 X122.9077 Y44.7638 Z-2.0000 F300.0000 S0.0
G1 X122.5330 Y45.2419 Z-2.0000 F300.0000 S0.0
G1 X122.0841 Y45.6565 Z-2.0000 F300.0000 S0.0
G1 X121.5554 Y45.9972 Z-2.0000 F300.0000 S0.0
G1 X120.9414 Y46.2536 Z-2.0000 F300.0000 S0.0
G1 X120.2366 Y46.4151 Z-2.0000 F300.0000 S0.0
G1 X119.4352 Y46.4713 Z-2.0000 F300.0000 S0.0
G1 X118.5084 Y46.3633 Z-2.0000 F300.0000 S0.0
G1 X117.6331 Y46.0525 Z-2.0000 F300.0000 S0.0
G1 X116.8092 Y45.5587 Z-2.0000 F300.0000 S0.0
G1 X116.0364 Y44.9019 Z-2.0000 F300.0000 S0.0
G1 X115.3145 Y44.1018 Z-2.0000 F300.0000 S0.0
G1 X114.6433 Y43.1783 Z-2.0000 F300.0000 S0.0
G1 X114.0226 Y42.1513 Z-2.0000 F300.0000 S0.0
G1 X113.4521 Y41.0405 Z-2.0000 F300.0000 S0.0
G1 X113.4521 Y43.4153 Z-2.0000 F300.0000 S0.0
G1 X113.4229 Y43.7803 Z-2.0000 F300.0000 S0.0
G1 X113.3367 Y44.1293 Z-2.0000 F300.0000 S0.0
G1 X113.1960 Y44.4586 Z-2.0000 F300.0000 S0.0
G1 X113.0031 Y44.7640 Z-2.0000 F300.0000 S0.0
G1 X112.7606 Y45.0417 Z-2.0000 F300.0000 S0.0
G1 X112.4707 Y45.2875 Z-2.0000 F300.0000 S0.0
G1 X112.1360 Y45.4976 Z-2.0000 F300.0000 S0.0
G1 X111.7587 Y45.6679 Z-2.0000 F300.0000 S0.0
G1 X111.3414 Y45.7945 Z-2.0000 F300.0000 S0.0
G1 X110.8864 Y45.8734 Z-2.0000 F300.0000 S0.0
G1 X110.3962 Y45.9006 Z-2.0000 F300.0000 S0.0
G1 X110.1834 Y45.8912 Z-2.0000 F300.0000 S0.0
G1 X109.9788 Y45.8635 Z-2.0000 F300.0000 S0.0
G1 X109.7847 Y45.8184 Z-2.0000 F300.0000 S0.0
G1 X109.6039 Y45.7570 Z-2.0000 F300.0000 S0.0
G1 X109.4388 Y45.6800 Z-2.0000 F300.0000 S0.0
G1 X109.2920 Y45.5884 Z-2.0000 F300.0000 S0.0
G1 X109.1662 Y45.4831 Z-2.0000 F300.0000 S0.0
G1 X109.0638 Y45.3650 Z-2.0000 F300.0000 S0.0
G1 X108.9875 Y45.2351 Z-2.0000 F300.0000 S0.0
G1 X108.9399 Y45.0942 Z-2.0000 F300.0000 S0.0
G1 X108.9234 Y44.9433 Z-2.0000 F300.0000 S0.0
G1 X108.9357 Y44.7719 Z-2.0000 F300.0000 S0.0
G1 X108.9672 Y44.5953 Z-2.0000 F300.0000 S0.0
G1 X109.0104 Y44.3994 Z-2.0000 F300.0000 S0.0
G1 X109.0574 Y44.1700 Z-2.0000 F300.0000 S0.0
G1 X109.1005 Y43.8929 Z-2.0000 F300.0000 S0.0
G1 X109.1321 Y43.5541 Z-2.0000 F300.0000 S0.0
G1 X109.1443 Y43.1392 Z-2.0000 F300.0000 S0.0
G1 X109.1443 Y25.2084 Z-2.0000 F300.0000 S0.0
G1 X109.1715 Y24.7536 Z-2.0000 F300.0000 S0.0
G1 X109.2493 Y24.3553 Z-2.0000 F300.0000 S0.0
G1 X109.3722 Y24.0102 Z-2.0000 F300.0000 S0.0
G1 X109.5345 Y23.7147 Z-2.0000 F300.0000 S0.0
G1 X109.7307 Y23.4652 Z-2.0000 F300.0000 S0.0
G1 X109.9552 Y23.2582 Z-2.0000 F300.0000 S0.0
G1 X110.2024 Y23.0902 Z-2.0000 F300.0000 S0.0
G1 X110.4668 Y22.9578 Z-2.0000 F300.0000 S0.0
G1 X110.7427 Y22.8573 Z-2.0000 F300.0000 S0.0
G1 X111.0247 Y22.7853 Z-2.0000 F300.0000 S0.0
G1 X111.3070 Y22.7382 Z-2.0000 F300.0000 S0.0
G1 X111.5841 Y22.7125 Z-2.0000 F300.0000 S0.0
G1 X111.8505 Y22.7047 Z-2.0000 F300.0000 S0.0
G1 X112.2033 Y22.7281 Z-2.0000 F300.0000 S0.0
G1 X112.5001 Y22.7955 Z-2.0000 F300.0000 S0.0
G1 X112.7458 Y22.9022 Z-2.0000 F300.0000 S0.0
G1 X112.9451 Y23.0439 Z-2.0000 F300.0000 S0.0
G1 X113.1030 Y23.2161 Z-2.0000 F300.0000 S0.0
G1 X113.2243 Y23.4142 Z-2.0000 F300.0000 S0.0
G1 X113.3137 Y23.6339 Z-2.0000 F300.0000 S0.0
G1 X113.3761 Y23.8706 Z-2.0000 F300.0000 S0.0
G1 X113.4163 Y24.1199 Z-2.0000 F300.0000 S0.0
G1 X113.4392 Y24.3772 Z-2.0000 F300.0000 S0.0
G1 X113.4496 Y24.6382 Z-2.0000 F300.0000 S0.0
G1 X113.4523 Y24.8984 Z-2.0000 F300.0000 S0.0
G1 X113.4521 Y25.1532 Z-2.0000 F300.0000 S0.0
G1 X113.4521 Y33.4006 Z-2.0000 F300.0000 S0.0
G1 X113.6634 Y34.8989 Z-2.0000 F300.0000 S0.0
G1 X114.0509 Y36.3826 Z-2.0000 F300.0000 S0.0
G1 X114.5772 Y37.8086 Z-2.0000 F300.0000 S0.0
G1 X115.2043 Y39.1337 Z-2.0000 F300.0000 S0.0
G1 X115.8946 Y40.3147 Z-2.0000 F300.0000 S0.0
G1 X116.6104 Y41.3085 Z-2.0000 F300.0000 S0.0
G1 X117.3139 Y42.0717 Z-2.0000 F300.0000 S0.0
G1 X117.9674 Y42.5614 Z-2.0000 F300.0000 S0.0
G1 X118.5331 Y42.7342 Z-2.0000 F300.0000 S0.0
G1 X118.7552 Y42.7042 Z-2.0000 F300.0000 S0.0
G1 X118.9446 Y42.6170 Z-2.0000 F300.0000 S0.0
G1 X119.1038 Y42.4767 Z-2.0000 F300.0000 S0.0
G1 X119.2354 Y42.2876 Z-2.0000 F300.0000 S0.0
G1 X119.3420 Y42.0537 Z-2.0000 F300.0000 S0.0
G1 X119.4260 Y41.7792 Z-2.0000 F300.0000 S0.0
G1 X119.4901 Y41.4683 Z-2.0000 F300.0000 S0.0
G1 X119.5368 Y41.1250 Z-2.0000 F300.0000 S0.0
G1 X119.5687 Y40.7537 Z-2.0000 F300.0000 S0.0
G1 X119.5883 Y40.3584 Z-2.0000 F300.0000 S0.0
G1 X119.5982 Y39.9433 Z-2.0000 F300.0000 S0.0
G1 X119.6009 Y39.5125 Z-2.0000 F300.0000 S0.0
G1 X119.6009 Y25.2084 Z-2.0000 F300.0000 S0.0
G1 X119.6281 Y24.7536 Z-2.0000 F300.0000 S0.0
G1 X119.7059 Y24.3553 Z-2.0000 F300.0000 S0.0
G1 X119.8289 Y24.0102 Z-2.0000 F300.0000 S0.0
G1 X119.9916 Y23.7147 Z-2.0000 F300.0000 S0.0
G1 X120.1883 Y23.4652 Z-2.0000 F300.0000 S0.0
G1 X120.4135 Y23.2582 Z-2.0000 F300.0000 S0.0
G1 X120.6618 Y23.0902 Z-2.0000 F300.0000 S0.0
G1 X120.9276 Y22.9578 Z-2.0000 F300.0000 S0.0
G1 X121.2054 Y22.8573 Z-2.0000 F300.0000 S0.0
G1 X121.4896 Y22.7853 Z-2.0000 F300.0000 S0.0
G1 X121.7747 Y22.7382 Z-2.0000 F300.0000 S0.0
G1 X122.0552 Y22.7125 Z-2.0000 F300.0000 S0.0
G1 X122.3255 Y22.7047 Z-2.0000 F300.0000 S0.0
G1 X122.6743 Y22.7281 Z-2.0000 F300.0000 S0.0
G1 X122.9678 Y22.7955 Z-2.0000 F300.0000 S0.0
G1 X123.2107 Y22.9022 Z-2.0000 F300.0000 S0.0
G1 X123.4078 Y23.0439 Z-2.0000 F300.0000 S0.0
G1 X123.5639 Y23.2161 Z-2.0000 F300.0000 S0.0
G1 X123.6837 Y23.4142 Z-2.0000 F300.0000 S0.0
G1 X123.7720 Y23.6339 Z-2.0000 F300.0000 S0.0
G1 X123.8337 Y23.8706 Z-2.0000 F300.0000 S0.0
G1 X123.8734 Y24.1199 Z-2.0000 F300.0000 S0.0
G1 X123.8960 Y24.3772 Z-2.0000 F300.0000 S0.0
G1 X123.9062 Y24.6382 Z-2.0000 F300.0000 S0.0
G1 X123.9089 Y24.8984 Z-2.0000 F300.0000 S0.0
G1 X123.9087 Y25.1532 Z-2.0000 F300.0000 S0.0
G1 X123.9087 Y33.4006 Z-2.0000 F300.0000 S0.0
G1 X124.1199 Y34.8989 Z-2.0000 F300.0000 S0.0
G1 X124.5075 Y36.3826 Z-2.0000 F300.0000 S0.0
G1 X125.0337 Y37.8086 Z-2.0000 F300.0000 S0.0
G1 X125.6608 Y39.1337 Z-2.0000 F300.0000 S0.0
G1 X126.3512 Y40.3147 Z-2.0000 F300.0000 S0.0
G1 X127.0669 Y41.3085 Z-2.0000 F300.0000 S0.0
G1 X127.7704 Y42.0717 Z-2.0000 F300.0000 S0.0
G1 X128.4239 Y42.5614 Z-2.0000 F300.0000 S0.0
G1 X128.9897 Y42.7342 Z-2.0000 F300.0000 S0.0
G1 X129.2160 Y42.7042 Z-2.0000 F300.0000 S0.0
G1 X129.4089 Y42.6170 Z-2.0000 F300.0000 S0.0
G1 X129.5710 Y42.4767 Z-2.0000 F300.0000 S0.0
G1 X129.7049 Y42.2876 Z-2.0000 F300.0000 S0.0
G1 X129.8133 Y42.0537 Z-2.0000 F300.0000 S0.0
G1 X129.8987 Y41.7792 Z-2.0000 F300.0000 S0.0
G1 X129.9637 Y41.4683 Z-2.0000 F300.0000 S0.0
G1 X130.0111 Y41.1250 Z-2.0000 F300.0000 S0.0
G1 X130.0433 Y40.7537 Z-2.0000 F300.0000 S0.0
G1 X130.0631 Y40.3584 Z-2.0000 F300.0000 S0.0
G1 X130.0731 Y39.9433 Z-2.0000 F300.0000 S0.0
G1 X130.0758 Y39.5125 Z-2.0000 F300.0000 S0.0
G1 X130.0758 Y28.0250 Z-2.0000 F300.0000 S0.0
G1 X130.1188 Y27.2538 Z-2.0000 F300.0000 S0.0
G1 X130.2463 Y26.5127 Z-2.0000 F300.0000 S0.0
G1 X130.4560 Y25.8109 Z-2.0000 F300.0000 S0.0
G1 X130.7457 Y25.1574 Z-2.0000 F300.0000 S0.0
G1 X131.1132 Y24.5615 Z-2.0000 F300.0000 S0.0
G1 X131.5562 Y24.0322 Z-2.0000 F300.0000 S0.0
G1 X132.0724 Y23.5786 Z-2.0000 F300.0000 S0.0
G1 X132.6598 Y23.2100 Z-2.0000 F300.0000 S0.0
G1 X133.3159 Y22.9354 Z-2.0000 F300.0000 S0.0
G1 X134.0385 Y22.7639 Z-2.0000 F300.0000 S0.0
G1 X134.8255 Y22.7047 Z-2.0000 F300.0000 S0.0
G1 X136.3493 Y22.8847 Z-2.0000 F300.0000 S0.0
G1 X137.6888 Y23.3893 Z-2.0000 F300.0000 S0.0
G1 X138.8558 Y24.1652 Z-2.0000 F300.0000 S0.0
G1 X139.8623 Y25.1593 Z-2.0000 F300.0000 S0.0
G1 X140.7204 Y26.3184 Z-2.0000 F300.0000 S0.0
G1 X141.4420 Y27.5893 Z-2.0000 F300.0000 S0.0
G1 X142.0390 Y28.9189 Z-2.0000 F300.0000 S0.0
G1 X142.5234 Y30.2539 Z-2.0000 F300.0000 S0.0
G1 X142.9072 Y31.5412 Z-2.0000 F300.0000 S0.0
G0 Z5.0000
G0 X157.7931 Y40.7644 Z5.0000
G0 X157.7931 Y40.7644 Z3.0000
G1 X157.7931 Y40.7644 Z-2.0000 F300.0000 S0.0
G1 X157.7532 Y41.5882 Z-2.0000 F300.0000 S0.0
G1 X157.6352 Y42.3633 Z-2.0000 F300.0000 S0.0
G1 X157.4416 Y43.0851 Z-2.0000 F300.0000 S0.0
G1 X157.1747 Y43.7494 Z-2.0000 F300.0000 S0.0
G1 X156.8369 Y44.3519 Z-2.0000 F300.0000 S0.0
G1 X156.4308 Y44.8881 Z-2.0000 F300.0000 S0.0
G1 X155.9587 Y45.3537 Z-2.0000 F300.0000 S0.0
G1 X155.4230 Y45.7444 Z-2.0000 F300.0000 S0.0
G1 X154.8263 Y46.0559 Z-2.0000 F300.0000 S0.0
G1 X154.1709 Y46.2838 Z-2.0000 F300.0000 S0.0
G1 X153.4592 Y46.4237 Z-2.0000 F300.0000 S0.0
G1 X152.6937 Y46.4713 Z-2.0000 F300.0000 S0.0
G1 X151.5129 Y46.3407 Z-2.0000 F300.0000 S0.0
G1 X150.3532 Y45.9596 Z-2.0000 F300.0000 S0.0
G1 X149.2338 Y45.3442 Z-2.0000 F300.0000 S0.0
G1 X148.1740 Y44.5106 Z-2.0000 F300.0000 S0.0
G1 X147.1931 Y43.4747 Z-2.0000 F300.0000 S0.0
G1 X146.3103 Y42.2529 Z-2.0000 F300.0000 S0.0
G1 X145.5448 Y40.8610 Z-2.0000 F300.0000 S0.0
G1 X144.9158 Y39.3153 Z-2.0000 F300.0000 S0.0
G1 X144.4428 Y37.6319 Z-2.0000 F300.0000 S0.0
G1 X144.1448 Y35.8267 Z-2.0000 F300.0000 S0.0
G1 X144.0412 Y33.9161 Z-2.0000 F300.0000 S0.0
G1 X144.1583 Y32.0616 Z-2.0000 F300.0000 S0.0
G1 X144.4958 Y30.3577 Z-2.0000 F300.0000 S0.0
G1 X145.0331 Y28.8099 Z-2.0000 F300.0000 S0.0
G1 X145.7497 Y27.4238 Z-2.0000 F300.0000 S0.0
G1 X146.6249 Y26.2046 Z-2.0000 F300.0000 S0.0
G1 X147.6383 Y25.1580 Z-2.0000 F300.0000 S0.0
G1 X148.7691 Y24.2894 Z-2.0000 F300.0000 S0.0
G1 X149.9969 Y23.6043 Z-2.0000 F300.0000 S0.0
G1 X151.3010 Y23.1082 Z-2.0000 F300.0000 S0.0
G1 X152.6609 Y22.8065 Z-2.0000 F300.0000 S0.0
G1 X154.0560 Y22.7047 Z-2.0000 F300.0000 S0.0
G1 X156.1779 Y22.8668 Z-2.0000 F300.0000 S0.0
G1 X158.0177 Y23.3224 Z-2.0000 F300.0000 S0.0
G1 X159.5944 Y24.0252 Z-2.0000 F300.0000 S0.0
G1 X160.9271 Y24.9292 Z-2.0000 F300.0000 S0.0
G1 X162.0349 Y25.9883 Z-2.0000 F300.0000 S0.0
G1 X162.9370 Y27.1562 Z-2.0000 F300.0000 S0.0
G1 X163.6523 Y28.3868 Z-2.0000 F300.0000 S0.0
G1 X164.1999 Y29.6341 Z-2.0000 F300.0000 S0.0
G1 X164.5990 Y30.8518 Z-2.0000 F300.0000 S0.0
G1 X164.8687 Y31.9938 Z-2.0000 F300.0000 S0.0
G1 X165.0280 Y33.0140 Z-2.0000 F300.0000 S0.0
G1 X165.0386 Y33.2462 Z-2.0000 F300.0000 S0.0
G1 X165.0191 Y33.4694 Z-2.0000 F300.0000 S0.0
G1 X164.9716 Y33.6824 Z-2.0000 F300.0000 S0.0
G1 X164.8986 Y33.8841 Z-2.0000 F300.0000 S0.0
G1 X164.8024 Y34.0735 Z-2.0000 F300.0000 S0.0
G1 X164.6852 Y34.2494 Z-2.0000 F300.0000 S0.0
G1 X164.5494 Y34.4107 Z-2.0000 F300.0000 S0.0
G1 X164.3973 Y34.5564 Z-2.0000 F300.0000 S0.0
G1 X164.2313 Y34.6853 Z-2.0000 F300.0000 S0.0
G1 X164.0536 Y34.7963 Z-2.0000 F300.0000 S0.0
G1 X163.8666 Y34.8884 Z-2.0000 F300.0000 S0.0
G1 X163.6726 Y34.9603 Z-2.0000 F300.0000 S0.0
G1 X163.4738 Y35.0111 Z-2.0000 F300.0000 S0.0
G1 X163.2727 Y35.0395 Z-2.0000 F300.0000 S0.0
G1 X163.0716 Y35.0446 Z-2.0000 F300.0000 S0.0
G1 X162.8727 Y35.0252 Z-2.0000 F300.0000 S0.0
G1 X162.6784 Y34.9802 Z-2.0000 F300.0000 S0.0
G1 X162.4910 Y34.9085 Z-2.0000 F300.0000 S0.0
G1 X162.3128 Y34.8090 Z-2.0000 F300.0000 S0.0
G1 X162.1461 Y34.6806 Z-2.0000 F300.0000 S0.0
G1 X161.9933 Y34.5221 Z-2.0000 F300.0000 S0.0
G1 X161.8567 Y34.3326 Z-2.0000 F300.0000 S0.0
G1 X161.7385 Y34.1108 Z-2.0000 F300.0000 S0.0
G1 X161.6412 Y33.8558 Z-2.0000 F300.0000 S0.0
G1 X161.5670 Y33.5663 Z-2.0000 F300.0000 S0.0
G1 X161.3320 Y32.5302 Z-2.0000 F300.0000 S0.0
G1 X161.0189 Y31.5034 Z-2.0000 F300.0000 S0.0
G1 X160.6191 Y30.5092 Z-2.0000 F300.0000 S0.0
G1 X160.1243 Y29.5713 Z-2.0000 F300.0000 S0.0
G1 X159.5259 Y28.7131 Z-2.0000 F300.0000 S0.0
G1 X158.8153 Y27.9582 Z-2.0000 F300.0000 S0.0
G1 X157.9841 Y27.3301 Z-2.0000 F300.0000 S0.0
G1 X157.0239 Y26.8523 Z-2.0000 F300.0000 S0.0
G1 X155.9259 Y26.5484 Z-2.0000 F300.0000 S0.0
G1 X154.6819 Y26.4418 Z-2.0000 F300.0000 S0.0
G1 X153.7516 Y26.4988 Z-2.0000 F300.0000 S0.0
G1 X152.9207 Y26.6628 Z-2.0000 F300.0000 S0.0
G1 X152.1837 Y26.9239 Z-2.0000 F300.0000 S0.0
G1 X151.5348 Y27.2717 Z-2.0000 F300.0000 S0.0
G1 X150.9684 Y27.6963 Z-2.0000 F300.0000 S0.0
G1 X150.4791 Y28.1873 Z-2.0000 F300.0000 S0.0
G1 X150.0611 Y28.7347 Z-2.0000 F300.0000 S0.0
G1 X149.7089 Y29.3283 Z-2.0000 F300.0000 S0.0
G1 X149.4168 Y29.9580 Z-2.0000 F300.0000 S0.0
G1 X151.1489 Y30.6220 Z-2.0000 F300.0000 S0.0
G1 X152.6863 Y31.4989 Z-2.0000 F300.0000 S0.0
G1 X154.0266 Y32.5551 Z-2.0000 F300.0000 S0.0
G1 X155.1674 Y33.7568 Z-2.0000 F300.0000 S0.0
G1 X156.1062 Y35.0701 Z-2.0000 F300.0000 S0.0
G1 X156.8406 Y36.4613 Z-2.0000 F300.0000 S0.0
G1 X157.3681 Y37.8966 Z-2.0000 F300.0000 S0.0
G1 X157.6864 Y39.3422 Z-2.0000 F300.0000 S0.0
G1 X157.7931 Y40.7644 Z-2.0000 F300.0000 S0.0
G0 Z5.0000
G0 X148.6804 Y34.0817 Z5.0000
G0 X148.6804 Y34.0817 Z3.0000
G1 X148.6804 Y34.0817 Z-2.0000 F300.0000 S0.0
G1 X148.6857 Y35.1330 Z-2.0000 F300.0000 S0.0
G1 X148.7920 Y36.4269 Z-2.0000 F300.0000 S0.0
G1 X149.0105 Y37.8456 Z-2.0000 F300.0000 S0.0
G1 X149.3524 Y39.2709 Z-2.0000 F300.0000 S0.0
G1 X149.8288 Y40.5849 Z-2.0000 F300.0000 S0.0
G1 X150.4512 Y41.6696 Z-2.0000 F300.0000 S0.0
G1 X151.2305 Y42.4069 Z-2.0000 F300.0000 S0.0
G1 X152.1782 Y42.6789 Z-2.0000 F300.0000 S0.0
G1 X152.3564 Y42.6637 Z-2.0000 F300.0000 S0.0
G1 X152.5225 Y42.6186 Z-2.0000 F300.0000 S0.0
G1 X152.6758 Y42.5443 Z-2.0000 F300.0000 S0.0
G1 X152.8157 Y42.4417 Z-2.0000 F300.0000 S0.0
G1 X152.9415 Y42.3114 Z-2.0000 F300.0000 S0.0
G1 X153.0527 Y42.1543 Z-2.0000 F300.0000 S0.0
G1 X153.1484 Y41.9711 Z-2.0000 F300.0000 S0.0
G1 X153.2282 Y41.7626 Z-2.0000 F300.0000 S0.0
G1 X153.2914 Y41.5295 Z-2.0000 F300.0000 S0.0
G1 X153.3373 Y41.2727 Z-2.0000 F300.0000 S0.0
G1 X153.3653 Y40.9928 Z-2.0000 F300.0000 S0.0
G1 X153.3748 Y40.6907 Z-2.0000 F300.0000 S0.0
G1 X153.2918 Y39.4436 Z-2.0000 F300.0000 S0.0
G1 X153.0486 Y38.2520 Z-2.0000 F300.0000 S0.0
G1 X152.6545 Y37.1304 Z-2.0000 F300.0000 S0.0
G1 X152.1184 Y36.0930 Z-2.0000 F300.0000 S0.0
G1 X151.4494 Y35.1539 Z-2.0000 F300.0000 S0.0
G1 X150.6565 Y34.3274 Z-2.0000 F300.0000 S0.0
G1 X149.7490 Y33.6278 Z-2.0000 F300.0000 S0.0
G1 X148.7356 Y33.0692 Z-2.0000 F300.0000 S0.0
G1 X148.6804 Y34.0817 Z-2.0000 F300.0000 S0.0
G0 Z5.0000
G0 X178.6068 Y22.7047 Z5.0000
G0 X178.6068 Y22.7047 Z3.0000
G1 X178.6068 Y22.7047 Z-2.0000 F300.0000 S0.0
G1 X180.1306 Y22.8847 Z-2.0000 F300.0000 S0.0
G1 X181.4701 Y23.3893 Z-2.0000 F300.0000 S0.0
G1 X182.6371 Y24.1652 Z-2.0000 F300.0000 S0.0
G1 X183.6436 Y25.1593 Z-2.0000 F300.0000 S0.0
G1 X184.5017 Y26.3184 Z-2.0000 F300.0000 S0.0
G1 X185.2233 Y27.5893 Z-2.0000 F300.0000 S0.0
G1 X185.8203 Y28.9189 Z-2.0000 F300.0000 S0.0
G1 X186.3047 Y30.2539 Z-2.0000 F300.0000 S0.0
G1 X186.6885 Y31.5412 Z-2.0000 F300.0000 S0.0
G1 X186.7028 Y31.6537 Z-2.0000 F300.0000 S0.0
G1 X186.7294 Y31.7785 Z-2.0000 F300.0000 S0.0
G1 X186.7437 Y31.9278 Z-2.0000 F300.0000 S0.0
G1 X186.7059 Y32.2934 Z-2.0000 F300.0000 S0.0
G1 X186.5991 Y32.6586 Z-2.0000 F300.0000 S0.0
G1 X186.4335 Y33.0119 Z-2.0000 F300.0000 S0.0
G1 X186.2193 Y33.3421 Z-2.0000 F300.0000 S0.0
G1 X185.9666 Y33.6377 Z-2.0000 F300.0000 S0.0
G1 X185.6855 Y33.8874 Z-2.0000 F300.0000 S0.0
G1 X185.3863 Y34.0798 Z-2.0000 F300.0000 S0.0
G1 X185.0791 Y34.2036 Z-2.0000 F300.0000 S0.0
G1 X184.7739 Y34.2474 Z-2.0000 F300.0000 S0.0
G1 X184.6186 Y34.2349 Z-2.0000 F300.0000 S0.0
G1 X184.4647 Y34.1969 Z-2.0000 F300.0000 S0.0
G1 X184.3141 Y34.1324 Z-2.0000 F300.0000 S0.0
G1 X184.1682 Y34.0405 Z-2.0000 F300.0000 S0.0
G1 X184.0286 Y33.9203 Z-2.0000 F300.0000 S0.0
G1 X183.8968 Y33.7709 Z-2.0000 F300.0000 S0.0
G1 X183.7746 Y33.5914 Z-2.0000 F300.0000 S0.0
G1 X183.6633 Y33.3808 Z-2.0000 F300.0000 S0.0
G1 X183.5647 Y33.1383 Z-2.0000 F300.0000 S0.0
G1 X183.4803 Y32.8629 Z-2.0000 F300.0000 S0.0
G1 X183.4116 Y32.5538 Z-2.0000 F300.0000 S0.0
G1 X183.2218 Y31.6896 Z-2.0000 F300.0000 S0.0
G1 X182.9894 Y30.7801 Z-2.0000 F300.0000 S0.0
G1 X182.7046 Y29.8646 Z-2.0000 F300.0000 S0.0
G1 X182.3575 Y28.9823 Z-2.0000 F300.0000 S0.0
G1 X181.9382 Y28.1724 Z-2.0000 F300.0000 S0.0
G1 X181.4371 Y27.4741 Z-2.0000 F300.0000 S0.0
G1 X180.8440 Y26.9268 Z-2.0000 F300.0000 S0.0
G1 X180.1494 Y26.5696 Z-2.0000 F300.0000 S0.0
G1 X179.3432 Y26.4418 Z-2.0000 F300.0000 S0.0
G1 X178.9460 Y26.4773 Z-2.0000 F300.0000 S0.0
G1 X178.5879 Y26.5797 Z-2.0000 F300.0000 S0.0
G1 X178.2685 Y26.7428 Z-2.0000 F300.0000 S0.0
G1 X177.9876 Y26.9606 Z-2.0000 F300.0000 S0.0
G1 X177.7450 Y27.2268 Z-2.0000 F300.0000 S0.0
G1 X177.5404 Y27.5353 Z-2.0000 F300.0000 S0.0
G1 X177.3736 Y27.8800 Z-2.0000 F300.0000 S0.0
G1 X177.2442 Y28.2547 Z-2.0000 F300.0000 S0.0
G1 X177.1522 Y28.6534 Z-2.0000 F300.0000 S0.0
G1 X177.0971 Y29.0698 Z-2.0000 F300.0000 S0.0
G1 X177.0788 Y29.4978 Z-2.0000 F300.0000 S0.0
G1 X177.1880 Y31.6518 Z-2.0000 F300.0000 S0.0
G1 X177.4757 Y33.8200 Z-2.0000 F300.0000 S0.0
G1 X177.8826 Y35.9200 Z-2.0000 F300.0000 S0.0
G1 X178.3490 Y37.8695 Z-2.0000 F300.0000 S0.0
G1 X178.8155 Y39.5859 Z-2.0000 F300.0000 S0.0
G1 X179.2223 Y40.9870 Z-2.0000 F300.0000 S0.0
G1 X179.5101 Y41.9902 Z-2.0000 F300.0000 S0.0
G1 X179.6193 Y42.5133 Z-2.0000 F300.0000 S0.0
G1 X179.5936 Y43.0193 Z-2.0000 F300.0000 S0.0
G1 X179.3828 Y43.5517 Z-2.0000 F300.0000 S0.0
G1 X179.0349 Y44.0814 Z-2.0000 F300.0000 S0.0
G1 X178.5976 Y44.5797 Z-2.0000 F300.0000 S0.0
G1 X178.1189 Y45.0176 Z-2.0000 F300.0000 S0.0
G1 X177.6466 Y45.3661 Z-2.0000 F300.0000 S0.0
G1 X177.2287 Y45.5965 Z-2.0000 F300.0000 S0.0
G1 X176.9131 Y45.6797 Z-2.0000 F300.0000 S0.0
G1 X173.9676 Y45.6797 Z-2.0000 F300.0000 S0.0
G1 X173.7756 Y45.6800 Z-2.0000 F300.0000 S0.0
G1 X173.5730 Y45.6821 Z-2.0000 F300.0000 S0.0
G1 X173.3492 Y45.6879 Z-2.0000 F300.0000 S0.0
G1 X173.0935 Y45.6991 Z-2.0000 F300.0000 S0.0
G1 X172.7955 Y45.7176 Z-2.0000 F300.0000 S0.0
G1 X172.4444 Y45.7451 Z-2.0000 F300.0000 S0.0
G1 X172.0297 Y45.7836 Z-2.0000 F300.0000 S0.0
G1 X171.5407 Y45.8348 Z-2.0000 F300.0000 S0.0
G1 X170.9669 Y45.9006 Z-2.0000 F300.0000 S0.0
G1 X170.7515 Y46.5483 Z-2.0000 F300.0000 S0.0
G1 X170.4859 Y47.1034 Z-2.0000 F300.0000 S0.0
G1 X170.1769 Y47.5717 Z-2.0000 F300.0000 S0.0
G1 X169.8317 Y47.9589 Z-2.0000 F300.0000 S0.0
G1 X169.4573 Y48.2708 Z-2.0000 F300.0000 S0.0
G1 X169.0608 Y48.5131 Z-2.0000 F300.0000 S0.0
G1 X168.6493 Y48.6916 Z-2.0000 F300.0000 S0.0
G1 X168.2299 Y48.8119 Z-2.0000 F300.0000 S0.0
G1 X167.8096 Y48.8799 Z-2.0000 F300.0000 S0.0
G1 X167.3954 Y48.9013 Z-2.0000 F300.0000 S0.0
G1 X167.0020 Y48.8766 Z-2.0000 F300.0000 S0.0
G1 X166.6189 Y48.8036 Z-2.0000 F300.0000 S0.0
G1 X166.2518 Y48.6844 Z-2.0000 F300.0000 S0.0
G1 X165.9065 Y48.5209 Z-2.0000 F300.0000 S0.0
G1 X165.5886 Y48.3152 Z-2.0000 F300.0000 S0.0
G1 X165.3039 Y48.0693 Z-2.0000 F300.0000 S0.0
G1 X165.0581 Y47.7851 Z-2.0000 F300.0000 S0.0
G1 X164.8570 Y47.4646 Z-2.0000 F300.0000 S0.0
G1 X164.7063 Y47.1099 Z-2.0000 F300.0000 S0.0
G1 X164.6116 Y46.7229 Z-2.0000 F300.0000 S0.0
G1 X164.5788 Y46.3056 Z-2.0000 F300.0000 S0.0
G1 X164.6251 Y45.7118 Z-2.0000 F300.0000 S0.0
G1 X164.7591 Y45.1590 Z-2.0000 F300.0000 S0.0
G1 X164.9739 Y44.6468 Z-2.0000 F300.0000 S0.0
G1 X165.2622 Y44.1747 Z-2.0000 F300.0000 S0.0
G1 X165.6170 Y43.7423 Z-2.0000 F300.0000 S0.0
G1 X166.0311 Y43.3492 Z-2.0000 F300.0000 S0.0
G1 X166.4974 Y42.9948 Z-2.0000 F300.0000 S0.0
G1 X167.0088 Y42.6789 Z-2.0000 F300.0000 S0.0
G1 X166.7718 Y37.5197 Z-2.0000 F300.0000 S0.0
G1 X166.1068 Y32.8299 Z-2.0000 F300.0000 S0.0
G1 X166.0600 Y32.5902 Z-2.0000 F300.0000 S0.0
G1 X166.0467 Y32.3512 Z-2.0000 F300.0000 S0.0
G1 X166.0646 Y32.1148 Z-2.0000 F300.0000 S0.0
G1 X166.1112 Y31.8829 Z-2.0000 F300.0000 S0.0
G1 X166.1840 Y31.6576 Z-2.0000 F300.0000 S0.0
G1 X166.2805 Y31.4408 Z-2.0000 F300.0000 S0.0
G1 X166.3983 Y31.2346 Z-2.0000 F300.0000 S0.0
G1 X166.5350 Y31.0408 Z-2.0000 F300.0000 S0.0
G1 X166.6880 Y30.8614 Z-2.0000 F300.0000 S0.0
G1 X166.8549 Y30.6985 Z-2.0000 F300.0000 S0.0
G1 X167.0332 Y30.5539 Z-2.0000 F300.0000 S0.0
G1 X167.2205 Y30.4298 Z-2.0000 F300.0000 S0.0
G1 X167.4144 Y30.3279 Z-2.0000 F300.0000 S0.0
G1 X167.6123 Y30.2504 Z-2.0000 F300.0000 S0.0
G1 X167.8118 Y30.1992 Z-2.0000 F300.0000 S0.0
G1 X168.0104 Y30.1762 Z-2.0000 F300.0000 S0.0
G1 X168.2058 Y30.1835 Z-2.0000 F300.0000 S0.0
G1 X168.3953 Y30.2229 Z-2.0000 F300.0000 S0.0
G1 X168.5766 Y30.2966 Z-2.0000 F300.0000 S0.0
G1 X168.7472 Y30.4064 Z-2.0000 F300.0000 S0.0
G1 X168.9046 Y30.5544 Z-2.0000 F300.0000 S0.0
G1 X169.0464 Y30.7424 Z-2.0000 F300.0000 S0.0
G1 X169.1701 Y30.9725 Z-2.0000 F300.0000 S0.0
G1 X169.2732 Y31.2467 Z-2.0000 F300.0000 S0.0
G1 X170.0784 Y34.9218 Z-2.0000 F300.0000 S0.0
G1 X170.5237 Y38.7155 Z-2.0000 F300.0000 S0.0
G1 X170.6907 Y41.6664 Z-2.0000 F300.0000 S0.0
G1 X171.2982 Y41.6664 Z-2.0000 F300.0000 S0.0
G1 X175.6060 Y41.6664 Z-2.0000 F300.0000 S0.0
G1 X174.4019 Y38.1626 Z-2.0000 F300.0000 S0.0
G1 X173.5120 Y34.9401 Z-2.0000 F300.0000 S0.0
G1 X172.9603 Y31.9557 Z-2.0000 F300.0000 S0.0
G1 X172.7710 Y29.1664 Z-2.0000 F300.0000 S0.0
G1 X172.8255 Y28.0766 Z-2.0000 F300.0000 S0.0
G1 X172.9825 Y27.1061 Z-2.0000 F300.0000 S0.0
G1 X173.2318 Y26.2492 Z-2.0000 F300.0000 S0.0
G1 X173.5636 Y25.5004 Z-2.0000 F300.0000 S0.0
G1 X173.9678 Y24.8541 Z-2.0000 F300.0000 S0.0
G1 X174.4343 Y24.3048 Z-2.0000 F300.0000 S0.0
G1 X174.9533 Y23.8468 Z-2.0000 F300.0000 S0.0
G1 X175.5146 Y23.4746 Z-2.0000 F300.0000 S0.0
G1 X176.1083 Y23.1825 Z-2.0000 F300.0000 S0.0
G1 X176.7244 Y22.9651 Z-2.0000 F300.0000 S0.0
G1 X177.3528 Y22.8167 Z-2.0000 F300.0000 S0.0
G1 X177.9836 Y22.7318 Z-2.0000 F300.0000 S0.0
G1 X178.6068 Y22.7047 Z-2.0000 F300.0000 S0.0
G0 Z5.0000
G0 X234.9617 Y25.3741 Z5.0000
G0 X234.9617 Y25.3741 Z3.0000
G1 X234.9617 Y25.3741 Z-2.0000 F300.0000 S0.0
G1 X234.5158 Y25.6243 Z-2.0000 F300.0000 S0.0
G1 X234.0917 Y25.9234 Z-2.0000 F300.0000 S0.0
G1 X233.6976 Y26.2755 Z-2.0000 F300.0000 S0.0
G1 X233.3417 Y26.6843 Z-2.0000 F300.0000 S0.0
G1 X233.0321 Y27.1539 Z-2.0000 F300.0000 S0.0
G1 X232.7771 Y27.6882 Z-2.0000 F300.0000 S0.0
G1 X232.5848 Y28.2912 Z-2.0000 F300.0000 S0.0
G1 X232.4635 Y28.9667 Z-2.0000 F300.0000 S0.0
G1 X232.4212 Y29.7187 Z-2.0000 F300.0000 S0.0
G1 X232.4212 Y54.9028 Z-2.0000 F300.0000 S0.0
G1 X232.3576 Y56.3536 Z-2.0000 F300.0000 S0.0
G1 X232.1738 Y57.6592 Z-2.0000 F300.0000 S0.0
G1 X231.8803 Y58.8246 Z-2.0000 F300.0000 S0.0
G1 X231.4875 Y59.8550 Z-2.0000 F300.0000 S0.0
G1 X231.0061 Y60.7553 Z-2.0000 F300.0000 S0.0
G1 X230.4466 Y61.5306 Z-2.0000 F300.0000 S0.0
G1 X229.8193 Y62.1862 Z-2.0000 F300.0000 S0.0
G1 X229.1349 Y62.7269 Z-2.0000 F300.0000 S0.0
G1 X228.4038 Y63.1579 Z-2.0000 F300.0000 S0.0
G1 X227.6366 Y63.4843 Z-2.0000 F300.0000 S0.0
G1 X226.8437 Y63.7112 Z-2.0000 F300.0000 S0.0
G1 X226.0357 Y63.8436 Z-2.0000 F300.0000 S0.0
G1 X225.2231 Y63.8866 Z-2.0000 F300.0000 S0.0
G1 X224.7778 Y63.8730 Z-2.0000 F300.0000 S0.0
G1 X224.2561 Y63.8193 Z-2.0000 F300.0000 S0.0
G1 X223.6782 Y63.7060 Z-2.0000 F300.0000 S0.0
G1 X223.0646 Y63.5138 Z-2.0000 F300.0000 S0.0
G1 X222.4355 Y63.2232 Z-2.0000 F300.0000 S0.0
G1 X221.8111 Y62.8148 Z-2.0000 F300.0000 S0.0
G1 X221.2117 Y62.2692 Z-2.0000 F300.0000 S0.0
G1 X220.6576 Y61.5670 Z-2.0000 F300.0000 S0.0
G1 X219.9656 Y62.2692 Z-2.0000 F300.0000 S0.0
G1 X219.2326 Y62.8148 Z-2.0000 F300.0000 S0.0
G1 X218.4849 Y63.2232 Z-2.0000 F300.0000 S0.0
G1 X217.7489 Y63.5138 Z-2.0000 F300.0000 S0.0
G1 X217.0508 Y63.7060 Z-2.0000 F300.0000 S0.0
G1 X216.4171 Y63.8193 Z-2.0000 F300.0000 S0.0
G1 X215.8739 Y63.8730 Z-2.0000 F300.0000 S0.0
G1 X215.4477 Y63.8866 Z-2.0000 F300.0000 S0.0
G1 X214.6635 Y63.8436 Z-2.0000 F300.0000 S0.0
G1 X213.8814 Y63.7112 Z-2.0000 F300.0000 S0.0
G1 X213.1119 Y63.4843 Z-2.0000 F300.0000 S0.0
G1 X212.3656 Y63.1579 Z-2.0000 F300.0000 S0.0
G1 X211.6530 Y62.7269 Z-2.0000 F300.0000 S0.0
G1 X210.9847 Y62.1862 Z-2.0000 F300.0000 S0.0
G1 X210.3713 Y61.5306 Z-2.0000 F300.0000 S0.0
G1 X209.8232 Y60.7553 Z-2.0000 F300.0000 S0.0
G1 X209.3512 Y59.8550 Z-2.0000 F300.0000 S0.0
G1 X208.9656 Y58.8246 Z-2.0000 F300.0000 S0.0
G1 X208.6772 Y57.6592 Z-2.0000 F300.0000 S0.0
G1 X208.4963 Y56.3536 Z-2.0000 F300.0000 S0.0
G1 X208.4337 Y54.9028 Z-2.0000 F300.0000 S0.0
G1 X208.4337 Y31.2467 Z-2.0000 F300.0000 S0.0
G1 X208.4177 Y30.3654 Z-2.0000 F300.0000 S0.0
G1 X208.3714 Y29.5778 Z-2.0000 F300.0000 S0.0
G1 X208.2977 Y28.8796 Z-2.0000 F300.0000 S0.0
G1 X208.1992 Y28.2664 Z-2.0000 F300.0000 S0.0
G1 X208.0787 Y27.7337 Z-2.0000 F300.0000 S0.0
G1 X207.9390 Y27.2772 Z-2.0000 F300.0000 S0.0
G1 X207.7828 Y26.8923 Z-2.0000 F300.0000 S0.0
G1 X207.6128 Y26.5748 Z-2.0000 F300.0000 S0.0
G1 X207.4319 Y26.3202 Z-2.0000 F300.0000 S0.0
G1 X207.2427 Y26.1240 Z-2.0000 F300.0000 S0.0
G1 X207.0480 Y25.9819 Z-2.0000 F300.0000 S0.0
G1 X206.8505 Y25.8895 Z-2.0000 F300.0000 S0.0
G1 X206.6154 Y25.8190 Z-2.0000 F300.0000 S0.0
G1 X206.3876 Y25.7781 Z-2.0000 F300.0000 S0.0
G1 X206.1714 Y25.7577 Z-2.0000 F300.0000 S0.0
G1 X205.9707 Y25.7487 Z-2.0000 F300.0000 S0.0
G1 X205.7897 Y25.7423 Z-2.0000 F300.0000 S0.0
G1 X205.6324 Y25.7292 Z-2.0000 F300.0000 S0.0
G1 X205.5030 Y25.7004 Z-2.0000 F300.0000 S0.0
G1 X205.4054 Y25.6468 Z-2.0000 F300.0000 S0.0
G1 X205.3439 Y25.5595 Z-2.0000 F300.0000 S0.0
G1 X205.3225 Y25.4293 Z-2.0000 F300.0000 S0.0
G1 X205.3350 Y25.1630 Z-2.0000 F300.0000 S0.0
G1 X205.3744 Y24.8759 Z-2.0000 F300.0000 S0.0
G1 X205.4442 Y24.5764 Z-2.0000 F300.0000 S0.0
G1 X205.5475 Y24.2729 Z-2.0000 F300.0000 S0.0
G1 X205.6877 Y23.9738 Z-2.0000 F300.0000 S0.0
G1 X205.8679 Y23.6873 Z-2.0000 F300.0000 S0.0
G1 X206.0915 Y23.4220 Z-2.0000 F300.0000 S0.0
G1 X206.3616 Y23.1861 Z-2.0000 F300.0000 S0.0
G1 X206.6817 Y22.9880 Z-2.0000 F300.0000 S0.0
G1 X207.0548 Y22.8362 Z-2.0000 F300.0000 S0.0
G1 X207.4843 Y22.7390 Z-2.0000 F300.0000 S0.0
G1 X207.9735 Y22.7047 Z-2.0000 F300.0000 S0.0
G1 X208.6783 Y22.7529 Z-2.0000 F300.0000 S0.0
G1 X209.3307 Y22.8964 Z-2.0000 F300.0000 S0.0
G1 X209.9301 Y23.1341 Z-2.0000 F300.0000 S0.0
G1 X210.4758 Y23.4646 Z-2.0000 F300.0000 S0.0
G1 X210.9670 Y23.8866 Z-2.0000 F300.0000 S0.0
G1 X211.4030 Y24.3988 Z-2.0000 F300.0000 S0.0
G1 X211.7832 Y24.9999 Z-2.0000 F300.0000 S0.0
G1 X212.1069 Y25.6886 Z-2.0000 F300.0000 S0.0
G1 X212.3732 Y26.4635 Z-2.0000 F300.0000 S0.0
G1 X212.5816 Y27.3234 Z-2.0000 F300.0000 S0.0
G1 X212.7314 Y28.2670 Z-2.0000 F300.0000 S0.0
G1 X212.8217 Y29.2929 Z-2.0000 F300.0000 S0.0
G1 X212.8520 Y30.3999 Z-2.0000 F300.0000 S0.0
G1 X212.8520 Y55.4551 Z-2.0000 F300.0000 S0.0
G1 X212.8718 Y56.1714 Z-2.0000 F300.0000 S0.0
G1 X212.9286 Y56.8036 Z-2.0000 F300.0000 S0.0
G1 X213.0184 Y57.3569 Z-2.0000 F300.0000 S0.0
G1 X213.1374 Y57.8365 Z-2.0000 F300.0000 S0.0
G1 X213.2817 Y58.2477 Z-2.0000 F300.0000 S0.0
G1 X213.4473 Y58.5958 Z-2.0000 F300.0000 S0.0
G1 X213.6303 Y58.8861 Z-2.0000 F300.0000 S0.0
G1 X213.8268 Y59.1237 Z-2.0000 F300.0000 S0.0
G1 X214.0330 Y59.3140 Z-2.0000 F300.0000 S0.0
G1 X214.2448 Y59.4621 Z-2.0000 F300.0000 S0.0
G1 X214.4584 Y59.5735 Z-2.0000 F300.0000 S0.0
G1 X214.6698 Y59.6533 Z-2.0000 F300.0000 S0.0
G1 X214.8752 Y59.7068 Z-2.0000 F300.0000 S0.0
G1 X215.0707 Y59.7392 Z-2.0000 F300.0000 S0.0
G1 X215.2523 Y59.7559 Z-2.0000 F300.0000 S0.0
G1 X215.4161 Y59.7620 Z-2.0000 F300.0000 S0.0
G1 X215.5582 Y59.7629 Z-2.0000 F300.0000 S0.0
G1 X215.7170 Y59.7620 Z-2.0000 F300.0000 S0.0
G1 X215.8923 Y59.7559 Z-2.0000 F300.0000 S0.0
G1 X216.0808 Y59.7392 Z-2.0000 F300.0000 S0.0
G1 X216.2790 Y59.7068 Z-2.0000 F300.0000 S0.0
G1 X216.4836 Y59.6533 Z-2.0000 F300.0000 S0.0
G1 X216.6912 Y59.5735 Z-2.0000 F300.0000 S0.0
G1 X216.8984 Y59.4621 Z-2.0000 F300.0000 S0.0
G1 X217.1019 Y59.3140 Z-2.0000 F300.0000 S0.0
G1 X217.2983 Y59.1237 Z-2.0000 F300.0000 S0.0
G1 X217.4843 Y58.8861 Z-2.0000 F300.0000 S0.0
G1 X217.6563 Y58.5958 Z-2.0000 F300.0000 S0.0
G1 X217.8112 Y58.2477 Z-2.0000 F300.0000 S0.0
G1 X217.9455 Y57.8365 Z-2.0000 F300.0000 S0.0
G1 X218.0558 Y57.3569 Z-2.0000 F300.0000 S0.0
G1 X218.1387 Y56.8036 Z-2.0000 F300.0000 S0.0
G1 X218.1910 Y56.1714 Z-2.0000 F300.0000 S0.0
G1 X218.2091 Y55.4551 Z-2.0000 F300.0000 S0.0
G1 X218.2091 Y23.7909 Z-2.0000 F300.0000 S0.0
G1 X218.2193 Y23.5744 Z-2.0000 F300.0000 S0.0
G1 X218.2490 Y23.3887 Z-2.0000 F300.0000 S0.0
G1 X218.2968 Y23.2316 Z-2.0000 F300.0000 S0.0
G1 X218.3613 Y23.1005 Z-2.0000 F300.0000 S0.0
G1 X218.4413 Y22.9933 Z-2.0000 F300.0000 S0.0
G1 X218.5352 Y22.9074 Z-2.0000 F300.0000 S0.0
G1 X218.6418 Y22.8405 Z-2.0000 F300.0000 S0.0
G1 X218.7596 Y22.7902 Z-2.0000 F300.0000 S0.0
G1 X218.8873 Y22.7542 Z-2.0000 F300.0000 S0.0
G1 X219.0236 Y22.7300 Z-2.0000 F300.0000 S0.0
G1 X219.1670 Y22.7154 Z-2.0000 F300.0000 S0.0
G1 X219.3163 Y22.7079 Z-2.0000 F300.0000 S0.0
G1 X219.4699 Y22.7051 Z-2.0000 F300.0000 S0.0
G1 X219.6267 Y22.7047 Z-2.0000 F300.0000 S0.0
G1 X220.1124 Y22.7326 Z-2.0000 F300.0000 S0.0
G1 X220.6119 Y22.8109 Z-2.0000 F300.0000 S0.0
G1 X221.1062 Y22.9311 Z-2.0000 F300.0000 S0.0
G1 X221.5765 Y23.0849 Z-2.0000 F300.0000 S0.0
G1 X222.0037 Y23.2641 Z-2.0000 F300.0000 S0.0
G1 X222.3690 Y23.4602 Z-2.0000 F300.0000 S0.0
G1 X222.6533 Y23.6649 Z-2.0000 F300.0000 S0.0
G1 X222.8378 Y23.8700 Z-2.0000 F300.0000 S0.0
G1 X222.9035 Y24.0670 Z-2.0000 F300.0000 S0.0
G1 X222.8962 Y24.1114 Z-2.0000 F300.0000 S0.0
G1 X222.8759 Y24.1596 Z-2.0000 F300.0000 S0.0
G1 X222.8453 Y24.2087 Z-2.0000 F300.0000 S0.0
G1 X222.8069 Y24.2557 Z-2.0000 F300.0000 S0.0
G1 X222.7633 Y24.2975 Z-2.0000 F300.0000 S0.0
G1 X222.7171 Y24.3311 Z-2.0000 F300.0000 S0.0
G1 X222.6710 Y24.3534 Z-2.0000 F300.0000 S0.0
G1 X222.6274 Y24.3616 Z-2.0000 F300.0000 S0.0
G1 X222.6274 Y54.9028 Z-2.0000 F300.0000 S0.0
G1 X222.6463 Y55.7110 Z-2.0000 F300.0000 S0.0
G1 X222.7006 Y56.4242 Z-2.0000 F300.0000 S0.0
G1 X222.7868 Y57.0484 Z-2.0000 F300.0000 S0.0
G1 X222.9014 Y57.5895 Z-2.0000 F300.0000 S0.0
G1 X223.0407 Y58.0535 Z-2.0000 F300.0000 S0.0
G1 X223.2012 Y58.4462 Z-2.0000 F300.0000 S0.0
G1 X223.3794 Y58.7737 Z-2.0000 F300.0000 S0.0
G1 X223.5718 Y59.0417 Z-2.0000 F300.0000 S0.0
G1 X223.7747 Y59.2564 Z-2.0000 F300.0000 S0.0
G1 X223.9846 Y59.4236 Z-2.0000 F300.0000 S0.0
G1 X224.1980 Y59.5492 Z-2.0000 F300.0000 S0.0
G1 X224.4112 Y59.6392 Z-2.0000 F300.0000 S0.0
G1 X224.6209 Y59.6996 Z-2.0000 F300.0000 S0.0
G1 X224.8233 Y59.7362 Z-2.0000 F300.0000 S0.0
G1 X225.0150 Y59.7550 Z-2.0000 F300.0000 S0.0
G1 X225.1924 Y59.7619 Z-2.0000 F300.0000 S0.0
G1 X225.3520 Y59.7629 Z-2.0000 F300.0000 S0.0
G1 X225.4935 Y59.7620 Z-2.0000 F300.0000 S0.0
G1 X225.6558 Y59.7559 Z-2.0000 F300.0000 S0.0
G1 X225.8349 Y59.7392 Z-2.0000 F300.0000 S0.0
G1 X226.0272 Y59.7068 Z-2.0000 F300.0000 S0.0
G1 X226.2288 Y59.6533 Z-2.0000 F300.0000 S0.0
G1 X226.4360 Y59.5735 Z-2.0000 F300.0000 S0.0
G1 X226.6450 Y59.4621 Z-2.0000 F300.0000 S0.0
G1 X226.8520 Y59.3140 Z-2.0000 F300.0000 S0.0
G1 X227.0533 Y59.1237 Z-2.0000 F300.0000 S0.0
G1 X227.2450 Y58.8861 Z-2.0000 F300.0000 S0.0
G1 X227.4234 Y58.5958 Z-2.0000 F300.0000 S0.0
G1 X227.5848 Y58.2477 Z-2.0000 F300.0000 S0.0
G1 X227.7252 Y57.8365 Z-2.0000 F300.0000 S0.0
G1 X227.8411 Y57.3569 Z-2.0000 F300.0000 S0.0
G1 X227.9285 Y56.8036 Z-2.0000 F300.0000 S0.0
G1 X227.9837 Y56.1714 Z-2.0000 F300.0000 S0.0
G1 X228.0029 Y55.4551 Z-2.0000 F300.0000 S0.0
G1 X228.0029 Y29.2769 Z-2.0000 F300.0000 S0.0
G1 X228.0406 Y28.2092 Z-2.0000 F300.0000 S0.0
G1 X228.1491 Y27.2419 Z-2.0000 F300.0000 S0.0
G1 X228.3219 Y26.3731 Z-2.0000 F300.0000 S0.0
G1 X228.5525 Y25.6011 Z-2.0000 F300.0000 S0.0
G1 X228.8342 Y24.9243 Z-2.0000 F300.0000 S0.0
G1 X229.1604 Y24.3409 Z-2.0000 F300.0000 S0.0
G1 X229.5247 Y23.8491 Z-2.0000 F300.0000 S0.0
G1 X229.9203 Y23.4472 Z-2.0000 F300.0000 S0.0
G1 X230.3407 Y23.1336 Z-2.0000 F300.0000 S0.0
G1 X230.7793 Y22.9064 Z-2.0000 F300.0000 S0.0
G1 X231.2295 Y22.7641 Z-2.0000 F300.0000 S0.0
G1 X231.6848 Y22.7047 Z-2.0000 F300.0000 S0.0
G1 X232.1313 Y22.7295 Z-2.0000 F300.0000 S0.0
G1 X232.5805 Y22.8223 Z-2.0000 F300.0000 S0.0
G1 X233.0230 Y22.9728 Z-2.0000 F300.0000 S0.0
G1 X233.4491 Y23.1707 Z-2.0000 F300.0000 S0.0
G1 X233.8491 Y23.4056 Z-2.0000 F300.0000 S0.0
G1 X234.2136 Y23.6671 Z-2.0000 F300.0000 S0.0
G1 X234.5329 Y23.9450 Z-2.0000 F300.0000 S0.0
G1 X234.7974 Y24.2287 Z-2.0000 F300.0000 S0.0
G1 X234.9975 Y24.5081 Z-2.0000 F300.0000 S0.0
G1 X235.1235 Y24.7727 Z-2.0000 F300.0000 S0.0
G1 X235.1660 Y25.0121 Z-2.0000 F300.0000 S0.0
G1 X235.1153 Y25.2160 Z-2.0000 F300.0000 S0.0
G1 X234.9617 Y25.3741 Z-2.0000 F300.0000 S0.0
G0 Z5.0000
G0 X258.5368 Y26.4418 Z5.0000
G0 X258.5368 Y26.4418 Z3.0000
G1 X258.5368 Y26.4418 Z-2.0000 F300.0000 S0.0
G1 X258.1893 Y26.4745 Z-2.0000 F300.0000 S0.0
G1 X257.8793 Y26.5681 Z-2.0000 F300.0000 S0.0
G1 X257.6057 Y26.7159 Z-2.0000 F300.0000 S0.0
G1 X257.3677 Y26.9114 Z-2.0000 F300.0000 S0.0
G1 X257.1645 Y27.1479 Z-2.0000 F300.0000 S0.0
G1 X256.9950 Y27.4188 Z-2.0000 F300.0000 S0.0
G1 X256.8584 Y27.7173 Z-2.0000 F300.0000 S0.0
G1 X256.7537 Y28.0370 Z-2.0000 F300.0000 S0.0
G1 X256.6801 Y28.3710 Z-2.0000 F300.0000 S0.0
G1 X256.6365 Y28.7129 Z-2.0000 F300.0000 S0.0
G1 X256.6222 Y29.0560 Z-2.0000 F300.0000 S0.0
G1 X256.6222 Y38.3711 Z-2.0000 F300.0000 S0.0
G1 X256.5980 Y38.7066 Z-2.0000 F300.0000 S0.0
G1 X256.5263 Y39.0296 Z-2.0000 F300.0000 S0.0
G1 X256.4088 Y39.3371 Z-2.0000 F300.0000 S0.0
G1 X256.2472 Y39.6257 Z-2.0000 F300.0000 S0.0
G1 X256.0432 Y39.8924 Z-2.0000 F300.0000 S0.0
G1 X255.7984 Y40.1338 Z-2.0000 F300.0000 S0.0
G1 X255.5145 Y40.3469 Z-2.0000 F300.0000 S0.0
G1 X255.1931 Y40.5284 Z-2.0000 F300.0000 S0.0
G1 X254.8359 Y40.6752 Z-2.0000 F300.0000 S0.0
G1 X254.4446 Y40.7840 Z-2.0000 F300.0000 S0.0
G1 X254.0209 Y40.8516 Z-2.0000 F300.0000 S0.0
G1 X253.5663 Y40.8748 Z-2.0000 F300.0000 S0.0
G1 X253.3535 Y40.8650 Z-2.0000 F300.0000 S0.0
G1 X253.1489 Y40.8361 Z-2.0000 F300.0000 S0.0
G1 X252.9548 Y40.7893 Z-2.0000 F300.0000 S0.0
G1 X252.7740 Y40.7257 Z-2.0000 F300.0000 S0.0
G1 X252.6089 Y40.6463 Z-2.0000 F300.0000 S0.0
G1 X252.4621 Y40.5522 Z-2.0000 F300.0000 S0.0
G1 X252.3363 Y40.4445 Z-2.0000 F300.0000 S0.0
G1 X252.2339 Y40.3242 Z-2.0000 F300.0000 S0.0
G1 X252.1576 Y40.1925 Z-2.0000 F300.0000 S0.0
G1 X252.1100 Y40.0505 Z-2.0000 F300.0000 S0.0
G1 X252.0935 Y39.8991 Z-2.0000 F300.0000 S0.0
G1 X252.1038 Y39.7551 Z-2.0000 F300.0000 S0.0
G1 X252.1309 Y39.6069 Z-2.0000 F300.0000 S0.0
G1 X252.1692 Y39.4448 Z-2.0000 F300.0000 S0.0
G1 X252.2132 Y39.2594 Z-2.0000 F300.0000 S0.0
G1 X252.2571 Y39.0412 Z-2.0000 F300.0000 S0.0
G1 X252.2954 Y38.7807 Z-2.0000 F300.0000 S0.0
G1 X252.3226 Y38.4685 Z-2.0000 F300.0000 S0.0
G1 X252.3328 Y38.0950 Z-2.0000 F300.0000 S0.0
G1 X252.3328 Y29.3873 Z-2.0000 F300.0000 S0.0
G1 X252.0790 Y28.8062 Z-2.0000 F300.0000 S0.0
G1 X251.7860 Y28.2592 Z-2.0000 F300.0000 S0.0
G1 X251.4530 Y27.7596 Z-2.0000 F300.0000 S0.0
G1 X251.0787 Y27.3209 Z-2.0000 F300.0000 S0.0
G1 X250.6622 Y26.9564 Z-2.0000 F300.0000 S0.0
G1 X250.2022 Y26.6794 Z-2.0000 F300.0000 S0.0
G1 X249.6979 Y26.5035 Z-2.0000 F300.0000 S0.0
G1 X249.1480 Y26.4418 Z-2.0000 F300.0000 S0.0
G1 X248.6708 Y26.4769 Z-2.0000 F300.0000 S0.0
G1 X248.2254 Y26.5809 Z-2.0000 F300.0000 S0.0
G1 X247.8136 Y26.7525 Z-2.0000 F300.0000 S0.0
G1 X247.4373 Y26.9900 Z-2.0000 F300.0000 S0.0
G1 X247.0983 Y27.2920 Z-2.0000 F300.0000 S0.0
G1 X246.7985 Y27.6568 Z-2.0000 F300.0000 S0.0
G1 X246.5397 Y28.0831 Z-2.0000 F300.0000 S0.0
G1 X246.3239 Y28.5691 Z-2.0000 F300.0000 S0.0
G1 X246.1527 Y29.1135 Z-2.0000 F300.0000 S0.0
G1 X246.0282 Y29.7146 Z-2.0000 F300.0000 S0.0
G1 X245.9521 Y30.3710 Z-2.0000 F300.0000 S0.0
G1 X245.9264 Y31.0810 Z-2.0000 F300.0000 S0.0
G1 X246.0281 Y33.0267 Z-2.0000 F300.0000 S0.0
G1 X246.3199 Y34.7882 Z-2.0000 F300.0000 S0.0
G1 X246.7815 Y36.3682 Z-2.0000 F300.0000 S0.0
G1 X247.3930 Y37.7698 Z-2.0000 F300.0000 S0.0
G1 X248.1341 Y38.9956 Z-2.0000 F300.0000 S0.0
G1 X248.9846 Y40.0487 Z-2.0000 F300.0000 S0.0
G1 X249.9246 Y40.9319 Z-2.0000 F300.0000 S0.0
G1 X250.9337 Y41.6480 Z-2.0000 F300.0000 S0.0
G1 X251.9920 Y42.2000 Z-2.0000 F300.0000 S0.0
G1 X253.0792 Y42.5907 Z-2.0000 F300.0000 S0.0
G1 X254.1752 Y42.8231 Z-2.0000 F300.0000 S0.0
G1 X255.2599 Y42.8999 Z-2.0000 F300.0000 S0.0
G1 X256.8984 Y42.7894 Z-2.0000 F300.0000 S0.0
G1 X257.0146 Y42.7948 Z-2.0000 F300.0000 S0.0
G1 X257.1189 Y42.8116 Z-2.0000 F300.0000 S0.0
G1 X257.2118 Y42.8401 Z-2.0000 F300.0000 S0.0
G1 X257.2939 Y42.8811 Z-2.0000 F300.0000 S0.0
G1 X257.3658 Y42.9350 Z-2.0000 F300.0000 S0.0
G1 X257.4278 Y43.0024 Z-2.0000 F300.0000 S0.0
G1 X257.4806 Y43.0839 Z-2.0000 F300.0000 S0.0
G1 X257.5246 Y43.1801 Z-2.0000 F300.0000 S0.0
G1 X257.5605 Y43.2915 Z-2.0000 F300.0000 S0.0
G1 X257.5886 Y43.4187 Z-2.0000 F300.0000 S0.0
G1 X257.6096 Y43.5622 Z-2.0000 F300.0000 S0.0
G1 X257.6239 Y43.7226 Z-2.0000 F300.0000 S0.0
G1 X257.6321 Y43.9005 Z-2.0000 F300.0000 S0.0
G1 X257.6348 Y44.0965 Z-2.0000 F300.0000 S0.0
G1 X257.6129 Y44.4526 Z-2.0000 F300.0000 S0.0
G1 X257.5486 Y44.7838 Z-2.0000 F300.0000 S0.0
G1 X257.4440 Y45.0888 Z-2.0000 F300.0000 S0.0
G1 X257.3013 Y45.3667 Z-2.0000 F300.0000 S0.0
G1 X257.1226 Y45.6162 Z-2.0000 F300.0000 S0.0
G1 X256.9099 Y45.8362 Z-2.0000 F300.0000 S0.0
G1 X256.6654 Y46.0254 Z-2.0000 F300.0000 S0.0
G1 X256.3911 Y46.1829 Z-2.0000 F300.0000 S0.0
G1 X256.0892 Y46.3073 Z-2.0000 F300.0000 S0.0
G1 X255.7619 Y46.3976 Z-2.0000 F300.0000 S0.0
G1 X255.4111 Y46.4527 Z-2.0000 F300.0000 S0.0
G1 X255.0390 Y46.4713 Z-2.0000 F300.0000 S0.0
G1 X253.1696 Y46.3296 Z-2.0000 F300.0000 S0.0
G1 X251.3454 Y45.9107 Z-2.0000 F300.0000 S0.0
G1 X249.5946 Y45.2244 Z-2.0000 F300.0000 S0.0
G1 X247.9450 Y44.2800 Z-2.0000 F300.0000 S0.0
G1 X246.4246 Y43.0871 Z-2.0000 F300.0000 S0.0
G1 X245.0613 Y41.6553 Z-2.0000 F300.0000 S0.0
G1 X243.8833 Y39.9942 Z-2.0000 F300.0000 S0.0
G1 X242.9183 Y38.1132 Z-2.0000 F300.0000 S0.0
G1 X242.1944 Y36.0219 Z-2.0000 F300.0000 S0.0
G1 X241.7396 Y33.7299 Z-2.0000 F300.0000 S0.0
G1 X241.5817 Y31.2467 Z-2.0000 F300.0000 S0.0
G1 X241.6299 Y30.0693 Z-2.0000 F300.0000 S0.0
G1 X241.7739 Y28.9456 Z-2.0000 F300.0000 S0.0
G1 X242.0129 Y27.8850 Z-2.0000 F300.0000 S0.0
G1 X242.3461 Y26.8966 Z-2.0000 F300.0000 S0.0
G1 X242.7725 Y25.9898 Z-2.0000 F300.0000 S0.0
G1 X243.2915 Y25.1739 Z-2.0000 F300.0000 S0.0
G1 X243.9021 Y24.4580 Z-2.0000 F300.0000 S0.0
G1 X244.6036 Y23.8516 Z-2.0000 F300.0000 S0.0
G1 X245.3951 Y23.3637 Z-2.0000 F300.0000 S0.0
G1 X246.2757 Y23.0038 Z-2.0000 F300.0000 S0.0
G1 X247.2447 Y22.7810 Z-2.0000 F300.0000 S0.0
G1 X248.3012 Y22.7047 Z-2.0000 F300.0000 S0.0
G1 X249.3312 Y22.7870 Z-2.0000 F300.0000 S0.0
G1 X250.2696 Y23.0197 Z-2.0000 F300.0000 S0.0
G1 X251.1201 Y23.3813 Z-2.0000 F300.0000 S0.0
G1 X251.8862 Y23.8502 Z-2.0000 F300.0000 S0.0
G1 X252.5716 Y24.4050 Z-2.0000 F300.0000 S0.0
G1 X253.1797 Y25.0243 Z-2.0000 F300.0000 S0.0
G1 X253.5836 Y24.4727 Z-2.0000 F300.0000 S0.0
G1 X254.0668 Y23.9767 Z-2.0000 F300.0000 S0.0
G1 X254.6250 Y23.5471 Z-2.0000 F300.0000 S0.0
G1 X255.2540 Y23.1945 Z-2.0000 F300.0000 S0.0
G1 X255.9497 Y22.9295 Z-2.0000 F300.0000 S0.0
G1 X256.7078 Y22.7627 Z-2.0000 F300.0000 S0.0
G1 X257.5243 Y22.7047 Z-2.0000 F300.0000 S0.0
G1 X259.0500 Y22.8847 Z-2.0000 F300.0000 S0.0
G1 X260.3942 Y23.3893 Z-2.0000 F300.0000 S0.0
G1 X261.5676 Y24.1652 Z-2.0000 F300.0000 S0.0
G1 X262.5810 Y25.1593 Z-2.0000 F300.0000 S0.0
G1 X263.4451 Y26.3184 Z-2.0000 F300.0000 S0.0
G1 X264.1708 Y27.5893 Z-2.0000 F300.0000 S0.0
G1 X264.7687 Y28.9189 Z-2.0000 F300.0000 S0.0
G1 X265.2497 Y30.2539 Z-2.0000 F300.0000 S0.0
G1 X265.6244 Y31.5412 Z-2.0000 F300.0000 S0.0
G1 X265.6409 Y31.6109 Z-2.0000 F300.0000 S0.0
G1 X265.6537 Y31.6728 Z-2.0000 F300.0000 S0.0
G1 X265.6633 Y31.7274 Z-2.0000 F300.0000 S0.0
G1 X265.6702 Y31.7752 Z-2.0000 F300.0000 S0.0
G1 X265.6748 Y31.8166 Z-2.0000 F300.0000 S0.0
G1 X265.6776 Y31.8522 Z-2.0000 F300.0000 S0.0
G1 X265.6791 Y31.8822 Z-2.0000 F300.0000 S0.0
G1 X265.6796 Y31.9073 Z-2.0000 F300.0000 S0.0
G1 X265.6797 Y31.9278 Z-2.0000 F300.0000 S0.0
G1 X265.6412 Y32.2934 Z-2.0000 F300.0000 S0.0
G1 X265.5327 Y32.6586 Z-2.0000 F300.0000 S0.0
G1 X265.3647 Y33.0119 Z-2.0000 F300.0000 S0.0
G1 X265.1475 Y33.3421 Z-2.0000 F300.0000 S0.0
G1 X264.8918 Y33.6377 Z-2.0000 F300.0000 S0.0
G1 X264.6078 Y33.8874 Z-2.0000 F300.0000 S0.0
G1 X264.3062 Y34.0798 Z-2.0000 F300.0000 S0.0
G1 X263.9972 Y34.2036 Z-2.0000 F300.0000 S0.0
G1 X263.6915 Y34.2474 Z-2.0000 F300.0000 S0.0
G1 X263.5365 Y34.2349 Z-2.0000 F300.0000 S0.0
G1 X263.3838 Y34.1969 Z-2.0000 F300.0000 S0.0
G1 X263.2346 Y34.1324 Z-2.0000 F300.0000 S0.0
G1 X263.0904 Y34.0405 Z-2.0000 F300.0000 S0.0
G1 X262.9523 Y33.9203 Z-2.0000 F300.0000 S0.0
G1 X262.8218 Y33.7709 Z-2.0000 F300.0000 S0.0
G1 X262.7002 Y33.5914 Z-2.0000 F300.0000 S0.0
G1 X262.5888 Y33.3808 Z-2.0000 F300.0000 S0.0
G1 X262.4890 Y33.1383 Z-2.0000 F300.0000 S0.0
G1 X262.4020 Y32.8629 Z-2.0000 F300.0000 S0.0
G1 X262.3292 Y32.5538 Z-2.0000 F300.0000 S0.0
G1 X262.1164 Y31.5776 Z-2.0000 F300.0000 S0.0
G1 X261.8453 Y30.5503 Z-2.0000 F300.0000 S0.0
G1 X261.5079 Y29.5277 Z-2.0000 F300.0000 S0.0
G1 X261.0957 Y28.5658 Z-2.0000 F300.0000 S0.0
G1 X260.6008 Y27.7204 Z-2.0000 F300.0000 S0.0
G1 X260.0148 Y27.0473 Z-2.0000 F300.0000 S0.0
G1 X259.3295 Y26.6025 Z-2.0000 F300.0000 S0.0
G1 X258.5368 Y26.4418 Z-2.0000 F300.0000 S0.0
G0 Z5.0000
G0 X262.4875 Y50.8711 Z5.0000
G0 X262.4875 Y50.8711 Z3.0000
G1 X262.4875 Y50.8711 Z-2.0000 F300.0000 S0.0
G1 X262.2226 Y50.8335 Z-2.0000 F300.0000 S0.0
G1 X262.0112 Y50.7267 Z-2.0000 F300.0000 S0.0
G1 X261.8509 Y50.5600 Z-2.0000 F300.0000 S0.0
G1 X261.7394 Y50.3426 Z-2.0000 F300.0000 S0.0
G1 X261.6744 Y50.0838 Z-2.0000 F300.0000 S0.0
G1 X261.6534 Y49.7926 Z-2.0000 F300.0000 S0.0
G1 X261.6743 Y49.4785 Z-2.0000 F300.0000 S0.0
G1 X261.7345 Y49.1505 Z-2.0000 F300.0000 S0.0
G1 X261.8319 Y48.8179 Z-2.0000 F300.0000 S0.0
G1 X261.9640 Y48.4899 Z-2.0000 F300.0000 S0.0
G1 X262.1286 Y48.1757 Z-2.0000 F300.0000 S0.0
G1 X262.3232 Y47.8846 Z-2.0000 F300.0000 S0.0
G1 X262.5455 Y47.6257 Z-2.0000 F300.0000 S0.0
G1 X262.7933 Y47.4083 Z-2.0000 F300.0000 S0.0
G1 X263.0642 Y47.2416 Z-2.0000 F300.0000 S0.0
G1 X263.3557 Y47.1348 Z-2.0000 F300.0000 S0.0
G1 X263.6657 Y47.0972 Z-2.0000 F300.0000 S0.0
G1 X263.6950 Y47.0947 Z-2.0000 F300.0000 S0.0
G1 X263.7822 Y47.0877 Z-2.0000 F300.0000 S0.0
G1 X263.9260 Y47.0771 Z-2.0000 F300.0000 S0.0
G1 X264.1252 Y47.0638 Z-2.0000 F300.0000 S0.0
G1 X264.3787 Y47.0487 Z-2.0000 F300.0000 S0.0
G1 X264.6851 Y47.0328 Z-2.0000 F300.0000 S0.0
G1 X265.0433 Y47.0168 Z-2.0000 F300.0000 S0.0
G1 X265.4521 Y47.0017 Z-2.0000 F300.0000 S0.0
G1 X265.9102 Y46.9885 Z-2.0000 F300.0000 S0.0
G1 X266.4164 Y46.9779 Z-2.0000 F300.0000 S0.0
G1 X266.9696 Y46.9709 Z-2.0000 F300.0000 S0.0
G1 X267.5685 Y46.9683 Z-2.0000 F300.0000 S0.0
G1 X267.5685 Y28.9823 Z-2.0000 F300.0000 S0.0
G1 X267.6061 Y28.0006 Z-2.0000 F300.0000 S0.0
G1 X267.7169 Y27.1101 Z-2.0000 F300.0000 S0.0
G1 X267.8972 Y26.3087 Z-2.0000 F300.0000 S0.0
G1 X268.1438 Y25.5941 Z-2.0000 F300.0000 S0.0
G1 X268.4531 Y24.9641 Z-2.0000 F300.0000 S0.0
G1 X268.8219 Y24.4165 Z-2.0000 F300.0000 S0.0
G1 X269.2466 Y23.9490 Z-2.0000 F300.0000 S0.0
G1 X269.7238 Y23.5596 Z-2.0000 F300.0000 S0.0
G1 X270.2501 Y23.2460 Z-2.0000 F300.0000 S0.0
G1 X270.8222 Y23.0058 Z-2.0000 F300.0000 S0.0
G1 X271.4365 Y22.8371 Z-2.0000 F300.0000 S0.0
G1 X272.0897 Y22.7374 Z-2.0000 F300.0000 S0.0
G1 X272.7784 Y22.7047 Z-2.0000 F300.0000 S0.0
G1 X274.3040 Y22.8847 Z-2.0000 F300.0000 S0.0
G1 X275.6480 Y23.3893 Z-2.0000 F300.0000 S0.0
G1 X276.8209 Y24.1652 Z-2.0000 F300.0000 S0.0
G1 X277.8334 Y25.1593 Z-2.0000 F300.0000 S0.0
G1 X278.6960 Y26.3184 Z-2.0000 F300.0000 S0.0
G1 X279.4194 Y27.5893 Z-2.0000 F300.0000 S0.0
G1 X280.0141 Y28.9189 Z-2.0000 F300.0000 S0.0
G1 X280.4908 Y30.2539 Z-2.0000 F300.0000 S0.0
G1 X280.8601 Y31.5412 Z-2.0000 F300.0000 S0.0
G1 X280.8765 Y31.6109 Z-2.0000 F300.0000 S0.0
G1 X280.8893 Y31.6728 Z-2.0000 F300.0000 S0.0
G1 X280.8990 Y31.7274 Z-2.0000 F300.0000 S0.0
G1 X280.9058 Y31.7752 Z-2.0000 F300.0000 S0.0
G1 X280.9105 Y31.8166 Z-2.0000 F300.0000 S0.0
G1 X280.9133 Y31.8522 Z-2.0000 F300.0000 S0.0
G1 X280.9147 Y31.8822 Z-2.0000 F300.0000 S0.0
G1 X280.9152 Y31.9073 Z-2.0000 F300.0000 S0.0
G1 X280.9153 Y31.9278 Z-2.0000 F300.0000 S0.0
G1 X280.8775 Y32.2934 Z-2.0000 F300.0000 S0.0
G1 X280.7707 Y32.6586 Z-2.0000 F300.0000 S0.0
G1 X280.6051 Y33.0119 Z-2.0000 F300.0000 S0.0
G1 X280.3909 Y33.3421 Z-2.0000 F300.0000 S0.0
G1 X280.1382 Y33.6377 Z-2.0000 F300.0000 S0.0
G1 X279.8571 Y33.8874 Z-2.0000 F300.0000 S0.0
G1 X279.5579 Y34.0798 Z-2.0000 F300.0000 S0.0
G1 X279.2506 Y34.2036 Z-2.0000 F300.0000 S0.0
G1 X278.9455 Y34.2474 Z-2.0000 F300.0000 S0.0
G1 X278.7901 Y34.2349 Z-2.0000 F300.0000 S0.0
G1 X278.6363 Y34.1969 Z-2.0000 F300.0000 S0.0
G1 X278.4857 Y34.1324 Z-2.0000 F300.0000 S0.0
G1 X278.3398 Y34.0405 Z-2.0000 F300.0000 S0.0
G1 X278.2001 Y33.9203 Z-2.0000 F300.0000 S0.0
G1 X278.0684 Y33.7709 Z-2.0000 F300.0000 S0.0
G1 X277.9461 Y33.5914 Z-2.0000 F300.0000 S0.0
G1 X277.8349 Y33.3808 Z-2.0000 F300.0000 S0.0
G1 X277.7363 Y33.1383 Z-2.0000 F300.0000 S0.0
G1 X277.6519 Y32.8629 Z-2.0000 F300.0000 S0.0
G1 X277.5832 Y32.5538 Z-2.0000 F300.0000 S0.0
G1 X277.3651 Y31.5776 Z-2.0000 F300.0000 S0.0
G1 X277.0916 Y30.5503 Z-2.0000 F300.0000 S0.0
G1 X276.7538 Y29.5277 Z-2.0000 F300.0000 S0.0
G1 X276.3429 Y28.5658 Z-2.0000 F300.0000 S0.0
G1 X275.8500 Y27.7204 Z-2.0000 F300.0000 S0.0
G1 X275.2662 Y27.0473 Z-2.0000 F300.0000 S0.0
G1 X274.5828 Y26.6025 Z-2.0000 F300.0000 S0.0
G1 X273.7909 Y26.4418 Z-2.0000 F300.0000 S0.0
G1 X273.5233 Y26.4560 Z-2.0000 F300.0000 S0.0
G1 X273.2734 Y26.4989 Z-2.0000 F300.0000 S0.0
G1 X273.0419 Y26.5712 Z-2.0000 F300.0000 S0.0
G1 X272.8292 Y26.6736 Z-2.0000 F300.0000 S0.0
G1 X272.6362 Y26.8067 Z-2.0000 F300.0000 S0.0
G1 X272.4634 Y26.9712 Z-2.0000 F300.0000 S0.0
G1 X272.3116 Y27.1677 Z-2.0000 F300.0000 S0.0
G1 X272.1813 Y27.3969 Z-2.0000 F300.0000 S0.0
G1 X272.0732 Y27.6595 Z-2.0000 F300.0000 S0.0
G1 X271.9881 Y27.9560 Z-2.0000 F300.0000 S0.0
G1 X271.9264 Y28.2871 Z-2.0000 F300.0000 S0.0
G1 X271.8889 Y28.6536 Z-2.0000 F300.0000 S0.0
G1 X271.8763 Y29.0560 Z-2.0000 F300.0000 S0.0
G1 X271.8763 Y46.9683 Z-2.0000 F300.0000 S0.0
G1 X275.0107 Y46.9731 Z-2.0000 F300.0000 S0.0
G1 X278.5664 Y47.0065 Z-2.0000 F300.0000 S0.0
G1 X282.7194 Y47.0972 Z-2.0000 F300.0000 S0.0
G1 X282.9558 Y47.1540 Z-2.0000 F300.0000 S0.0
G1 X283.1733 Y47.2975 Z-2.0000 F300.0000 S0.0
G1 X283.3708 Y47.5148 Z-2.0000 F300.0000 S0.0
G1 X283.5469 Y47.7930 Z-2.0000 F300.0000 S0.0
G1 X283.7007 Y48.1193 Z-2.0000 F300.0000 S0.0
G1 X283.8308 Y48.4806 Z-2.0000 F300.0000 S0.0
G1 X283.9362 Y48.8643 Z-2.0000 F300.0000 S0.0
G1 X284.0156 Y49.2573 Z-2.0000 F300.0000 S0.0
G1 X284.0679 Y49.6469 Z-2.0000 F300.0000 S0.0
G1 X284.0919 Y50.0201 Z-2.0000 F300.0000 S0.0
G1 X284.0865 Y50.3641 Z-2.0000 F300.0000 S0.0
G1 X284.0504 Y50.6659 Z-2.0000 F300.0000 S0.0
G1 X283.9824 Y50.9127 Z-2.0000 F300.0000 S0.0
G1 X283.8815 Y51.0917 Z-2.0000 F300.0000 S0.0
G1 X283.7464 Y51.1899 Z-2.0000 F300.0000 S0.0
G1 X283.5760 Y51.1944 Z-2.0000 F300.0000 S0.0
G1 X283.3691 Y51.0925 Z-2.0000 F300.0000 S0.0
G1 X283.1244 Y50.8711 Z-2.0000 F300.0000 S0.0
G1 X271.8763 Y50.6502 Z-2.0000 F300.0000 S0.0
G1 X271.8763 Y60.5545 Z-2.0000 F300.0000 S0.0
G1 X271.8470 Y60.9194 Z-2.0000 F300.0000 S0.0
G1 X271.7608 Y61.2685 Z-2.0000 F300.0000 S0.0
G1 X271.6201 Y61.5978 Z-2.0000 F300.0000 S0.0
G1 X271.4273 Y61.9032 Z-2.0000 F300.0000 S0.0
G1 X271.1847 Y62.1808 Z-2.0000 F300.0000 S0.0
G1 X270.8949 Y62.4267 Z-2.0000 F300.0000 S0.0
G1 X270.5601 Y62.6368 Z-2.0000 F300.0000 S0.0
G1 X270.1829 Y62.8071 Z-2.0000 F300.0000 S0.0
G1 X269.7656 Y62.9337 Z-2.0000 F300.0000 S0.0
G1 X269.3106 Y63.0126 Z-2.0000 F300.0000 S0.0
G1 X268.8203 Y63.0398 Z-2.0000 F300.0000 S0.0
G1 X268.5493 Y63.0316 Z-2.0000 F300.0000 S0.0
G1 X268.2711 Y63.0074 Z-2.0000 F300.0000 S0.0
G1 X267.9960 Y62.9675 Z-2.0000 F300.0000 S0.0
G1 X267.7345 Y62.9121 Z-2.0000 F300.0000 S0.0
G1 X267.4972 Y62.8415 Z-2.0000 F300.0000 S0.0
G1 X267.2944 Y62.7561 Z-2.0000 F300.0000 S0.0
G1 X267.1366 Y62.6562 Z-2.0000 F300.0000 S0.0
G1 X267.0342 Y62.5420 Z-2.0000 F300.0000 S0.0
G1 X266.9978 Y62.4138 Z-2.0000 F300.0000 S0.0
G1 X267.0111 Y62.3139 Z-2.0000 F300.0000 S0.0
G1 X267.0475 Y62.2194 Z-2.0000 F300.0000 S0.0
G1 X267.1020 Y62.1222 Z-2.0000 F300.0000 S0.0
G1 X267.1693 Y62.0140 Z-2.0000 F300.0000 S0.0
G1 X267.2443 Y61.8867 Z-2.0000 F300.0000 S0.0
G1 X267.3219 Y61.7319 Z-2.0000 F300.0000 S0.0
G1 X267.3970 Y61.5416 Z-2.0000 F300.0000 S0.0
G1 X267.4643 Y61.3075 Z-2.0000 F300.0000 S0.0
G1 X267.5187 Y61.0213 Z-2.0000 F300.0000 S0.0
G1 X267.5552 Y60.6748 Z-2.0000 F300.0000 S0.0
G1 X267.5685 Y60.2599 Z-2.0000 F300.0000 S0.0
G1 X267.5685 Y50.7054 Z-2.0000 F300.0000 S0.0
G1 X266.8265 Y50.7203 Z-2.0000 F300.0000 S0.0
G1 X266.1310 Y50.7369 Z-2.0000 F300.0000 S0.0
G1 X265.4853 Y50.7546 Z-2.0000 F300.0000 S0.0
G1 X264.8930 Y50.7730 Z-2.0000 F300.0000 S0.0
G1 X264.3574 Y50.7913 Z-2.0000 F300.0000 S0.0
G1 X263.8820 Y50.8090 Z-2.0000 F300.0000 S0.0
G1 X263.4703 Y50.8256 Z-2.0000 F300.0000 S0.0
G1 X263.1257 Y50.8405 Z-2.0000 F300.0000 S0.0
G1 X262.8516 Y50.8530 Z-2.0000 F300.0000 S0.0
G1 X262.6516 Y50.8627 Z-2.0000 F300.0000 S0.0
G1 X262.5291 Y50.8689 Z-2.0000 F300.0000 S0.0
G1 X262.4875 Y50.8711 Z-2.0000 F300.0000 S0.0
G0 Z5.0000
G0 X15.5250 Y53.4853 Z5.0000
G0 X15.5250 Y53.4853 Z3.0000
G1 X15.5250 Y53.4853 Z-2.0000 F300.0000 S0.0
G1 X15.4936 Y53.8502 Z-2.0000 F300.0000 S0.0
G1 X15.4014 Y54.1993 Z-2.0000 F300.0000 S0.0
G1 X15.2517 Y54.5286 Z-2.0000 F300.0000 S0.0
G1 X15.0475 Y54.8340 Z-2.0000 F300.0000 S0.0
G1 X14.7920 Y55.1116 Z-2.0000 F300.0000 S0.0
G1 X14.4884 Y55.3575 Z-2.0000 F300.0000 S0.0
G1 X14.1398 Y55.5676 Z-2.0000 F300.0000 S0.0
G1 X13.7493 Y55.7379 Z-2.0000 F300.0000 S0.0
G1 X13.3202 Y55.8645 Z-2.0000 F300.0000 S0.0
G1 X12.8556 Y55.9434 Z-2.0000 F300.0000 S0.0
G1 X12.3586 Y55.9705 Z-2.0000 F300.0000 S0.0
G1 X12.1459 Y55.9607 Z-2.0000 F300.0000 S0.0
G1 X11.9412 Y55.9319 Z-2.0000 F300.0000 S0.0
G1 X11.7472 Y55.8854 Z-2.0000 F300.0000 S0.0
G1 X11.5663 Y55.8223 Z-2.0000 F300.0000 S0.0
G1 X11.4012 Y55.7437 Z-2.0000 F300.0000 S0.0
G1 X11.2545 Y55.6509 Z-2.0000 F300.0000 S0.0
G1 X11.1286 Y55.5449 Z-2.0000 F300.0000 S0.0
G1 X11.0263 Y55.4270 Z-2.0000 F300.0000 S0.0
G1 X10.9500 Y55.2983 Z-2.0000 F300.0000 S0.0
G1 X10.9023 Y55.1600 Z-2.0000 F300.0000 S0.0
G1 X10.8859 Y55.0133 Z-2.0000 F300.0000 S0.0
G1 X10.8991 Y54.8418 Z-2.0000 F300.0000 S0.0
G1 X10.9333 Y54.6648 Z-2.0000 F300.0000 S0.0
G1 X10.9801 Y54.4679 Z-2.0000 F300.0000 S0.0
G1 X11.0310 Y54.2365 Z-2.0000 F300.0000 S0.0
G1 X11.0777 Y53.9562 Z-2.0000 F300.0000 S0.0
G1 X11.1119 Y53.6124 Z-2.0000 F300.0000 S0.0
G1 X11.1252 Y53.1907 Z-2.0000 F300.0000 S0.0
G1 X11.1252 Y31.5412 Z-2.0000 F300.0000 S0.0
G1 X11.1598 Y30.2030 Z-2.0000 F300.0000 S0.0
G1 X11.2666 Y28.9598 Z-2.0000 F300.0000 S0.0
G1 X11.4494 Y27.8135 Z-2.0000 F300.0000 S0.0
G1 X11.7124 Y26.7664 Z-2.0000 F300.0000 S0.0
G1 X12.0597 Y25.8206 Z-2.0000 F300.0000 S0.0
G1 X12.4953 Y24.9781 Z-2.0000 F300.0000 S0.0
G1 X13.0233 Y24.2411 Z-2.0000 F300.0000 S0.0
G1 X13.6478 Y23.6117 Z-2.0000 F300.0000 S0.0
G1 X14.3729 Y23.0920 Z-2.0000 F300.0000 S0.0
G1 X15.2026 Y22.6841 Z-2.0000 F300.0000 S0.0
G1 X16.1410 Y22.3901 Z-2.0000 F300.0000 S0.0
G1 X17.1921 Y22.2122 Z-2.0000 F300.0000 S0.0
G1 X18.3601 Y22.1524 Z-2.0000 F300.0000 S0.0
G1 X19.9465 Y22.3341 Z-2.0000 F300.0000 S0.0
G1 X21.5720 Y22.8759 Z-2.0000 F300.0000 S0.0
G1 X23.2029 Y23.7725 Z-2.0000 F300.0000 S0.0
G1 X24.8054 Y25.0188 Z-2.0000 F300.0000 S0.0
G1 X26.3458 Y26.6099 Z-2.0000 F300.0000 S0.0
G1 X27.7903 Y28.5405 Z-2.0000 F300.0000 S0.0
G1 X29.1052 Y30.8055 Z-2.0000 F300.0000 S0.0
G1 X30.2567 Y33.3999 Z-2.0000 F300.0000 S0.0
G1 X31.2110 Y36.3185 Z-2.0000 F300.0000 S0.0
G1 X31.9345 Y39.5562 Z-2.0000 F300.0000 S0.0
G1 X32.3933 Y43.1078 Z-2.0000 F300.0000 S0.0
G1 X32.5538 Y46.9683 Z-2.0000 F300.0000 S0.0
G1 X32.4575 Y49.2333 Z-2.0000 F300.0000 S0.0
G1 X32.1655 Y51.4525 Z-2.0000 F300.0000 S0.0
G1 X31.6733 Y53.5972 Z-2.0000 F300.0000 S0.0
G1 X30.9760 Y55.6385 Z-2.0000 F300.0000 S0.0
G1 X30.0691 Y57.5476 Z-2.0000 F300.0000 S0.0
G1 X28.9478 Y59.2957 Z-2.0000 F300.0000 S0.0
G1 X27.6076 Y60.8540 Z-2.0000 F300.0000 S0.0
G1 X26.0436 Y62.1936 Z-2.0000 F300.0000 S0.0
G1 X24.2514 Y63.2857 Z-2.0000 F300.0000 S0.0
G1 X22.2262 Y64.1015 Z-2.0000 F300.0000 S0.0
G1 X19.9633 Y64.6121 Z-2.0000 F300.0000 S0.0
G1 X17.4580 Y64.7887 Z-2.0000 F300.0000 S0.0
G1 X15.0536 Y64.6414 Z-2.0000 F300.0000 S0.0
G1 X12.7999 Y64.2092 Z-2.0000 F300.0000 S0.0
G1 X10.7081 Y63.5060 Z-2.0000 F300.0000 S0.0
G1 X8.7892 Y62.5461 Z-2.0000 F300.0000 S0.0
G1 X7.0545 Y61.3436 Z-2.0000 F300.0000 S0.0
G1 X5.5149 Y59.9125 Z-2.0000 F300.0000 S0.0
G1 X4.1817 Y58.2670 Z-2.0000 F300.0000 S0.0
G1 X3.0659 Y56.4212 Z-2.0000 F300.0000 S0.0
G1 X2.1788 Y54.3893 Z-2.0000 F300.0000 S0.0
G1 X1.5313 Y52.1854 Z-2.0000 F300.0000 S0.0
G1 X1.1347 Y49.8237 Z-2.0000 F300.0000 S0.0
G1 X1.0000 Y47.3181 Z-2.0000 F300.0000 S0.0
G1 X1.0892 Y45.4041 Z-2.0000 F300.0000 S0.0
G1 X1.3362 Y43.6484 Z-2.0000 F300.0000 S0.0
G1 X1.7102 Y42.0522 Z-2.0000 F300.0000 S0.0
G1 X2.1802 Y40.6164 Z-2.0000 F300.0000 S0.0
G1 X2.7155 Y39.3422 Z-2.0000 F300.0000 S0.0
G1 X3.2851 Y38.2308 Z-2.0000 F300.0000 S0.0
G1 X3.8581 Y37.2830 Z-2.0000 F300.0000 S0.0
G1 X4.4037 Y36.5002 Z-2.0000 F300.0000 S0.0
G1 X4.8910 Y35.8833 Z-2.0000 F300.0000 S0.0
G1 X5.2891 Y35.4334 Z-2.0000 F300.0000 S0.0
G1 X5.5672 Y35.1516 Z-2.0000 F300.0000 S0.0
G1 X5.6944 Y35.0390 Z-2.0000 F300.0000 S0.0
G1 X5.8620 Y34.9255 Z-2.0000 F300.0000 S0.0
G1 X6.0323 Y34.8464 Z-2.0000 F300.0000 S0.0
G1 X6.2034 Y34.7965 Z-2.0000 F300.0000 S0.0
G1 X6.3736 Y34.7704 Z-2.0000 F300.0000 S0.0
G1 X6.5412 Y34.7629 Z-2.0000 F300.0000 S0.0
G1 X6.9783 Y34.8287 Z-2.0000 F300.0000 S0.0
G1 X7.4099 Y35.0137 Z-2.0000 F300.0000 S0.0
G1 X7.8238 Y35.2995 Z-2.0000 F300.0000 S0.0
G1 X8.2076 Y35.6675 Z-2.0000 F300.0000 S0.0
G1 X8.5492 Y36.0994 Z-2.0000 F300.0000 S0.0
G1 X8.8363 Y36.5766 Z-2.0000 F300.0000 S0.0
G1 X9.0565 Y37.0805 Z-2.0000 F300.0000 S0.0
G1 X9.1976 Y37.5928 Z-2.0000 F300.0000 S0.0
G1 X9.2474 Y38.0950 Z-2.0000 F300.0000 S0.0
G1 X9.2448 Y38.1998 Z-2.0000 F300.0000 S0.0
G1 X9.2367 Y38.2997 Z-2.0000 F300.0000 S0.0
G1 X9.2229 Y38.3942 Z-2.0000 F300.0000 S0.0
G1 X9.2031 Y38.4827 Z-2.0000 F300.0000 S0.0
G1 X9.1771 Y38.5648 Z-2.0000 F300.0000 S0.0
G1 X9.1445 Y38.6399 Z-2.0000 F300.0000 S0.0
G1 X9.1052 Y38.7075 Z-2.0000 F300.0000 S0.0
G1 X9.0587 Y38.7669 Z-2.0000 F300.0000 S0.0
G1 X9.0050 Y38.8178 Z-2.0000 F300.0000 S0.0
G1 X8.9436 Y38.8594 Z-2.0000 F300.0000 S0.0
G1 X8.8744 Y38.8914 Z-2.0000 F300.0000 S0.0
G1 X8.7970 Y38.9131 Z-2.0000 F300.0000 S0.0
G1 X8.7112 Y38.9240 Z-2.0000 F300.0000 S0.0
G1 X8.6167 Y38.9236 Z-2.0000 F300.0000 S0.0
G1 X8.5132 Y38.9113 Z-2.0000 F300.0000 S0.0
G1 X8.4006 Y38.8866 Z-2.0000 F300.0000 S0.0
G1 X8.2809 Y39.0056 Z-2.0000 F300.0000 S0.0
G1 X8.0584 Y39.2701 Z-2.0000 F300.0000 S0.0
G1 X7.7571 Y39.6768 Z-2.0000 F300.0000 S0.0
G1 X7.4012 Y40.2223 Z-2.0000 F300.0000 S0.0
G1 X7.0146 Y40.9033 Z-2.0000 F300.0000 S0.0
G1 X6.6215 Y41.7166 Z-2.0000 F300.0000 S0.0
G1 X6.2459 Y42.6587 Z-2.0000 F300.0000 S0.0
G1 X5.9118 Y43.7263 Z-2.0000 F300.0000 S0.0
G1 X5.6434 Y44.9162 Z-2.0000 F300.0000 S0.0
G1 X5.4648 Y46.2251 Z-2.0000 F300.0000 S0.0
G1 X5.3999 Y47.6495 Z-2.0000 F300.0000 S0.0
G1 X5.4545 Y49.1620 Z-2.0000 F300.0000 S0.0
G1 X5.6288 Y50.6811 Z-2.0000 F300.0000 S0.0
G1 X5.9378 Y52.1805 Z-2.0000 F300.0000 S0.0
G1 X6.3967 Y53.6339 Z-2.0000 F300.0000 S0.0
G1 X7.0208 Y55.0150 Z-2.0000 F300.0000 S0.0
G1 X7.8253 Y56.2973 Z-2.0000 F300.0000 S0.0
G1 X8.8254 Y57.4546 Z-2.0000 F300.0000 S0.0
G1 X10.0363 Y58.4606 Z-2.0000 F300.0000 S0.0
G1 X11.4732 Y59.2888 Z-2.0000 F300.0000 S0.0
G1 X13.1514 Y59.9131 Z-2.0000 F300.0000 S0.0
G1 X15.0860 Y60.3069 Z-2.0000 F300.0000 S0.0
G1 X17.2923 Y60.4440 Z-2.0000 F300.0000 S0.0
G1 X19.0814 Y60.3161 Z-2.0000 F300.0000 S0.0
G1 X20.6954 Y59.9437 Z-2.0000 F300.0000 S0.0
G1 X22.1380 Y59.3438 Z-2.0000 F300.0000 S0.0
G1 X23.4131 Y58.5335 Z-2.0000 F300.0000 S0.0
G1 X24.5243 Y57.5300 Z-2.0000 F300.0000 S0.0
G1 X25.4753 Y56.3502 Z-2.0000 F300.0000 S0.0
G1 X26.2699 Y55.0113 Z-2.0000 F300.0000 S0.0
G1 X26.9116 Y53.5303 Z-2.0000 F300.0000 S0.0
G1 X27.4043 Y51.9242 Z-2.0000 F300.0000 S0.0
G1 X27.7516 Y50.2102 Z-2.0000 F300.0000 S0.0
G1 X27.9573 Y48.4053 Z-2.0000 F300.0000 S0.0
G1 X28.0250 Y46.5265 Z-2.0000 F300.0000 S0.0
G1 X27.9047 Y43.5081 Z-2.0000 F300.0000 S0.0
G1 X27.5611 Y40.6469 Z-2.0000 F300.0000 S0.0
G1 X27.0201 Y37.9702 Z-2.0000 F300.0000 S0.0
G1 X26.3075 Y35.5055 Z-2.0000 F300.0000 S0.0
G1 X25.4493 Y33.2803 Z-2.0000 F300.0000 S0.0
G1 X24.4713 Y31.3221 Z-2.0000 F300.0000 S0.0
G1 X23.3995 Y29.6583 Z-2.0000 F300.0000 S0.0
G1 X22.2597 Y28.3165 Z-2.0000 F300.0000 S0.0
G1 X21.0779 Y27.3240 Z-2.0000 F300.0000 S0.0
G1 X19.8798 Y26.7084 Z-2.0000 F300.0000 S0.0
G1 X18.6915 Y26.4971 Z-2.0000 F300.0000 S0.0
G1 X18.1965 Y26.5261 Z-2.0000 F300.0000 S0.0
G1 X17.7475 Y26.6128 Z-2.0000 F300.0000 S0.0
G1 X17.3434 Y26.7568 Z-2.0000 F300.0000 S0.0
G1 X16.9829 Y26.9576 Z-2.0000 F300.0000 S0.0
G1 X16.6652 Y27.2147 Z-2.0000 F300.0000 S0.0
G1 X16.3889 Y27.5278 Z-2.0000 F300.0000 S0.0
G1 X16.1531 Y27.8963 Z-2.0000 F300.0000 S0.0
G1 X15.9566 Y28.3199 Z-2.0000 F300.0000 S0.0
G1 X15.7983 Y28.7979 Z-2.0000 F300.0000 S0.0
G1 X15.6771 Y29.3301 Z-2.0000 F300.0000 S0.0
G1 X15.5919 Y29.9159 Z-2.0000 F300.0000 S0.0
G1 X15.5416 Y30.5549 Z-2.0000 F300.0000 S0.0
G1 X15.5250 Y31.2467 Z-2.0000 F300.0000 S0.0
G1 X15.5250 Y53.4853 Z-2.0000 F300.0000 S0.0
G0 Z5.0000
G0 X54.1406 Y40.7644 Z5.0000
G0 X54.1406 Y40.7644 Z3.0000
G1 X54.1406 Y40.7644 Z-2.0000 F300.0000 S0.0
G1 X54.1008 Y41.5882 Z-2.0000 F300.0000 S0.0
G1 X53.9828 Y42.3633 Z-2.0000 F300.0000 S0.0
G1 X53.7891 Y43.0851 Z-2.0000 F300.0000 S0.0
G1 X53.5222 Y43.7494 Z-2.0000 F300.0000 S0.0
G1 X53.1845 Y44.3519 Z-2.0000 F300.0000 S0.0
G1 X52.7784 Y44.8881 Z-2.0000 F300.0000 S0.0
G1 X52.3062 Y45.3537 Z-2.0000 F300.0000 S0.0
G1 X51.7706 Y45.7444 Z-2.0000 F300.0000 S0.0
G1 X51.1739 Y46.0559 Z-2.0000 F300.0000 S0.0
G1 X50.5184 Y46.2838 Z-2.0000 F300.0000 S0.0
G1 X49.8067 Y46.4237 Z-2.0000 F300.0000 S0.0
G1 X49.0412 Y46.4713 Z-2.0000 F300.0000 S0.0
G1 X47.8605 Y46.3407 Z-2.0000 F300.0000 S0.0
G1 X46.7008 Y45.9596 Z-2.0000 F300.0000 S0.0
G1 X45.5814 Y45.3442 Z-2.0000 F300.0000 S0.0
G1 X44.5216 Y44.5106 Z-2.0000 F300.0000 S0.0
G1 X43.5407 Y43.4747 Z-2.0000 F300.0000 S0.0
G1 X42.6578 Y42.2529 Z-2.0000 F300.0000 S0.0
G1 X41.8923 Y40.8610 Z-2.0000 F300.0000 S0.0
G1 X41.2634 Y39.3153 Z-2.0000 F300.0000 S0.0
G1 X40.7904 Y37.6319 Z-2.0000 F300.0000 S0.0
G1 X40.4924 Y35.8267 Z-2.0000 F300.0000 S0.0
G1 X40.3888 Y33.9161 Z-2.0000 F300.0000 S0.0
G1 X40.5059 Y32.0616 Z-2.0000 F300.0000 S0.0
G1 X40.8434 Y30.3577 Z-2.0000 F300.0000 S0.0
G1 X41.3807 Y28.8099 Z-2.0000 F300.0000 S0.0
G1 X42.0972 Y27.4238 Z-2.0000 F300.0000 S0.0
G1 X42.9725 Y26.2046 Z-2.0000 F300.0000 S0.0
G1 X43.9858 Y25.1580 Z-2.0000 F300.0000 S0.0
G1 X45.1167 Y24.2894 Z-2.0000 F300.0000 S0.0
G1 X46.3444 Y23.6043 Z-2.0000 F300.0000 S0.0
G1 X47.6486 Y23.1082 Z-2.0000 F300.0000 S0.0
G1 X49.0085 Y22.8065 Z-2.0000 F300.0000 S0.0
G1 X50.4035 Y22.7047 Z-2.0000 F300.0000 S0.0
G1 X52.5255 Y22.8668 Z-2.0000 F300.0000 S0.0
G1 X54.3653 Y23.3224 Z-2.0000 F300.0000 S0.0
G1 X55.9420 Y24.0252 Z-2.0000 F300.0000 S0.0
G1 X57.2747 Y24.9292 Z-2.0000 F300.0000 S0.0
G1 X58.3825 Y25.9883 Z-2.0000 F300.0000 S0.0
G1 X59.2845 Y27.1562 Z-2.0000 F300.0000 S0.0
G1 X59.9998 Y28.3868 Z-2.0000 F300.0000 S0.0
G1 X60.5475 Y29.6341 Z-2.0000 F300.0000 S0.0
G1 X60.9466 Y30.8518 Z-2.0000 F300.0000 S0.0
G1 X61.2163 Y31.9938 Z-2.0000 F300.0000 S0.0
G1 X61.3756 Y33.0140 Z-2.0000 F300.0000 S0.0
G1 X61.3862 Y33.2462 Z-2.0000 F300.0000 S0.0
G1 X61.3666 Y33.4694 Z-2.0000 F300.0000 S0.0
G1 X61.3192 Y33.6824 Z-2.0000 F300.0000 S0.0
G1 X61.2462 Y33.8841 Z-2.0000 F300.0000 S0.0
G1 X61.1499 Y34.0735 Z-2.0000 F300.0000 S0.0
G1 X61.0328 Y34.2494 Z-2.0000 F300.0000 S0.0
G1 X60.8970 Y34.4107 Z-2.0000 F300.0000 S0.0
G1 X60.7449 Y34.5564 Z-2.0000 F300.0000 S0.0
G1 X60.5789 Y34.6853 Z-2.0000 F300.0000 S0.0
G1 X60.4012 Y34.7963 Z-2.0000 F300.0000 S0.0
G1 X60.2142 Y34.8884 Z-2.0000 F300.0000 S0.0
G1 X60.0201 Y34.9603 Z-2.0000 F300.0000 S0.0
G1 X59.8214 Y35.0111 Z-2.0000 F300.0000 S0.0
G1 X59.6203 Y35.0395 Z-2.0000 F300.0000 S0.0
G1 X59.4191 Y35.0446 Z-2.0000 F300.0000 S0.0
G1 X59.2203 Y35.0252 Z-2.0000 F300.0000 S0.0
G1 X59.0259 Y34.9802 Z-2.0000 F300.0000 S0.0
G1 X58.8385 Y34.9085 Z-2.0000 F300.0000 S0.0
G1 X58.6603 Y34.8090 Z-2.0000 F300.0000 S0.0
G1 X58.4937 Y34.6806 Z-2.0000 F300.0000 S0.0
G1 X58.3409 Y34.5221 Z-2.0000 F300.0000 S0.0
G1 X58.2042 Y34.3326 Z-2.0000 F300.0000 S0.0
G1 X58.0861 Y34.1108 Z-2.0000 F300.0000 S0.0
G1 X57.9888 Y33.8558 Z-2.0000 F300.0000 S0.0
G1 X57.9146 Y33.5663 Z-2.0000 F300.0000 S0.0
G1 X57.6795 Y32.5302 Z-2.0000 F300.0000 S0.0
G1 X57.3664 Y31.5034 Z-2.0000 F300.0000 S0.0
G1 X56.9667 Y30.5092 Z-2.0000 F300.0000 S0.0
G1 X56.4719 Y29.5713 Z-2.0000 F300.0000 S0.0
G1 X55.8734 Y28.7131 Z-2.0000 F300.0000 S0.0
G1 X55.1629 Y27.9582 Z-2.0000 F300.0000 S0.0
G1 X54.3317 Y27.3301 Z-2.0000 F300.0000 S0.0
G1 X53.3714 Y26.8523 Z-2.0000 F300.0000 S0.0
G1 X52.2735 Y26.5484 Z-2.0000 F300.0000 S0.0
G1 X51.0295 Y26.4418 Z-2.0000 F300.0000 S0.0
G1 X50.0992 Y26.4988 Z-2.0000 F300.0000 S0.0
G1 X49.2683 Y26.6628 Z-2.0000 F300.0000 S0.0
G1 X48.5312 Y26.9239 Z-2.0000 F300.0000 S0.0
G1 X47.8823 Y27.2717 Z-2.0000 F300.0000 S0.0
G1 X47.3160 Y27.6963 Z-2.0000 F300.0000 S0.0
G1 X46.8267 Y28.1873 Z-2.0000 F300.0000 S0.0
G1 X46.4087 Y28.7347 Z-2.0000 F300.0000 S0.0
G1 X46.0564 Y29.3283 Z-2.0000 F300.0000 S0.0
G1 X45.7644 Y29.9580 Z-2.0000 F300.0000 S0.0
G1 X47.4965 Y30.6220 Z-2.0000 F300.0000 S0.0
G1 X49.0339 Y31.4989 Z-2.0000 F300.0000 S0.0
G1 X50.3742 Y32.5551 Z-2.0000 F300.0000 S0.0
G1 X51.5150 Y33.7568 Z-2.0000 F300.0000 S0.0
G1 X52.4537 Y35.0701 Z-2.0000 F300.0000 S0.0
G1 X53.1881 Y36.4613 Z-2.0000 F300.0000 S0.0
G1 X53.7157 Y37.8966 Z-2.0000 F300.0000 S0.0
G1 X54.0340 Y39.3422 Z-2.0000 F300.0000 S0.0
G1 X54.1406 Y40.7644 Z-2.0000 F300.0000 S0.0
G0 Z5.0000
G0 X45.0280 Y34.0817 Z5.0000
G0 X45.0280 Y34.0817 Z3.0000
G1 X45.0280 Y34.0817 Z-2.0000 F300.0000 S0.0
G1 X45.0333 Y35.1330 Z-2.0000 F300.0000 S0.0
G1 X45.1396 Y36.4269 Z-2.0000 F300.0000 S0.0
G1 X45.3581 Y37.8456 Z-2.0000 F300.0000 S0.0
G1 X45.6999 Y39.2709 Z-2.0000 F300.0000 S0.0
G1 X46.1764 Y40.5849 Z-2.0000 F300.0000 S0.0
G1 X46.7987 Y41.6696 Z-2.0000 F300.0000 S0.0
G1 X47.5781 Y42.4069 Z-2.0000 F300.0000 S0.0
G1 X48.5258 Y42.6789 Z-2.0000 F300.0000 S0.0
G1 X48.7040 Y42.6637 Z-2.0000 F300.0000 S0.0
G1 X48.8701 Y42.6186 Z-2.0000 F300.0000 S0.0
G1 X49.0234 Y42.5443 Z-2.0000 F300.0000 S0.0
G1 X49.1633 Y42.4417 Z-2.0000 F300.0000 S0.0
G1 X49.2891 Y42.3114 Z-2.0000 F300.0000 S0.0
G1 X49.4002 Y42.1543 Z-2.0000 F300.0000 S0.0
G1 X49.4960 Y41.9711 Z-2.0000 F300.0000 S0.0
G1 X49.5758 Y41.7626 Z-2.0000 F300.0000 S0.0
G1 X49.6390 Y41.5295 Z-2.0000 F300.0000 S0.0
G1 X49.6849 Y41.2727 Z-2.0000 F300.0000 S0.0
G1 X49.7129 Y40.9928 Z-2.0000 F300.0000 S0.0
G1 X49.7224 Y40.6907 Z-2.0000 F300.0000 S0.0
G1 X49.6393 Y39.4436 Z-2.0000 F300.0000 S0.0
G1 X49.3962 Y38.2520 Z-2.0000 F300.0000 S0.0
G1 X49.0020 Y37.1304 Z-2.0000 F300.0000 S0.0
G1 X48.4659 Y36.0930 Z-2.0000 F300.0000 S0.0
G1 X47.7969 Y35.1539 Z-2.0000 F300.0000 S0.0
G1 X47.0041 Y34.3274 Z-2.0000 F300.0000 S0.0
G1 X46.0965 Y33.6278 Z-2.0000 F300.0000 S0.0
G1 X45.0832 Y33.0692 Z-2.0000 F300.0000 S0.0
G1 X45.0280 Y34.0817 Z-2.0000 F300.0000 S0.0
G0 Z5.0000
G0 X66.0074 Y7.4985 Z5.0000
G0 X66.0074 Y7.4985 Z3.0000
G1 X66.0074 Y7.4985 Z-2.0000 F300.0000 S0.0
G1 X66.0625 Y6.5297 Z-2.0000 F300.0000 S0.0
G1 X66.2237 Y5.6079 Z-2.0000 F300.0000 S0.0
G1 X66.4850 Y4.7426 Z-2.0000 F300.0000 S0.0
G1 X66.8401 Y3.9434 Z-2.0000 F300.0000 S0.0
G1 X67.2830 Y3.2198 Z-2.0000 F300.0000 S0.0
G1 X67.8074 Y2.5813 Z-2.0000 F300.0000 S0.0
G1 X68.4072 Y2.0375 Z-2.0000 F300.0000 S0.0
G1 X69.0764 Y1.5979 Z-2.0000 F300.0000 S0.0
G1 X69.8087 Y1.2721 Z-2.0000 F300.0000 S0.0
G1 X70.5980 Y1.0696 Z-2.0000 F300.0000 S0.0
G1 X71.4381 Y1.0000 Z-2.0000 F300.0000 S0.0
G1 X72.1057 Y1.0377 Z-2.0000 F300.0000 S0.0
G1 X72.7686 Y1.1542 Z-2.0000 F300.0000 S0.0
G1 X73.4185 Y1.3543 Z-2.0000 F300.0000 S0.0
G1 X74.0468 Y1.6429 Z-2.0000 F300.0000 S0.0
G1 X74.6451 Y2.0248 Z-2.0000 F300.0000 S0.0
G1 X75.2048 Y2.5050 Z-2.0000 F300.0000 S0.0
G1 X75.7174 Y3.0883 Z-2.0000 F300.0000 S0.0
G1 X76.1745 Y3.7795 Z-2.0000 F300.0000 S0.0
G1 X76.5675 Y4.5837 Z-2.0000 F300.0000 S0.0
G1 X76.8880 Y5.5056 Z-2.0000 F300.0000 S0.0
G1 X77.1274 Y6.5501 Z-2.0000 F300.0000 S0.0
G1 X77.2773 Y7.7221 Z-2.0000 F300.0000 S0.0
G1 X77.3292 Y9.0265 Z-2.0000 F300.0000 S0.0
G1 X77.3292 Y18.8019 Z-2.0000 F300.0000 S0.0
G1 X78.8682 Y20.2038 Z-2.0000 F300.0000 S0.0
G1 X80.4001 Y21.7877 Z-2.0000 F300.0000 S0.0
G1 X81.8809 Y23.6252 Z-2.0000 F300.0000 S0.0
G1 X83.2665 Y25.7880 Z-2.0000 F300.0000 S0.0
G1 X84.5131 Y28.3475 Z-2.0000 F300.0000 S0.0
G1 X85.5766 Y31.3756 Z-2.0000 F300.0000 S0.0
G1 X85.5999 Y31.4893 Z-2.0000 F300.0000 S0.0
G1 X85.6154 Y31.6046 Z-2.0000 F300.0000 S0.0
G1 X85.6249 Y31.7138 Z-2.0000 F300.0000 S0.0
G1 X85.6298 Y31.8092 Z-2.0000 F300.0000 S0.0
G1 X85.6316 Y31.8831 Z-2.0000 F300.0000 S0.0
G1 X85.6318 Y31.9278 Z-2.0000 F300.0000 S0.0
G1 X85.5940 Y32.2934 Z-2.0000 F300.0000 S0.0
G1 X85.4872 Y32.6586 Z-2.0000 F300.0000 S0.0
G1 X85.3216 Y33.0119 Z-2.0000 F300.0000 S0.0
G1 X85.1074 Y33.3421 Z-2.0000 F300.0000 S0.0
G1 X84.8547 Y33.6377 Z-2.0000 F300.0000 S0.0
G1 X84.5736 Y33.8874 Z-2.0000 F300.0000 S0.0
G1 X84.2744 Y34.0798 Z-2.0000 F300.0000 S0.0
G1 X83.9671 Y34.2036 Z-2.0000 F300.0000 S0.0
G1 X83.6620 Y34.2474 Z-2.0000 F300.0000 S0.0
G1 X83.5095 Y34.2349 Z-2.0000 F300.0000 S0.0
G1 X83.3633 Y34.1969 Z-2.0000 F300.0000 S0.0
G1 X83.2231 Y34.1324 Z-2.0000 F300.0000 S0.0
G1 X83.0888 Y34.0405 Z-2.0000 F300.0000 S0.0
G1 X82.9602 Y33.9203 Z-2.0000 F300.0000 S0.0
G1 X82.8372 Y33.7709 Z-2.0000 F300.0000 S0.0
G1 X82.7196 Y33.5914 Z-2.0000 F300.0000 S0.0
G1 X82.6072 Y33.3808 Z-2.0000 F300.0000 S0.0
G1 X82.4998 Y33.1383 Z-2.0000 F300.0000 S0.0
G1 X82.3974 Y32.8629 Z-2.0000 F300.0000 S0.0
G1 X82.2997 Y32.5538 Z-2.0000 F300.0000 S0.0
G1 X81.3341 Y29.8194 Z-2.0000 F300.0000 S0.0
G1 X80.1527 Y27.4405 Z-2.0000 F300.0000 S0.0
G1 X78.8022 Y25.3724 Z-2.0000 F300.0000 S0.0
G1 X77.3292 Y23.5700 Z-2.0000 F300.0000 S0.0
G1 X77.3292 Y38.9418 Z-2.0000 F300.0000 S0.0
G1 X77.2999 Y39.3068 Z-2.0000 F300.0000 S0.0
G1 X77.2137 Y39.6559 Z-2.0000 F300.0000 S0.0
G1 X77.0730 Y39.9851 Z-2.0000 F300.0000 S0.0
G1 X76.8801 Y40.2905 Z-2.0000 F300.0000 S0.0
G1 X76.6376 Y40.5682 Z-2.0000 F300.0000 S0.0
G1 X76.3477 Y40.8140 Z-2.0000 F300.0000 S0.0
G1 X76.0130 Y41.0241 Z-2.0000 F300.0000 S0.0
G1 X75.6358 Y41.1944 Z-2.0000 F300.0000 S0.0
G1 X75.2185 Y41.3210 Z-2.0000 F300.0000 S0.0
G1 X74.7635 Y41.3999 Z-2.0000 F300.0000 S0.0
G1 X74.2732 Y41.4271 Z-2.0000 F300.0000 S0.0
G1 X74.0605 Y41.4177 Z-2.0000 F300.0000 S0.0
G1 X73.8558 Y41.3900 Z-2.0000 F300.0000 S0.0
G1 X73.6617 Y41.3449 Z-2.0000 F300.0000 S0.0
G1 X73.4809 Y41.2835 Z-2.0000 F300.0000 S0.0
G1 X73.3158 Y41.2065 Z-2.0000 F300.0000 S0.0
G1 X73.1690 Y41.1149 Z-2.0000 F300.0000 S0.0
G1 X73.0432 Y41.0096 Z-2.0000 F300.0000 S0.0
G1 X72.9409 Y40.8916 Z-2.0000 F300.0000 S0.0
G1 X72.8646 Y40.7616 Z-2.0000 F300.0000 S0.0
G1 X72.8169 Y40.6207 Z-2.0000 F300.0000 S0.0
G1 X72.8004 Y40.4698 Z-2.0000 F300.0000 S0.0
G1 X72.8099 Y40.3251 Z-2.0000 F300.0000 S0.0
G1 X72.8350 Y40.1750 Z-2.0000 F300.0000 S0.0
