(Exported by FreeCAD)
(Post Processor: smoothie_post)
(Output Time:2021-02-14 18:42:03.902875)
(begin preamble)
G17 G90
G21
(begin operation: T3: Fraise 6mm)
(T3: Fraise 6mm)
M6 T3.0
M3 S0.0
(finish operation: T3: Fraise 6mm)
(begin operation: Engrave)
(Engrave)
G0 Z5.0000
G0 X39.8601 Y126.9647 Z5.0000
G0 X39.8601 Y126.9647 Z3.0000
G1 X39.8601 Y126.9647 Z-2.0000 F1200.0000 S0.0
G1 X39.7847 Y127.8405 Z-2.0000 F1200.0000 S0.0
G1 X39.5635 Y128.6783 Z-2.0000 F1200.0000 S0.0
G1 X39.2040 Y129.4685 Z-2.0000 F1200.0000 S0.0
G1 X38.7139 Y130.2016 Z-2.0000 F1200.0000 S0.0
G1 X38.1008 Y130.8679 Z-2.0000 F1200.0000 S0.0
G1 X37.3721 Y131.4579 Z-2.0000 F1200.0000 S0.0
G1 X36.5354 Y131.9621 Z-2.0000 F1200.0000 S0.0
G1 X35.5984 Y132.3709 Z-2.0000 F1200.0000 S0.0
G1 X34.5685 Y132.6748 Z-2.0000 F1200.0000 S0.0
G1 X33.4534 Y132.8641 Z-2.0000 F1200.0000 S0.0
G1 X32.2607 Y132.9293 Z-2.0000 F1200.0000 S0.0
G1 X31.7501 Y132.9057 Z-2.0000 F1200.0000 S0.0
G1 X31.2589 Y132.8366 Z-2.0000 F1200.0000 S0.0
G1 X30.7932 Y132.7250 Z-2.0000 F1200.0000 S0.0
G1 X30.3591 Y132.5735 Z-2.0000 F1200.0000 S0.0
G1 X29.9629 Y132.3849 Z-2.0000 F1200.0000 S0.0
G1 X29.6107 Y132.1621 Z-2.0000 F1200.0000 S0.0
G1 X29.3087 Y131.9078 Z-2.0000 F1200.0000 S0.0
G1 X29.0631 Y131.6249 Z-2.0000 F1200.0000 S0.0
G1 X28.8800 Y131.3160 Z-2.0000 F1200.0000 S0.0
G1 X28.7656 Y130.9841 Z-2.0000 F1200.0000 S0.0
G1 X28.7261 Y130.6318 Z-2.0000 F1200.0000 S0.0
G1 X28.7579 Y130.2203 Z-2.0000 F1200.0000 S0.0
G1 X28.8399 Y129.7956 Z-2.0000 F1200.0000 S0.0
G1 X28.9521 Y129.3229 Z-2.0000 F1200.0000 S0.0
G1 X29.0744 Y128.7676 Z-2.0000 F1200.0000 S0.0
G1 X29.1866 Y128.0949 Z-2.0000 F1200.0000 S0.0
G1 X29.2686 Y127.2698 Z-2.0000 F1200.0000 S0.0
G1 X29.3004 Y126.2577 Z-2.0000 F1200.0000 S0.0
G1 X29.3004 Y74.2990 Z-2.0000 F1200.0000 S0.0
G1 X29.3836 Y71.0873 Z-2.0000 F1200.0000 S0.0
G1 X29.6397 Y68.1034 Z-2.0000 F1200.0000 S0.0
G1 X30.0785 Y65.3524 Z-2.0000 F1200.0000 S0.0
G1 X30.7098 Y62.8394 Z-2.0000 F1200.0000 S0.0
G1 X31.5433 Y60.5694 Z-2.0000 F1200.0000 S0.0
G1 X32.5887 Y58.5474 Z-2.0000 F1200.0000 S0.0
G1 X33.8560 Y56.7786 Z-2.0000 F1200.0000 S0.0
G1 X35.3548 Y55.2681 Z-2.0000 F1200.0000 S0.0
G1 X37.0949 Y54.0208 Z-2.0000 F1200.0000 S0.0
G1 X39.0862 Y53.0418 Z-2.0000 F1200.0000 S0.0
G1 X41.3383 Y52.3363 Z-2.0000 F1200.0000 S0.0
G1 X43.8610 Y51.9093 Z-2.0000 F1200.0000 S0.0
G1 X46.6642 Y51.7658 Z-2.0000 F1200.0000 S0.0
G1 X50.4716 Y52.2019 Z-2.0000 F1200.0000 S0.0
G1 X54.3729 Y53.5020 Z-2.0000 F1200.0000 S0.0
G1 X58.2870 Y55.6539 Z-2.0000 F1200.0000 S0.0
G1 X62.1330 Y58.6452 Z-2.0000 F1200.0000 S0.0
G1 X65.8300 Y62.4638 Z-2.0000 F1200.0000 S0.0
G1 X69.2968 Y67.0972 Z-2.0000 F1200.0000 S0.0
G1 X72.4524 Y72.5333 Z-2.0000 F1200.0000 S0.0
G1 X75.2160 Y78.7598 Z-2.0000 F1200.0000 S0.0
G1 X77.5064 Y85.7644 Z-2.0000 F1200.0000 S0.0
G1 X79.2428 Y93.5348 Z-2.0000 F1200.0000 S0.0
G1 X80.3439 Y102.0587 Z-2.0000 F1200.0000 S0.0
G1 X80.7290 Y111.3240 Z-2.0000 F1200.0000 S0.0
G1 X80.4979 Y116.7598 Z-2.0000 F1200.0000 S0.0
G1 X79.7973 Y122.0860 Z-2.0000 F1200.0000 S0.0
G1 X78.6158 Y127.2332 Z-2.0000 F1200.0000 S0.0
G1 X76.9424 Y132.1324 Z-2.0000 F1200.0000 S0.0
G1 X74.7658 Y136.7143 Z-2.0000 F1200.0000 S0.0
G1 X72.0747 Y140.9098 Z-2.0000 F1200.0000 S0.0
G1 X68.8581 Y144.6496 Z-2.0000 F1200.0000 S0.0
G1 X65.1047 Y147.8647 Z-2.0000 F1200.0000 S0.0
G1 X60.8033 Y150.4857 Z-2.0000 F1200.0000 S0.0
G1 X55.9428 Y152.4435 Z-2.0000 F1200.0000 S0.0
G1 X50.5118 Y153.6689 Z-2.0000 F1200.0000 S0.0
G1 X44.4993 Y154.0928 Z-2.0000 F1200.0000 S0.0
G1 X38.7287 Y153.7395 Z-2.0000 F1200.0000 S0.0
G1 X33.3198 Y152.7021 Z-2.0000 F1200.0000 S0.0
G1 X28.2994 Y151.0145 Z-2.0000 F1200.0000 S0.0
G1 X23.6942 Y148.7107 Z-2.0000 F1200.0000 S0.0
G1 X19.5307 Y145.8245 Z-2.0000 F1200.0000 S0.0
G1 X15.8358 Y142.3899 Z-2.0000 F1200.0000 S0.0
G1 X12.6361 Y138.4408 Z-2.0000 F1200.0000 S0.0
G1 X9.9583 Y134.0110 Z-2.0000 F1200.0000 S0.0
G1 X7.8291 Y129.1344 Z-2.0000 F1200.0000 S0.0
G1 X6.2752 Y123.8451 Z-2.0000 F1200.0000 S0.0
G1 X5.3232 Y118.1768 Z-2.0000 F1200.0000 S0.0
G1 X5.0000 Y112.1635 Z-2.0000 F1200.0000 S0.0
G1 X5.2141 Y107.5698 Z-2.0000 F1200.0000 S0.0
G1 X5.8069 Y103.3562 Z-2.0000 F1200.0000 S0.0
G1 X6.7045 Y99.5252 Z-2.0000 F1200.0000 S0.0
G1 X7.8326 Y96.0794 Z-2.0000 F1200.0000 S0.0
G1 X9.1172 Y93.0214 Z-2.0000 F1200.0000 S0.0
G1 X10.4842 Y90.3538 Z-2.0000 F1200.0000 S0.0
G1 X11.8594 Y88.0793 Z-2.0000 F1200.0000 S0.0
G1 X13.1689 Y86.2005 Z-2.0000 F1200.0000 S0.0
G1 X14.3384 Y84.7199 Z-2.0000 F1200.0000 S0.0
G1 X15.2939 Y83.6401 Z-2.0000 F1200.0000 S0.0
G1 X15.9614 Y82.9639 Z-2.0000 F1200.0000 S0.0
G1 X16.2666 Y82.6937 Z-2.0000 F1200.0000 S0.0
G1 X16.6688 Y82.4211 Z-2.0000 F1200.0000 S0.0
G1 X17.0774 Y82.2313 Z-2.0000 F1200.0000 S0.0
G1 X17.4881 Y82.1115 Z-2.0000 F1200.0000 S0.0
G1 X17.8967 Y82.0490 Z-2.0000 F1200.0000 S0.0
G1 X18.2990 Y82.0309 Z-2.0000 F1200.0000 S0.0
G1 X19.3479 Y82.1888 Z-2.0000 F1200.0000 S0.0
G1 X20.3837 Y82.6329 Z-2.0000 F1200.0000 S0.0
G1 X21.3770 Y83.3188 Z-2.0000 F1200.0000 S0.0
G1 X22.2983 Y84.2021 Z-2.0000 F1200.0000 S0.0
G1 X23.1181 Y85.2386 Z-2.0000 F1200.0000 S0.0
G1 X23.8071 Y86.3837 Z-2.0000 F1200.0000 S0.0
G1 X24.3356 Y87.5933 Z-2.0000 F1200.0000 S0.0
G1 X24.6744 Y88.8228 Z-2.0000 F1200.0000 S0.0
G1 X24.7938 Y90.0280 Z-2.0000 F1200.0000 S0.0
G1 X24.7875 Y90.2794 Z-2.0000 F1200.0000 S0.0
G1 X24.7681 Y90.5192 Z-2.0000 F1200.0000 S0.0
G1 X24.7350 Y90.7460 Z-2.0000 F1200.0000 S0.0
G1 X24.6875 Y90.9586 Z-2.0000 F1200.0000 S0.0
G1 X24.6250 Y91.1556 Z-2.0000 F1200.0000 S0.0
G1 X24.5468 Y91.3359 Z-2.0000 F1200.0000 S0.0
G1 X24.4524 Y91.4980 Z-2.0000 F1200.0000 S0.0
G1 X24.3409 Y91.6406 Z-2.0000 F1200.0000 S0.0
G1 X24.2119 Y91.7626 Z-2.0000 F1200.0000 S0.0
G1 X24.0646 Y91.8626 Z-2.0000 F1200.0000 S0.0
G1 X23.8984 Y91.9393 Z-2.0000 F1200.0000 S0.0
G1 X23.7127 Y91.9913 Z-2.0000 F1200.0000 S0.0
G1 X23.5068 Y92.0175 Z-2.0000 F1200.0000 S0.0
G1 X23.2800 Y92.0165 Z-2.0000 F1200.0000 S0.0
G1 X23.0318 Y91.9871 Z-2.0000 F1200.0000 S0.0
G1 X22.7614 Y91.9278 Z-2.0000 F1200.0000 S0.0
G1 X22.4742 Y92.2135 Z-2.0000 F1200.0000 S0.0
G1 X21.9402 Y92.8483 Z-2.0000 F1200.0000 S0.0
G1 X21.2171 Y93.8243 Z-2.0000 F1200.0000 S0.0
G1 X20.3629 Y95.1335 Z-2.0000 F1200.0000 S0.0
G1 X19.4351 Y96.7680 Z-2.0000 F1200.0000 S0.0
G1 X18.4916 Y98.7197 Z-2.0000 F1200.0000 S0.0
G1 X17.5901 Y100.9808 Z-2.0000 F1200.0000 S0.0
G1 X16.7884 Y103.5432 Z-2.0000 F1200.0000 S0.0
G1 X16.1443 Y106.3990 Z-2.0000 F1200.0000 S0.0
G1 X15.7154 Y109.5401 Z-2.0000 F1200.0000 S0.0
G1 X15.5596 Y112.9588 Z-2.0000 F1200.0000 S0.0
G1 X15.6909 Y116.5887 Z-2.0000 F1200.0000 S0.0
G1 X16.1091 Y120.2346 Z-2.0000 F1200.0000 S0.0
G1 X16.8506 Y123.8332 Z-2.0000 F1200.0000 S0.0
G1 X17.9521 Y127.3214 Z-2.0000 F1200.0000 S0.0
G1 X19.4499 Y130.6359 Z-2.0000 F1200.0000 S0.0
G1 X21.3807 Y133.7135 Z-2.0000 F1200.0000 S0.0
G1 X23.7809 Y136.4911 Z-2.0000 F1200.0000 S0.0
G1 X26.6871 Y138.9054 Z-2.0000 F1200.0000 S0.0
G1 X30.1358 Y140.8932 Z-2.0000 F1200.0000 S0.0
G1 X34.1634 Y142.3913 Z-2.0000 F1200.0000 S0.0
G1 X38.8065 Y143.3366 Z-2.0000 F1200.0000 S0.0
G1 X44.1016 Y143.6657 Z-2.0000 F1200.0000 S0.0
G1 X48.3953 Y143.3586 Z-2.0000 F1200.0000 S0.0
G1 X52.2689 Y142.4648 Z-2.0000 F1200.0000 S0.0
G1 X55.7313 Y141.0251 Z-2.0000 F1200.0000 S0.0
G1 X58.7915 Y139.0805 Z-2.0000 F1200.0000 S0.0
G1 X61.4584 Y136.6720 Z-2.0000 F1200.0000 S0.0
G1 X63.7408 Y133.8406 Z-2.0000 F1200.0000 S0.0
G1 X65.6477 Y130.6271 Z-2.0000 F1200.0000 S0.0
G1 X67.1879 Y127.0727 Z-2.0000 F1200.0000 S0.0
G1 X68.3703 Y123.2181 Z-2.0000 F1200.0000 S0.0
G1 X69.2039 Y119.1044 Z-2.0000 F1200.0000 S0.0
G1 X69.6975 Y114.7726 Z-2.0000 F1200.0000 S0.0
G1 X69.8601 Y110.2636 Z-2.0000 F1200.0000 S0.0
G1 X69.5714 Y103.0195 Z-2.0000 F1200.0000 S0.0
G1 X68.7467 Y96.1525 Z-2.0000 F1200.0000 S0.0
G1 X67.4482 Y89.7284 Z-2.0000 F1200.0000 S0.0
G1 X65.7381 Y83.8131 Z-2.0000 F1200.0000 S0.0
G1 X63.6783 Y78.4727 Z-2.0000 F1200.0000 S0.0
G1 X61.3312 Y73.7730 Z-2.0000 F1200.0000 S0.0
G1 X58.7588 Y69.7800 Z-2.0000 F1200.0000 S0.0
G1 X56.0233 Y66.5595 Z-2.0000 F1200.0000 S0.0
G1 X53.1868 Y64.1776 Z-2.0000 F1200.0000 S0.0
G1 X50.3115 Y62.7001 Z-2.0000 F1200.0000 S0.0
G1 X47.4595 Y62.1929 Z-2.0000 F1200.0000 S0.0
G1 X46.2716 Y62.2626 Z-2.0000 F1200.0000 S0.0
G1 X45.1940 Y62.4707 Z-2.0000 F1200.0000 S0.0
G1 X44.2241 Y62.8163 Z-2.0000 F1200.0000 S0.0
G1 X43.3591 Y63.2982 Z-2.0000 F1200.0000 S0.0
G1 X42.5964 Y63.9154 Z-2.0000 F1200.0000 S0.0
G1 X41.9334 Y64.6668 Z-2.0000 F1200.0000 S0.0
G1 X41.3674 Y65.5512 Z-2.0000 F1200.0000 S0.0
G1 X40.8958 Y66.5677 Z-2.0000 F1200.0000 S0.0
G1 X40.5158 Y67.7151 Z-2.0000 F1200.0000 S0.0
G1 X40.2250 Y68.9923 Z-2.0000 F1200.0000 S0.0
G1 X40.0205 Y70.3982 Z-2.0000 F1200.0000 S0.0
G1 X39.8997 Y71.9319 Z-2.0000 F1200.0000 S0.0
G1 X39.8601 Y73.5920 Z-2.0000 F1200.0000 S0.0
G1 X39.8601 Y126.9647 Z-2.0000 F1200.0000 S0.0
G0 Z5.0000
G0 X125.5376 Y96.4345 Z5.0000
G0 X125.5376 Y96.4345 Z3.0000
G1 X125.5376 Y96.4345 Z-2.0000 F1200.0000 S0.0
G1 X125.4419 Y98.4117 Z-2.0000 F1200.0000 S0.0
G1 X125.1587 Y100.2718 Z-2.0000 F1200.0000 S0.0
G1 X124.6939 Y102.0042 Z-2.0000 F1200.0000 S0.0
G1 X124.0533 Y103.5986 Z-2.0000 F1200.0000 S0.0
G1 X123.2428 Y105.0444 Z-2.0000 F1200.0000 S0.0
G1 X122.2680 Y106.3314 Z-2.0000 F1200.0000 S0.0
G1 X121.1350 Y107.4489 Z-2.0000 F1200.0000 S0.0
G1 X119.8495 Y108.3867 Z-2.0000 F1200.0000 S0.0
G1 X118.4172 Y109.1342 Z-2.0000 F1200.0000 S0.0
G1 X116.8442 Y109.6811 Z-2.0000 F1200.0000 S0.0
G1 X115.1362 Y110.0168 Z-2.0000 F1200.0000 S0.0
G1 X113.2990 Y110.1311 Z-2.0000 F1200.0000 S0.0
G1 X110.4651 Y109.8176 Z-2.0000 F1200.0000 S0.0
G1 X107.6818 Y108.9031 Z-2.0000 F1200.0000 S0.0
G1 X104.9954 Y107.4261 Z-2.0000 F1200.0000 S0.0
G1 X102.4519 Y105.4253 Z-2.0000 F1200.0000 S0.0
G1 X100.0976 Y102.9394 Z-2.0000 F1200.0000 S0.0
G1 X97.9788 Y100.0068 Z-2.0000 F1200.0000 S0.0
G1 X96.1416 Y96.6664 Z-2.0000 F1200.0000 S0.0
G1 X94.6322 Y92.9567 Z-2.0000 F1200.0000 S0.0
G1 X93.4969 Y88.9164 Z-2.0000 F1200.0000 S0.0
G1 X92.7818 Y84.5842 Z-2.0000 F1200.0000 S0.0
G1 X92.5331 Y79.9985 Z-2.0000 F1200.0000 S0.0
G1 X92.8141 Y75.5478 Z-2.0000 F1200.0000 S0.0
G1 X93.6241 Y71.4585 Z-2.0000 F1200.0000 S0.0
G1 X94.9136 Y67.7439 Z-2.0000 F1200.0000 S0.0
G1 X96.6334 Y64.4170 Z-2.0000 F1200.0000 S0.0
G1 X98.7340 Y61.4911 Z-2.0000 F1200.0000 S0.0
G1 X101.1660 Y58.9793 Z-2.0000 F1200.0000 S0.0
G1 X103.8800 Y56.8947 Z-2.0000 F1200.0000 S0.0
G1 X106.8267 Y55.2504 Z-2.0000 F1200.0000 S0.0
G1 X109.9566 Y54.0597 Z-2.0000 F1200.0000 S0.0
G1 X113.2203 Y53.3356 Z-2.0000 F1200.0000 S0.0
G1 X116.5685 Y53.0913 Z-2.0000 F1200.0000 S0.0
G1 X121.6611 Y53.4804 Z-2.0000 F1200.0000 S0.0
G1 X126.0766 Y54.5737 Z-2.0000 F1200.0000 S0.0
G1 X129.8607 Y56.2605 Z-2.0000 F1200.0000 S0.0
G1 X133.0593 Y58.4301 Z-2.0000 F1200.0000 S0.0
G1 X135.7180 Y60.9718 Z-2.0000 F1200.0000 S0.0
G1 X137.8829 Y63.7748 Z-2.0000 F1200.0000 S0.0
G1 X139.5996 Y66.7284 Z-2.0000 F1200.0000 S0.0
G1 X140.9140 Y69.7218 Z-2.0000 F1200.0000 S0.0
G1 X141.8719 Y72.6443 Z-2.0000 F1200.0000 S0.0
G1 X142.5191 Y75.3851 Z-2.0000 F1200.0000 S0.0
G1 X142.9013 Y77.8336 Z-2.0000 F1200.0000 S0.0
G1 X142.9269 Y78.3909 Z-2.0000 F1200.0000 S0.0
G1 X142.8799 Y78.9265 Z-2.0000 F1200.0000 S0.0
G1 X142.7660 Y79.4377 Z-2.0000 F1200.0000 S0.0
G1 X142.5908 Y79.9219 Z-2.0000 F1200.0000 S0.0
G1 X142.3598 Y80.3764 Z-2.0000 F1200.0000 S0.0
G1 X142.0786 Y80.7986 Z-2.0000 F1200.0000 S0.0
G1 X141.7527 Y81.1858 Z-2.0000 F1200.0000 S0.0
G1 X141.3878 Y81.5354 Z-2.0000 F1200.0000 S0.0
G1 X140.9893 Y81.8447 Z-2.0000 F1200.0000 S0.0
G1 X140.5628 Y82.1112 Z-2.0000 F1200.0000 S0.0
G1 X140.1140 Y82.3320 Z-2.0000 F1200.0000 S0.0
G1 X139.6483 Y82.5047 Z-2.0000 F1200.0000 S0.0
G1 X139.1714 Y82.6266 Z-2.0000 F1200.0000 S0.0
G1 X138.6887 Y82.6949 Z-2.0000 F1200.0000 S0.0
G1 X138.2059 Y82.7071 Z-2.0000 F1200.0000 S0.0
G1 X137.7286 Y82.6605 Z-2.0000 F1200.0000 S0.0
G1 X137.2622 Y82.5525 Z-2.0000 F1200.0000 S0.0
G1 X136.8125 Y82.3804 Z-2.0000 F1200.0000 S0.0
G1 X136.3848 Y82.1415 Z-2.0000 F1200.0000 S0.0
G1 X135.9848 Y81.8333 Z-2.0000 F1200.0000 S0.0
G1 X135.6181 Y81.4531 Z-2.0000 F1200.0000 S0.0
G1 X135.2902 Y80.9982 Z-2.0000 F1200.0000 S0.0
G1 X135.0066 Y80.4660 Z-2.0000 F1200.0000 S0.0
G1 X134.7731 Y79.8538 Z-2.0000 F1200.0000 S0.0
G1 X134.5950 Y79.1591 Z-2.0000 F1200.0000 S0.0
G1 X134.0309 Y76.6726 Z-2.0000 F1200.0000 S0.0
G1 X133.2794 Y74.2081 Z-2.0000 F1200.0000 S0.0
G1 X132.3201 Y71.8221 Z-2.0000 F1200.0000 S0.0
G1 X131.1325 Y69.5711 Z-2.0000 F1200.0000 S0.0
G1 X129.6962 Y67.5114 Z-2.0000 F1200.0000 S0.0
G1 X127.9909 Y65.6996 Z-2.0000 F1200.0000 S0.0
G1 X125.9961 Y64.1922 Z-2.0000 F1200.0000 S0.0
G1 X123.6914 Y63.0455 Z-2.0000 F1200.0000 S0.0
G1 X121.0564 Y62.3161 Z-2.0000 F1200.0000 S0.0
G1 X118.0707 Y62.0604 Z-2.0000 F1200.0000 S0.0
G1 X115.8380 Y62.1971 Z-2.0000 F1200.0000 S0.0
G1 X113.8439 Y62.5908 Z-2.0000 F1200.0000 S0.0
G1 X112.0749 Y63.2173 Z-2.0000 F1200.0000 S0.0
G1 X110.5176 Y64.0522 Z-2.0000 F1200.0000 S0.0
G1 X109.1584 Y65.0710 Z-2.0000 F1200.0000 S0.0
G1 X107.9840 Y66.2495 Z-2.0000 F1200.0000 S0.0
G1 X106.9808 Y67.5633 Z-2.0000 F1200.0000 S0.0
G1 X106.1354 Y68.9880 Z-2.0000 F1200.0000 S0.0
G1 X105.4345 Y70.4993 Z-2.0000 F1200.0000 S0.0
G1 X109.5916 Y72.0927 Z-2.0000 F1200.0000 S0.0
G1 X113.2814 Y74.1974 Z-2.0000 F1200.0000 S0.0
G1 X116.4981 Y76.7323 Z-2.0000 F1200.0000 S0.0
G1 X119.2359 Y79.6163 Z-2.0000 F1200.0000 S0.0
G1 X121.4890 Y82.7683 Z-2.0000 F1200.0000 S0.0
G1 X123.2515 Y86.1072 Z-2.0000 F1200.0000 S0.0
G1 X124.5177 Y89.5519 Z-2.0000 F1200.0000 S0.0
G1 X125.2816 Y93.0214 Z-2.0000 F1200.0000 S0.0
G1 X125.5376 Y96.4345 Z-2.0000 F1200.0000 S0.0
G0 Z5.0000
G0 X103.6672 Y80.3962 Z5.0000
G0 X103.6672 Y80.3962 Z3.0000
G1 X103.6672 Y80.3962 Z-2.0000 F1200.0000 S0.0
G1 X103.6799 Y82.9192 Z-2.0000 F1200.0000 S0.0
G1 X103.9350 Y86.0246 Z-2.0000 F1200.0000 S0.0
G1 X104.4593 Y89.4294 Z-2.0000 F1200.0000 S0.0
G1 X105.2798 Y92.8501 Z-2.0000 F1200.0000 S0.0
G1 X106.4234 Y96.0038 Z-2.0000 F1200.0000 S0.0
G1 X107.9170 Y98.6070 Z-2.0000 F1200.0000 S0.0
G1 X109.7875 Y100.3766 Z-2.0000 F1200.0000 S0.0
G1 X112.0619 Y101.0295 Z-2.0000 F1200.0000 S0.0
G1 X112.4896 Y100.9929 Z-2.0000 F1200.0000 S0.0
G1 X112.8882 Y100.8846 Z-2.0000 F1200.0000 S0.0
G1 X113.2562 Y100.7064 Z-2.0000 F1200.0000 S0.0
G1 X113.5919 Y100.4600 Z-2.0000 F1200.0000 S0.0
G1 X113.8938 Y100.1473 Z-2.0000 F1200.0000 S0.0
G1 X114.1605 Y99.7703 Z-2.0000 F1200.0000 S0.0
G1 X114.3904 Y99.3306 Z-2.0000 F1200.0000 S0.0
G1 X114.5819 Y98.8301 Z-2.0000 F1200.0000 S0.0
G1 X114.7335 Y98.2708 Z-2.0000 F1200.0000 S0.0
G1 X114.8437 Y97.6544 Z-2.0000 F1200.0000 S0.0
G1 X114.9110 Y96.9828 Z-2.0000 F1200.0000 S0.0
G1 X114.9337 Y96.2577 Z-2.0000 F1200.0000 S0.0
G1 X114.7344 Y93.2645 Z-2.0000 F1200.0000 S0.0
G1 X114.1509 Y90.4049 Z-2.0000 F1200.0000 S0.0
G1 X113.2049 Y87.7131 Z-2.0000 F1200.0000 S0.0
G1 X111.9183 Y85.2231 Z-2.0000 F1200.0000 S0.0
G1 X110.3127 Y82.9693 Z-2.0000 F1200.0000 S0.0
G1 X108.4099 Y80.9857 Z-2.0000 F1200.0000 S0.0
G1 X106.2316 Y79.3066 Z-2.0000 F1200.0000 S0.0
G1 X103.7997 Y77.9661 Z-2.0000 F1200.0000 S0.0
G1 X103.6672 Y80.3962 Z-2.0000 F1200.0000 S0.0
G0 Z5.0000
G0 X147.0177 Y16.5965 Z5.0000
G0 X147.0177 Y16.5965 Z3.0000
G1 X147.0177 Y16.5965 Z-2.0000 F1200.0000 S0.0
G1 X147.1500 Y14.2714 Z-2.0000 F1200.0000 S0.0
G1 X147.5370 Y12.0590 Z-2.0000 F1200.0000 S0.0
G1 X148.1640 Y9.9823 Z-2.0000 F1200.0000 S0.0
G1 X149.0163 Y8.0641 Z-2.0000 F1200.0000 S0.0
G1 X150.0791 Y6.3274 Z-2.0000 F1200.0000 S0.0
G1 X151.3377 Y4.7950 Z-2.0000 F1200.0000 S0.0
G1 X152.7773 Y3.4899 Z-2.0000 F1200.0000 S0.0
G1 X154.3833 Y2.4349 Z-2.0000 F1200.0000 S0.0
G1 X156.1408 Y1.6530 Z-2.0000 F1200.0000 S0.0
G1 X158.0351 Y1.1671 Z-2.0000 F1200.0000 S0.0
G1 X160.0515 Y1.0000 Z-2.0000 F1200.0000 S0.0
G1 X161.6536 Y1.0906 Z-2.0000 F1200.0000 S0.0
G1 X163.2447 Y1.3701 Z-2.0000 F1200.0000 S0.0
G1 X164.8044 Y1.8503 Z-2.0000 F1200.0000 S0.0
G1 X166.3124 Y2.5429 Z-2.0000 F1200.0000 S0.0
G1 X167.7482 Y3.4595 Z-2.0000 F1200.0000 S0.0
G1 X169.0915 Y4.6119 Z-2.0000 F1200.0000 S0.0
G1 X170.3218 Y6.0118 Z-2.0000 F1200.0000 S0.0
G1 X171.4188 Y7.6709 Z-2.0000 F1200.0000 S0.0
G1 X172.3620 Y9.6008 Z-2.0000 F1200.0000 S0.0
G1 X173.1312 Y11.8134 Z-2.0000 F1200.0000 S0.0
G1 X173.7058 Y14.3202 Z-2.0000 F1200.0000 S0.0
G1 X174.0655 Y17.1331 Z-2.0000 F1200.0000 S0.0
G1 X174.1900 Y20.2636 Z-2.0000 F1200.0000 S0.0
G1 X174.1900 Y43.7246 Z-2.0000 F1200.0000 S0.0
G1 X177.8837 Y47.0890 Z-2.0000 F1200.0000 S0.0
G1 X181.5603 Y50.8904 Z-2.0000 F1200.0000 S0.0
G1 X185.1141 Y55.3004 Z-2.0000 F1200.0000 S0.0
G1 X188.4397 Y60.4911 Z-2.0000 F1200.0000 S0.0
G1 X191.4314 Y66.6341 Z-2.0000 F1200.0000 S0.0
G1 X193.9838 Y73.9013 Z-2.0000 F1200.0000 S0.0
G1 X194.0396 Y74.1744 Z-2.0000 F1200.0000 S0.0
G1 X194.0771 Y74.4512 Z-2.0000 F1200.0000 S0.0
G1 X194.0998 Y74.7132 Z-2.0000 F1200.0000 S0.0
G1 X194.1114 Y74.9421 Z-2.0000 F1200.0000 S0.0
G1 X194.1157 Y75.1194 Z-2.0000 F1200.0000 S0.0
G1 X194.1163 Y75.2268 Z-2.0000 F1200.0000 S0.0
G1 X194.0255 Y76.1043 Z-2.0000 F1200.0000 S0.0
G1 X193.7692 Y76.9807 Z-2.0000 F1200.0000 S0.0
G1 X193.3718 Y77.8287 Z-2.0000 F1200.0000 S0.0
G1 X192.8577 Y78.6210 Z-2.0000 F1200.0000 S0.0
G1 X192.2512 Y79.3305 Z-2.0000 F1200.0000 S0.0
G1 X191.5767 Y79.9298 Z-2.0000 F1200.0000 S0.0
G1 X190.8585 Y80.3916 Z-2.0000 F1200.0000 S0.0
G1 X190.1211 Y80.6887 Z-2.0000 F1200.0000 S0.0
G1 X189.3888 Y80.7938 Z-2.0000 F1200.0000 S0.0
G1 X189.0229 Y80.7639 Z-2.0000 F1200.0000 S0.0
G1 X188.6719 Y80.6726 Z-2.0000 F1200.0000 S0.0
G1 X188.3354 Y80.5178 Z-2.0000 F1200.0000 S0.0
G1 X188.0131 Y80.2972 Z-2.0000 F1200.0000 S0.0
G1 X187.7045 Y80.0088 Z-2.0000 F1200.0000 S0.0
G1 X187.4093 Y79.6502 Z-2.0000 F1200.0000 S0.0
G1 X187.1270 Y79.2193 Z-2.0000 F1200.0000 S0.0
G1 X186.8572 Y78.7139 Z-2.0000 F1200.0000 S0.0
G1 X186.5996 Y78.1319 Z-2.0000 F1200.0000 S0.0
G1 X186.3538 Y77.4710 Z-2.0000 F1200.0000 S0.0
G1 X186.1193 Y76.7290 Z-2.0000 F1200.0000 S0.0
G1 X183.8018 Y70.1665 Z-2.0000 F1200.0000 S0.0
G1 X180.9665 Y64.4573 Z-2.0000 F1200.0000 S0.0
G1 X177.7253 Y59.4936 Z-2.0000 F1200.0000 S0.0
G1 X174.1900 Y55.1679 Z-2.0000 F1200.0000 S0.0
G1 X174.1900 Y92.0604 Z-2.0000 F1200.0000 S0.0
G1 X174.1197 Y92.9362 Z-2.0000 F1200.0000 S0.0
G1 X173.9129 Y93.7740 Z-2.0000 F1200.0000 S0.0
G1 X173.5751 Y94.5643 Z-2.0000 F1200.0000 S0.0
G1 X173.1123 Y95.2973 Z-2.0000 F1200.0000 S0.0
G1 X172.5302 Y95.9636 Z-2.0000 F1200.0000 S0.0
G1 X171.8346 Y96.5537 Z-2.0000 F1200.0000 S0.0
G1 X171.0312 Y97.0579 Z-2.0000 F1200.0000 S0.0
G1 X170.1258 Y97.4667 Z-2.0000 F1200.0000 S0.0
G1 X169.1243 Y97.7705 Z-2.0000 F1200.0000 S0.0
G1 X168.0323 Y97.9598 Z-2.0000 F1200.0000 S0.0
G1 X166.8557 Y98.0250 Z-2.0000 F1200.0000 S0.0
G1 X166.3451 Y98.0024 Z-2.0000 F1200.0000 S0.0
G1 X165.8539 Y97.9359 Z-2.0000 F1200.0000 S0.0
G1 X165.3882 Y97.8279 Z-2.0000 F1200.0000 S0.0
G1 X164.9541 Y97.6803 Z-2.0000 F1200.0000 S0.0
G1 X164.5579 Y97.4956 Z-2.0000 F1200.0000 S0.0
G1 X164.2057 Y97.2758 Z-2.0000 F1200.0000 S0.0
G1 X163.9037 Y97.0231 Z-2.0000 F1200.0000 S0.0
G1 X163.6581 Y96.7397 Z-2.0000 F1200.0000 S0.0
G1 X163.4750 Y96.4279 Z-2.0000 F1200.0000 S0.0
G1 X163.3606 Y96.0898 Z-2.0000 F1200.0000 S0.0
G1 X163.3211 Y95.7275 Z-2.0000 F1200.0000 S0.0
G1 X163.3438 Y95.3802 Z-2.0000 F1200.0000 S0.0
G1 X163.4039 Y95.0199 Z-2.0000 F1200.0000 S0.0
G1 X163.4888 Y94.6255 Z-2.0000 F1200.0000 S0.0
G1 X163.5862 Y94.1756 Z-2.0000 F1200.0000 S0.0
G1 X163.6835 Y93.6491 Z-2.0000 F1200.0000 S0.0
G1 X163.7684 Y93.0248 Z-2.0000 F1200.0000 S0.0
G1 X163.8285 Y92.2814 Z-2.0000 F1200.0000 S0.0
G1 X163.8513 Y91.3976 Z-2.0000 F1200.0000 S0.0
G1 X163.8513 Y76.0663 Z-2.0000 F1200.0000 S0.0
G1 X163.4737 Y74.2016 Z-2.0000 F1200.0000 S0.0
G1 X162.9546 Y72.2799 Z-2.0000 F1200.0000 S0.0
G1 X162.2869 Y70.3749 Z-2.0000 F1200.0000 S0.0
G1 X161.4631 Y68.5604 Z-2.0000 F1200.0000 S0.0
G1 X160.4760 Y66.9103 Z-2.0000 F1200.0000 S0.0
G1 X159.3184 Y65.4984 Z-2.0000 F1200.0000 S0.0
G1 X157.9830 Y64.3985 Z-2.0000 F1200.0000 S0.0
G1 X156.4625 Y63.6845 Z-2.0000 F1200.0000 S0.0
G1 X154.7496 Y63.4300 Z-2.0000 F1200.0000 S0.0
G1 X153.6044 Y63.5141 Z-2.0000 F1200.0000 S0.0
G1 X152.5354 Y63.7639 Z-2.0000 F1200.0000 S0.0
G1 X151.5471 Y64.1756 Z-2.0000 F1200.0000 S0.0
G1 X150.6439 Y64.7457 Z-2.0000 F1200.0000 S0.0
G1 X149.8304 Y65.4704 Z-2.0000 F1200.0000 S0.0
G1 X149.1108 Y66.3461 Z-2.0000 F1200.0000 S0.0
G1 X148.4898 Y67.3690 Z-2.0000 F1200.0000 S0.0
G1 X147.9717 Y68.5356 Z-2.0000 F1200.0000 S0.0
G1 X147.5610 Y69.8420 Z-2.0000 F1200.0000 S0.0
G1 X147.2621 Y71.2847 Z-2.0000 F1200.0000 S0.0
G1 X147.0795 Y72.8600 Z-2.0000 F1200.0000 S0.0
G1 X147.0177 Y74.5641 Z-2.0000 F1200.0000 S0.0
G1 X147.2618 Y79.2246 Z-2.0000 F1200.0000 S0.0
G1 X147.9621 Y83.4460 Z-2.0000 F1200.0000 S0.0
G1 X149.0701 Y87.2348 Z-2.0000 F1200.0000 S0.0
G1 X150.5376 Y90.5974 Z-2.0000 F1200.0000 S0.0
G1 X152.3161 Y93.5403 Z-2.0000 F1200.0000 S0.0
G1 X154.3575 Y96.0700 Z-2.0000 F1200.0000 S0.0
G1 X156.6134 Y98.1927 Z-2.0000 F1200.0000 S0.0
G1 X159.0353 Y99.9151 Z-2.0000 F1200.0000 S0.0
G1 X161.5752 Y101.2435 Z-2.0000 F1200.0000 S0.0
G1 X164.1845 Y102.1843 Z-2.0000 F1200.0000 S0.0
G1 X166.8149 Y102.7441 Z-2.0000 F1200.0000 S0.0
G1 X169.4183 Y102.9293 Z-2.0000 F1200.0000 S0.0
G1 X173.3505 Y102.6642 Z-2.0000 F1200.0000 S0.0
G1 X173.6117 Y102.6750 Z-2.0000 F1200.0000 S0.0
G1 X173.8479 Y102.7084 Z-2.0000 F1200.0000 S0.0
G1 X174.0603 Y102.7657 Z-2.0000 F1200.0000 S0.0
G1 X174.2498 Y102.8481 Z-2.0000 F1200.0000 S0.0
G1 X174.4174 Y102.9571 Z-2.0000 F1200.0000 S0.0
G1 X174.5643 Y103.0940 Z-2.0000 F1200.0000 S0.0
G1 X174.6914 Y103.2601 Z-2.0000 F1200.0000 S0.0
G1 X174.7997 Y103.4568 Z-2.0000 F1200.0000 S0.0
G1 X174.8902 Y103.6854 Z-2.0000 F1200.0000 S0.0
G1 X174.9640 Y103.9471 Z-2.0000 F1200.0000 S0.0
G1 X175.0221 Y104.2435 Z-2.0000 F1200.0000 S0.0
G1 X175.0655 Y104.5757 Z-2.0000 F1200.0000 S0.0
G1 X175.0953 Y104.9452 Z-2.0000 F1200.0000 S0.0
G1 X175.1123 Y105.3532 Z-2.0000 F1200.0000 S0.0
G1 X175.1178 Y105.8012 Z-2.0000 F1200.0000 S0.0
G1 X175.0653 Y106.6466 Z-2.0000 F1200.0000 S0.0
G1 X174.9110 Y107.4353 Z-2.0000 F1200.0000 S0.0
G1 X174.6601 Y108.1643 Z-2.0000 F1200.0000 S0.0
G1 X174.3176 Y108.8301 Z-2.0000 F1200.0000 S0.0
G1 X173.8886 Y109.4298 Z-2.0000 F1200.0000 S0.0
G1 X173.3781 Y109.9599 Z-2.0000 F1200.0000 S0.0
G1 X172.7913 Y110.4173 Z-2.0000 F1200.0000 S0.0
G1 X172.1330 Y110.7987 Z-2.0000 F1200.0000 S0.0
G1 X171.4086 Y111.1010 Z-2.0000 F1200.0000 S0.0
G1 X170.6229 Y111.3209 Z-2.0000 F1200.0000 S0.0
G1 X169.7810 Y111.4552 Z-2.0000 F1200.0000 S0.0
G1 X168.8881 Y111.5007 Z-2.0000 F1200.0000 S0.0
G1 X164.4014 Y111.1606 Z-2.0000 F1200.0000 S0.0
G1 X160.0235 Y110.1554 Z-2.0000 F1200.0000 S0.0
G1 X155.8214 Y108.5081 Z-2.0000 F1200.0000 S0.0
G1 X151.8623 Y106.2416 Z-2.0000 F1200.0000 S0.0
G1 X148.2134 Y103.3787 Z-2.0000 F1200.0000 S0.0
G1 X144.9416 Y99.9425 Z-2.0000 F1200.0000 S0.0
G1 X142.1142 Y95.9557 Z-2.0000 F1200.0000 S0.0
G1 X139.7983 Y91.4414 Z-2.0000 F1200.0000 S0.0
G1 X138.0610 Y86.4223 Z-2.0000 F1200.0000 S0.0
G1 X136.9694 Y80.9214 Z-2.0000 F1200.0000 S0.0
G1 X136.5906 Y74.9617 Z-2.0000 F1200.0000 S0.0
G1 X136.7062 Y72.1359 Z-2.0000 F1200.0000 S0.0
G1 X137.0518 Y69.4391 Z-2.0000 F1200.0000 S0.0
G1 X137.6254 Y66.8935 Z-2.0000 F1200.0000 S0.0
G1 X138.4250 Y64.5215 Z-2.0000 F1200.0000 S0.0
G1 X139.4485 Y62.3452 Z-2.0000 F1200.0000 S0.0
G1 X140.6940 Y60.3870 Z-2.0000 F1200.0000 S0.0
G1 X142.1596 Y58.6689 Z-2.0000 F1200.0000 S0.0
G1 X143.8431 Y57.2134 Z-2.0000 F1200.0000 S0.0
G1 X145.7426 Y56.0426 Z-2.0000 F1200.0000 S0.0
G1 X147.8561 Y55.1787 Z-2.0000 F1200.0000 S0.0
G1 X150.1817 Y54.6441 Z-2.0000 F1200.0000 S0.0
G1 X152.7172 Y54.4610 Z-2.0000 F1200.0000 S0.0
G1 X155.0117 Y54.6340 Z-2.0000 F1200.0000 S0.0
G1 X157.1257 Y55.1237 Z-2.0000 F1200.0000 S0.0
G1 X159.0630 Y55.8859 Z-2.0000 F1200.0000 S0.0
G1 X160.8272 Y56.8763 Z-2.0000 F1200.0000 S0.0
G1 X162.4221 Y58.0508 Z-2.0000 F1200.0000 S0.0
G1 X163.8513 Y59.3652 Z-2.0000 F1200.0000 S0.0
G1 X163.8513 Y45.0943 Z-2.0000 F1200.0000 S0.0
G1 X160.1086 Y41.7581 Z-2.0000 F1200.0000 S0.0
G1 X156.6110 Y38.4012 Z-2.0000 F1200.0000 S0.0
G1 X153.4789 Y34.8888 Z-2.0000 F1200.0000 S0.0
G1 X150.8330 Y31.0867 Z-2.0000 F1200.0000 S0.0
G1 X148.7937 Y26.8602 Z-2.0000 F1200.0000 S0.0
G1 X147.4818 Y22.0750 Z-2.0000 F1200.0000 S0.0
G1 X147.0177 Y16.5965 Z-2.0000 F1200.0000 S0.0
G0 Z5.0000
G0 X160.0515 Y9.5272 Z5.0000
G0 X160.0515 Y9.5272 Z3.0000
G1 X160.0515 Y9.5272 Z-2.0000 F1200.0000 S0.0
G1 X159.4813 Y9.6065 Z-2.0000 F1200.0000 S0.0
G1 X158.9530 Y9.8374 Z-2.0000 F1200.0000 S0.0
G1 X158.4693 Y10.2093 Z-2.0000 F1200.0000 S0.0
G1 X158.0329 Y10.7116 Z-2.0000 F1200.0000 S0.0
G1 X157.6462 Y11.3339 Z-2.0000 F1200.0000 S0.0
G1 X157.3120 Y12.0655 Z-2.0000 F1200.0000 S0.0
G1 X157.0327 Y12.8958 Z-2.0000 F1200.0000 S0.0
G1 X156.8109 Y13.8145 Z-2.0000 F1200.0000 S0.0
G1 X156.6493 Y14.8107 Z-2.0000 F1200.0000 S0.0
G1 X156.5505 Y15.8741 Z-2.0000 F1200.0000 S0.0
G1 X156.5169 Y16.9941 Z-2.0000 F1200.0000 S0.0
G1 X156.7595 Y20.8382 Z-2.0000 F1200.0000 S0.0
G1 X157.4562 Y24.2417 Z-2.0000 F1200.0000 S0.0
G1 X158.5604 Y27.2721 Z-2.0000 F1200.0000 S0.0
G1 X160.0254 Y29.9969 Z-2.0000 F1200.0000 S0.0
G1 X161.8045 Y32.4836 Z-2.0000 F1200.0000 S0.0
G1 X163.8513 Y34.7997 Z-2.0000 F1200.0000 S0.0
G1 X163.8513 Y20.2636 Z-2.0000 F1200.0000 S0.0
G1 X163.8649 Y19.2205 Z-2.0000 F1200.0000 S0.0
G1 X163.8757 Y17.8752 Z-2.0000 F1200.0000 S0.0
G1 X163.8382 Y16.3412 Z-2.0000 F1200.0000 S0.0
G1 X163.7068 Y14.7319 Z-2.0000 F1200.0000 S0.0
G1 X163.4361 Y13.1608 Z-2.0000 F1200.0000 S0.0
G1 X162.9807 Y11.7413 Z-2.0000 F1200.0000 S0.0
G1 X162.2951 Y10.5869 Z-2.0000 F1200.0000 S0.0
G1 X161.3339 Y9.8111 Z-2.0000 F1200.0000 S0.0
G1 X160.0515 Y9.5272 Z-2.0000 F1200.0000 S0.0
G0 Z5.0000
G0 X223.1959 Y96.4345 Z5.0000
G0 X223.1959 Y96.4345 Z3.0000
G1 X223.1959 Y96.4345 Z-2.0000 F1200.0000 S0.0
G1 X223.1002 Y98.4117 Z-2.0000 F1200.0000 S0.0
G1 X222.8171 Y100.2718 Z-2.0000 F1200.0000 S0.0
G1 X222.3523 Y102.0042 Z-2.0000 F1200.0000 S0.0
G1 X221.7117 Y103.5986 Z-2.0000 F1200.0000 S0.0
G1 X220.9011 Y105.0444 Z-2.0000 F1200.0000 S0.0
G1 X219.9264 Y106.3314 Z-2.0000 F1200.0000 S0.0
G1 X218.7933 Y107.4489 Z-2.0000 F1200.0000 S0.0
G1 X217.5078 Y108.3867 Z-2.0000 F1200.0000 S0.0
G1 X216.0756 Y109.1342 Z-2.0000 F1200.0000 S0.0
G1 X214.5025 Y109.6811 Z-2.0000 F1200.0000 S0.0
G1 X212.7945 Y110.0168 Z-2.0000 F1200.0000 S0.0
G1 X210.9573 Y110.1311 Z-2.0000 F1200.0000 S0.0
G1 X208.1234 Y109.8176 Z-2.0000 F1200.0000 S0.0
G1 X205.3402 Y108.9031 Z-2.0000 F1200.0000 S0.0
G1 X202.6537 Y107.4261 Z-2.0000 F1200.0000 S0.0
G1 X200.1102 Y105.4253 Z-2.0000 F1200.0000 S0.0
G1 X197.7559 Y102.9394 Z-2.0000 F1200.0000 S0.0
G1 X195.6371 Y100.0068 Z-2.0000 F1200.0000 S0.0
G1 X193.7999 Y96.6664 Z-2.0000 F1200.0000 S0.0
G1 X192.2905 Y92.9567 Z-2.0000 F1200.0000 S0.0
G1 X191.1552 Y88.9164 Z-2.0000 F1200.0000 S0.0
G1 X190.4401 Y84.5842 Z-2.0000 F1200.0000 S0.0
G1 X190.1915 Y79.9985 Z-2.0000 F1200.0000 S0.0
G1 X190.4724 Y75.5478 Z-2.0000 F1200.0000 S0.0
G1 X191.2824 Y71.4585 Z-2.0000 F1200.0000 S0.0
G1 X192.5719 Y67.7439 Z-2.0000 F1200.0000 S0.0
G1 X194.2917 Y64.4170 Z-2.0000 F1200.0000 S0.0
G1 X196.3923 Y61.4911 Z-2.0000 F1200.0000 S0.0
G1 X198.8243 Y58.9793 Z-2.0000 F1200.0000 S0.0
G1 X201.5383 Y56.8947 Z-2.0000 F1200.0000 S0.0
G1 X204.4850 Y55.2504 Z-2.0000 F1200.0000 S0.0
G1 X207.6149 Y54.0597 Z-2.0000 F1200.0000 S0.0
G1 X210.8786 Y53.3356 Z-2.0000 F1200.0000 S0.0
G1 X214.2268 Y53.0913 Z-2.0000 F1200.0000 S0.0
G1 X219.3195 Y53.4804 Z-2.0000 F1200.0000 S0.0
G1 X223.7349 Y54.5737 Z-2.0000 F1200.0000 S0.0
G1 X227.5190 Y56.2605 Z-2.0000 F1200.0000 S0.0
G1 X230.7176 Y58.4301 Z-2.0000 F1200.0000 S0.0
G1 X233.3764 Y60.9718 Z-2.0000 F1200.0000 S0.0
G1 X235.5412 Y63.7748 Z-2.0000 F1200.0000 S0.0
G1 X237.2579 Y66.7284 Z-2.0000 F1200.0000 S0.0
G1 X238.5723 Y69.7218 Z-2.0000 F1200.0000 S0.0
G1 X239.5302 Y72.6443 Z-2.0000 F1200.0000 S0.0
G1 X240.1774 Y75.3851 Z-2.0000 F1200.0000 S0.0
G1 X240.5596 Y77.8336 Z-2.0000 F1200.0000 S0.0
G1 X240.5852 Y78.3909 Z-2.0000 F1200.0000 S0.0
G1 X240.5382 Y78.9265 Z-2.0000 F1200.0000 S0.0
G1 X240.4244 Y79.4377 Z-2.0000 F1200.0000 S0.0
G1 X240.2491 Y79.9219 Z-2.0000 F1200.0000 S0.0
G1 X240.0181 Y80.3764 Z-2.0000 F1200.0000 S0.0
G1 X239.7369 Y80.7986 Z-2.0000 F1200.0000 S0.0
G1 X239.4111 Y81.1858 Z-2.0000 F1200.0000 S0.0
G1 X239.0461 Y81.5354 Z-2.0000 F1200.0000 S0.0
G1 X238.6476 Y81.8447 Z-2.0000 F1200.0000 S0.0
G1 X238.2211 Y82.1112 Z-2.0000 F1200.0000 S0.0
G1 X237.7723 Y82.3320 Z-2.0000 F1200.0000 S0.0
G1 X237.3066 Y82.5047 Z-2.0000 F1200.0000 S0.0
G1 X236.8297 Y82.6266 Z-2.0000 F1200.0000 S0.0
G1 X236.3470 Y82.6949 Z-2.0000 F1200.0000 S0.0
G1 X235.8643 Y82.7071 Z-2.0000 F1200.0000 S0.0
G1 X235.3869 Y82.6605 Z-2.0000 F1200.0000 S0.0
G1 X234.9206 Y82.5525 Z-2.0000 F1200.0000 S0.0
G1 X234.4708 Y82.3804 Z-2.0000 F1200.0000 S0.0
G1 X234.0431 Y82.1415 Z-2.0000 F1200.0000 S0.0
G1 X233.6431 Y81.8333 Z-2.0000 F1200.0000 S0.0
G1 X233.2764 Y81.4531 Z-2.0000 F1200.0000 S0.0
G1 X232.9485 Y80.9982 Z-2.0000 F1200.0000 S0.0
G1 X232.6650 Y80.4660 Z-2.0000 F1200.0000 S0.0
G1 X232.4314 Y79.8538 Z-2.0000 F1200.0000 S0.0
G1 X232.2533 Y79.1591 Z-2.0000 F1200.0000 S0.0
G1 X231.6892 Y76.6726 Z-2.0000 F1200.0000 S0.0
G1 X230.9377 Y74.2081 Z-2.0000 F1200.0000 S0.0
G1 X229.9784 Y71.8221 Z-2.0000 F1200.0000 S0.0
G1 X228.7908 Y69.5711 Z-2.0000 F1200.0000 S0.0
G1 X227.3546 Y67.5114 Z-2.0000 F1200.0000 S0.0
G1 X225.6492 Y65.6996 Z-2.0000 F1200.0000 S0.0
G1 X223.6544 Y64.1922 Z-2.0000 F1200.0000 S0.0
G1 X221.3497 Y63.0455 Z-2.0000 F1200.0000 S0.0
G1 X218.7147 Y62.3161 Z-2.0000 F1200.0000 S0.0
G1 X215.7290 Y62.0604 Z-2.0000 F1200.0000 S0.0
G1 X213.4964 Y62.1971 Z-2.0000 F1200.0000 S0.0
G1 X211.5023 Y62.5908 Z-2.0000 F1200.0000 S0.0
G1 X209.7333 Y63.2173 Z-2.0000 F1200.0000 S0.0
G1 X208.1759 Y64.0522 Z-2.0000 F1200.0000 S0.0
G1 X206.8167 Y65.0710 Z-2.0000 F1200.0000 S0.0
G1 X205.6423 Y66.2495 Z-2.0000 F1200.0000 S0.0
G1 X204.6391 Y67.5633 Z-2.0000 F1200.0000 S0.0
G1 X203.7938 Y68.9880 Z-2.0000 F1200.0000 S0.0
G1 X203.0928 Y70.4993 Z-2.0000 F1200.0000 S0.0
G1 X207.2499 Y72.0927 Z-2.0000 F1200.0000 S0.0
G1 X210.9397 Y74.1974 Z-2.0000 F1200.0000 S0.0
G1 X214.1564 Y76.7323 Z-2.0000 F1200.0000 S0.0
G1 X216.8942 Y79.6163 Z-2.0000 F1200.0000 S0.0
G1 X219.1473 Y82.7683 Z-2.0000 F1200.0000 S0.0
G1 X220.9098 Y86.1072 Z-2.0000 F1200.0000 S0.0
G1 X222.1760 Y89.5519 Z-2.0000 F1200.0000 S0.0
G1 X222.9399 Y93.0214 Z-2.0000 F1200.0000 S0.0
G1 X223.1959 Y96.4345 Z-2.0000 F1200.0000 S0.0
G0 Z5.0000
G0 X201.3255 Y80.3962 Z5.0000
G0 X201.3255 Y80.3962 Z3.0000
G1 X201.3255 Y80.3962 Z-2.0000 F1200.0000 S0.0
G1 X201.3383 Y82.9192 Z-2.0000 F1200.0000 S0.0
G1 X201.5933 Y86.0246 Z-2.0000 F1200.0000 S0.0
G1 X202.1177 Y89.4294 Z-2.0000 F1200.0000 S0.0
G1 X202.9381 Y92.8501 Z-2.0000 F1200.0000 S0.0
G1 X204.0817 Y96.0038 Z-2.0000 F1200.0000 S0.0
G1 X205.5753 Y98.6070 Z-2.0000 F1200.0000 S0.0
G1 X207.4458 Y100.3766 Z-2.0000 F1200.0000 S0.0
G1 X209.7202 Y101.0295 Z-2.0000 F1200.0000 S0.0
G1 X210.1479 Y100.9929 Z-2.0000 F1200.0000 S0.0
G1 X210.5466 Y100.8846 Z-2.0000 F1200.0000 S0.0
G1 X210.9145 Y100.7064 Z-2.0000 F1200.0000 S0.0
G1 X211.2502 Y100.4600 Z-2.0000 F1200.0000 S0.0
G1 X211.5522 Y100.1473 Z-2.0000 F1200.0000 S0.0
G1 X211.8189 Y99.7703 Z-2.0000 F1200.0000 S0.0
G1 X212.0487 Y99.3306 Z-2.0000 F1200.0000 S0.0
G1 X212.2402 Y98.8301 Z-2.0000 F1200.0000 S0.0
G1 X212.3918 Y98.2708 Z-2.0000 F1200.0000 S0.0
G1 X212.5020 Y97.6544 Z-2.0000 F1200.0000 S0.0
G1 X212.5693 Y96.9828 Z-2.0000 F1200.0000 S0.0
G1 X212.5920 Y96.2577 Z-2.0000 F1200.0000 S0.0
G1 X212.3927 Y93.2645 Z-2.0000 F1200.0000 S0.0
G1 X211.8092 Y90.4049 Z-2.0000 F1200.0000 S0.0
G1 X210.8632 Y87.7131 Z-2.0000 F1200.0000 S0.0
G1 X209.5766 Y85.2231 Z-2.0000 F1200.0000 S0.0
G1 X207.9710 Y82.9693 Z-2.0000 F1200.0000 S0.0
G1 X206.0682 Y80.9857 Z-2.0000 F1200.0000 S0.0
G1 X203.8900 Y79.3066 Z-2.0000 F1200.0000 S0.0
G1 X201.4580 Y77.9661 Z-2.0000 F1200.0000 S0.0
G1 X201.3255 Y80.3962 Z-2.0000 F1200.0000 S0.0
G0 Z5.0000
G0 X317.5773 Y74.2990 Z5.0000
G0 X317.5773 Y74.2990 Z3.0000
G1 X317.5773 Y74.2990 Z-2.0000 F1200.0000 S0.0
G1 X317.6168 Y74.4661 Z-2.0000 F1200.0000 S0.0
G1 X317.6475 Y74.6146 Z-2.0000 F1200.0000 S0.0
G1 X317.6706 Y74.7457 Z-2.0000 F1200.0000 S0.0
G1 X317.6871 Y74.8604 Z-2.0000 F1200.0000 S0.0
G1 X317.6982 Y74.9599 Z-2.0000 F1200.0000 S0.0
G1 X317.7050 Y75.0452 Z-2.0000 F1200.0000 S0.0
G1 X317.7084 Y75.1173 Z-2.0000 F1200.0000 S0.0
G1 X317.7097 Y75.1775 Z-2.0000 F1200.0000 S0.0
G1 X317.7099 Y75.2268 Z-2.0000 F1200.0000 S0.0
G1 X317.6190 Y76.1043 Z-2.0000 F1200.0000 S0.0
G1 X317.3627 Y76.9807 Z-2.0000 F1200.0000 S0.0
G1 X316.9653 Y77.8287 Z-2.0000 F1200.0000 S0.0
G1 X316.4512 Y78.6210 Z-2.0000 F1200.0000 S0.0
G1 X315.8447 Y79.3305 Z-2.0000 F1200.0000 S0.0
G1 X315.1702 Y79.9298 Z-2.0000 F1200.0000 S0.0
G1 X314.4521 Y80.3916 Z-2.0000 F1200.0000 S0.0
G1 X313.7146 Y80.6887 Z-2.0000 F1200.0000 S0.0
G1 X312.9823 Y80.7938 Z-2.0000 F1200.0000 S0.0
G1 X312.6094 Y80.7639 Z-2.0000 F1200.0000 S0.0
G1 X312.2403 Y80.6726 Z-2.0000 F1200.0000 S0.0
G1 X311.8787 Y80.5178 Z-2.0000 F1200.0000 S0.0
G1 X311.5285 Y80.2972 Z-2.0000 F1200.0000 S0.0
G1 X311.1934 Y80.0088 Z-2.0000 F1200.0000 S0.0
G1 X310.8773 Y79.6502 Z-2.0000 F1200.0000 S0.0
G1 X310.5839 Y79.2193 Z-2.0000 F1200.0000 S0.0
G1 X310.3169 Y78.7139 Z-2.0000 F1200.0000 S0.0
G1 X310.0802 Y78.1319 Z-2.0000 F1200.0000 S0.0
G1 X309.8776 Y77.4710 Z-2.0000 F1200.0000 S0.0
G1 X309.7128 Y76.7290 Z-2.0000 F1200.0000 S0.0
G1 X309.1894 Y74.3862 Z-2.0000 F1200.0000 S0.0
G1 X308.5330 Y71.9207 Z-2.0000 F1200.0000 S0.0
G1 X307.7223 Y69.4666 Z-2.0000 F1200.0000 S0.0
G1 X306.7360 Y67.1580 Z-2.0000 F1200.0000 S0.0
G1 X305.5530 Y65.1289 Z-2.0000 F1200.0000 S0.0
G1 X304.1520 Y63.5136 Z-2.0000 F1200.0000 S0.0
G1 X302.5118 Y62.4460 Z-2.0000 F1200.0000 S0.0
G1 X300.6112 Y62.0604 Z-2.0000 F1200.0000 S0.0
G1 X299.6533 Y62.2027 Z-2.0000 F1200.0000 S0.0
G1 X298.8863 Y62.5941 Z-2.0000 F1200.0000 S0.0
G1 X298.2890 Y63.1817 Z-2.0000 F1200.0000 S0.0
G1 X297.8401 Y63.9125 Z-2.0000 F1200.0000 S0.0
G1 X297.5184 Y64.7334 Z-2.0000 F1200.0000 S0.0
G1 X297.3028 Y65.5915 Z-2.0000 F1200.0000 S0.0
G1 X297.1720 Y66.4336 Z-2.0000 F1200.0000 S0.0
G1 X297.1049 Y67.2068 Z-2.0000 F1200.0000 S0.0
G1 X297.0801 Y67.8580 Z-2.0000 F1200.0000 S0.0
G1 X297.0766 Y68.3343 Z-2.0000 F1200.0000 S0.0
G1 X297.0766 Y96.4345 Z-2.0000 F1200.0000 S0.0
G1 X297.0315 Y98.0126 Z-2.0000 F1200.0000 S0.0
G1 X296.8851 Y99.6121 Z-2.0000 F1200.0000 S0.0
G1 X296.6209 Y101.2027 Z-2.0000 F1200.0000 S0.0
G1 X296.2224 Y102.7542 Z-2.0000 F1200.0000 S0.0
G1 X295.6729 Y104.2364 Z-2.0000 F1200.0000 S0.0
G1 X294.9558 Y105.6189 Z-2.0000 F1200.0000 S0.0
G1 X294.0547 Y106.8717 Z-2.0000 F1200.0000 S0.0
G1 X292.9529 Y107.9645 Z-2.0000 F1200.0000 S0.0
G1 X291.6338 Y108.8670 Z-2.0000 F1200.0000 S0.0
G1 X290.0810 Y109.5491 Z-2.0000 F1200.0000 S0.0
G1 X288.2778 Y109.9806 Z-2.0000 F1200.0000 S0.0
G1 X286.2077 Y110.1311 Z-2.0000 F1200.0000 S0.0
G1 X283.9853 Y109.8778 Z-2.0000 F1200.0000 S0.0
G1 X281.8909 Y109.1487 Z-2.0000 F1200.0000 S0.0
G1 X279.9238 Y107.9899 Z-2.0000 F1200.0000 S0.0
G1 X278.0836 Y106.4473 Z-2.0000 F1200.0000 S0.0
G1 X276.3697 Y104.5673 Z-2.0000 F1200.0000 S0.0
G1 X274.7816 Y102.3957 Z-2.0000 F1200.0000 S0.0
G1 X273.3188 Y99.9787 Z-2.0000 F1200.0000 S0.0
G1 X271.9809 Y97.3623 Z-2.0000 F1200.0000 S0.0
G1 X271.8700 Y98.8944 Z-2.0000 F1200.0000 S0.0
G1 X271.6611 Y100.4252 Z-2.0000 F1200.0000 S0.0
G1 X271.3409 Y101.9297 Z-2.0000 F1200.0000 S0.0
G1 X270.8959 Y103.3826 Z-2.0000 F1200.0000 S0.0
G1 X270.3129 Y104.7588 Z-2.0000 F1200.0000 S0.0
G1 X269.5784 Y106.0331 Z-2.0000 F1200.0000 S0.0
G1 X268.6792 Y107.1805 Z-2.0000 F1200.0000 S0.0
G1 X267.6019 Y108.1756 Z-2.0000 F1200.0000 S0.0
G1 X266.3331 Y108.9934 Z-2.0000 F1200.0000 S0.0
G1 X264.8595 Y109.6087 Z-2.0000 F1200.0000 S0.0
G1 X263.1677 Y109.9963 Z-2.0000 F1200.0000 S0.0
G1 X261.2445 Y110.1311 Z-2.0000 F1200.0000 S0.0
G1 X259.0201 Y109.8718 Z-2.0000 F1200.0000 S0.0
G1 X256.9194 Y109.1259 Z-2.0000 F1200.0000 S0.0
G1 X254.9420 Y107.9409 Z-2.0000 F1200.0000 S0.0
G1 X253.0873 Y106.3645 Z-2.0000 F1200.0000 S0.0
G1 X251.3547 Y104.4443 Z-2.0000 F1200.0000 S0.0
G1 X249.7439 Y102.2279 Z-2.0000 F1200.0000 S0.0
G1 X248.2542 Y99.7630 Z-2.0000 F1200.0000 S0.0
G1 X246.8851 Y97.0972 Z-2.0000 F1200.0000 S0.0
G1 X246.8851 Y102.7968 Z-2.0000 F1200.0000 S0.0
G1 X246.8149 Y103.6726 Z-2.0000 F1200.0000 S0.0
G1 X246.6080 Y104.5104 Z-2.0000 F1200.0000 S0.0
G1 X246.2703 Y105.3006 Z-2.0000 F1200.0000 S0.0
G1 X245.8075 Y106.0337 Z-2.0000 F1200.0000 S0.0
G1 X245.2254 Y106.7000 Z-2.0000 F1200.0000 S0.0
G1 X244.5297 Y107.2900 Z-2.0000 F1200.0000 S0.0
G1 X243.7263 Y107.7942 Z-2.0000 F1200.0000 S0.0
G1 X242.8210 Y108.2030 Z-2.0000 F1200.0000 S0.0
G1 X241.8194 Y108.5069 Z-2.0000 F1200.0000 S0.0
G1 X240.7274 Y108.6962 Z-2.0000 F1200.0000 S0.0
G1 X239.5508 Y108.7614 Z-2.0000 F1200.0000 S0.0
G1 X239.0403 Y108.7388 Z-2.0000 F1200.0000 S0.0
G1 X238.5490 Y108.6723 Z-2.0000 F1200.0000 S0.0
G1 X238.0833 Y108.5642 Z-2.0000 F1200.0000 S0.0
G1 X237.6493 Y108.4167 Z-2.0000 F1200.0000 S0.0
G1 X237.2530 Y108.2320 Z-2.0000 F1200.0000 S0.0
G1 X236.9008 Y108.0121 Z-2.0000 F1200.0000 S0.0
G1 X236.5988 Y107.7595 Z-2.0000 F1200.0000 S0.0
G1 X236.3532 Y107.4761 Z-2.0000 F1200.0000 S0.0
G1 X236.1701 Y107.1643 Z-2.0000 F1200.0000 S0.0
G1 X236.0557 Y106.8261 Z-2.0000 F1200.0000 S0.0
G1 X236.0162 Y106.4639 Z-2.0000 F1200.0000 S0.0
G1 X236.0456 Y106.0525 Z-2.0000 F1200.0000 S0.0
G1 X236.1213 Y105.6287 Z-2.0000 F1200.0000 S0.0
G1 X236.2249 Y105.1585 Z-2.0000 F1200.0000 S0.0
G1 X236.3377 Y104.6080 Z-2.0000 F1200.0000 S0.0
G1 X236.4413 Y103.9431 Z-2.0000 F1200.0000 S0.0
G1 X236.5170 Y103.1297 Z-2.0000 F1200.0000 S0.0
G1 X236.5464 Y102.1340 Z-2.0000 F1200.0000 S0.0
G1 X236.5464 Y59.1001 Z-2.0000 F1200.0000 S0.0
G1 X236.6116 Y58.0086 Z-2.0000 F1200.0000 S0.0
G1 X236.7983 Y57.0528 Z-2.0000 F1200.0000 S0.0
G1 X237.0932 Y56.2245 Z-2.0000 F1200.0000 S0.0
G1 X237.4827 Y55.5152 Z-2.0000 F1200.0000 S0.0
G1 X237.9536 Y54.9164 Z-2.0000 F1200.0000 S0.0
G1 X238.4924 Y54.4196 Z-2.0000 F1200.0000 S0.0
G1 X239.0858 Y54.0166 Z-2.0000 F1200.0000 S0.0
G1 X239.7203 Y53.6986 Z-2.0000 F1200.0000 S0.0
G1 X240.3826 Y53.4575 Z-2.0000 F1200.0000 S0.0
G1 X241.0592 Y53.2846 Z-2.0000 F1200.0000 S0.0
G1 X241.7368 Y53.1716 Z-2.0000 F1200.0000 S0.0
G1 X242.4019 Y53.1100 Z-2.0000 F1200.0000 S0.0
G1 X243.0412 Y53.0913 Z-2.0000 F1200.0000 S0.0
G1 X243.8879 Y53.1476 Z-2.0000 F1200.0000 S0.0
G1 X244.6002 Y53.3091 Z-2.0000 F1200.0000 S0.0
G1 X245.1898 Y53.5653 Z-2.0000 F1200.0000 S0.0
G1 X245.6683 Y53.9054 Z-2.0000 F1200.0000 S0.0
G1 X246.0472 Y54.3185 Z-2.0000 F1200.0000 S0.0
G1 X246.3382 Y54.7941 Z-2.0000 F1200.0000 S0.0
G1 X246.5528 Y55.3213 Z-2.0000 F1200.0000 S0.0
G1 X246.7026 Y55.8894 Z-2.0000 F1200.0000 S0.0
G1 X246.7992 Y56.4877 Z-2.0000 F1200.0000 S0.0
G1 X246.8542 Y57.1054 Z-2.0000 F1200.0000 S0.0
G1 X246.8791 Y57.7317 Z-2.0000 F1200.0000 S0.0
G1 X246.8855 Y58.3561 Z-2.0000 F1200.0000 S0.0
G1 X246.8851 Y58.9676 Z-2.0000 F1200.0000 S0.0
G1 X246.8851 Y78.7614 Z-2.0000 F1200.0000 S0.0
G1 X247.3920 Y82.3573 Z-2.0000 F1200.0000 S0.0
G1 X248.3222 Y85.9183 Z-2.0000 F1200.0000 S0.0
G1 X249.5852 Y89.3407 Z-2.0000 F1200.0000 S0.0
G1 X251.0903 Y92.5209 Z-2.0000 F1200.0000 S0.0
G1 X252.7470 Y95.3554 Z-2.0000 F1200.0000 S0.0
G1 X254.4649 Y97.7403 Z-2.0000 F1200.0000 S0.0
G1 X256.1533 Y99.5722 Z-2.0000 F1200.0000 S0.0
G1 X257.7217 Y100.7473 Z-2.0000 F1200.0000 S0.0
G1 X259.0795 Y101.1620 Z-2.0000 F1200.0000 S0.0
G1 X259.6126 Y101.0900 Z-2.0000 F1200.0000 S0.0
G1 X260.0671 Y100.8807 Z-2.0000 F1200.0000 S0.0
G1 X260.4492 Y100.5441 Z-2.0000 F1200.0000 S0.0
G1 X260.7650 Y100.0902 Z-2.0000 F1200.0000 S0.0
G1 X261.0207 Y99.5288 Z-2.0000 F1200.0000 S0.0
G1 X261.2224 Y98.8700 Z-2.0000 F1200.0000 S0.0
G1 X261.3762 Y98.1238 Z-2.0000 F1200.0000 S0.0
G1 X261.4883 Y97.3001 Z-2.0000 F1200.0000 S0.0
G1 X261.5648 Y96.4089 Z-2.0000 F1200.0000 S0.0
G1 X261.6118 Y95.4602 Z-2.0000 F1200.0000 S0.0
G1 X261.6356 Y94.4639 Z-2.0000 F1200.0000 S0.0
G1 X261.6421 Y93.4300 Z-2.0000 F1200.0000 S0.0
G1 X261.6421 Y59.1001 Z-2.0000 F1200.0000 S0.0
G1 X261.7074 Y58.0086 Z-2.0000 F1200.0000 S0.0
G1 X261.8942 Y57.0528 Z-2.0000 F1200.0000 S0.0
G1 X262.1894 Y56.2245 Z-2.0000 F1200.0000 S0.0
G1 X262.5797 Y55.5152 Z-2.0000 F1200.0000 S0.0
G1 X263.0519 Y54.9164 Z-2.0000 F1200.0000 S0.0
G1 X263.5925 Y54.4196 Z-2.0000 F1200.0000 S0.0
G1 X264.1884 Y54.0166 Z-2.0000 F1200.0000 S0.0
G1 X264.8263 Y53.6986 Z-2.0000 F1200.0000 S0.0
G1 X265.4929 Y53.4575 Z-2.0000 F1200.0000 S0.0
G1 X266.1750 Y53.2846 Z-2.0000 F1200.0000 S0.0
G1 X266.8592 Y53.1716 Z-2.0000 F1200.0000 S0.0
G1 X267.5324 Y53.1100 Z-2.0000 F1200.0000 S0.0
G1 X268.1811 Y53.0913 Z-2.0000 F1200.0000 S0.0
G1 X269.0183 Y53.1476 Z-2.0000 F1200.0000 S0.0
G1 X269.7227 Y53.3091 Z-2.0000 F1200.0000 S0.0
G1 X270.3057 Y53.5653 Z-2.0000 F1200.0000 S0.0
G1 X270.7787 Y53.9054 Z-2.0000 F1200.0000 S0.0
G1 X271.1533 Y54.3185 Z-2.0000 F1200.0000 S0.0
G1 X271.4408 Y54.7941 Z-2.0000 F1200.0000 S0.0
G1 X271.6529 Y55.3213 Z-2.0000 F1200.0000 S0.0
G1 X271.8009 Y55.8894 Z-2.0000 F1200.0000 S0.0
G1 X271.8962 Y56.4877 Z-2.0000 F1200.0000 S0.0
G1 X271.9504 Y57.1054 Z-2.0000 F1200.0000 S0.0
G1 X271.9750 Y57.7317 Z-2.0000 F1200.0000 S0.0
G1 X271.9813 Y58.3561 Z-2.0000 F1200.0000 S0.0
G1 X271.9809 Y58.9676 Z-2.0000 F1200.0000 S0.0
G1 X271.9809 Y78.7614 Z-2.0000 F1200.0000 S0.0
G1 X272.4878 Y82.3573 Z-2.0000 F1200.0000 S0.0
G1 X273.4180 Y85.9183 Z-2.0000 F1200.0000 S0.0
G1 X274.6809 Y89.3407 Z-2.0000 F1200.0000 S0.0
G1 X276.1860 Y92.5209 Z-2.0000 F1200.0000 S0.0
G1 X277.8428 Y95.3554 Z-2.0000 F1200.0000 S0.0
G1 X279.5606 Y97.7403 Z-2.0000 F1200.0000 S0.0
G1 X281.2490 Y99.5722 Z-2.0000 F1200.0000 S0.0
G1 X282.8174 Y100.7473 Z-2.0000 F1200.0000 S0.0
G1 X284.1753 Y101.1620 Z-2.0000 F1200.0000 S0.0
G1 X284.7185 Y101.0900 Z-2.0000 F1200.0000 S0.0
G1 X285.1814 Y100.8807 Z-2.0000 F1200.0000 S0.0
G1 X285.5705 Y100.5441 Z-2.0000 F1200.0000 S0.0
G1 X285.8918 Y100.0902 Z-2.0000 F1200.0000 S0.0
G1 X286.1518 Y99.5288 Z-2.0000 F1200.0000 S0.0
G1 X286.3568 Y98.8700 Z-2.0000 F1200.0000 S0.0
G1 X286.5129 Y98.1238 Z-2.0000 F1200.0000 S0.0
G1 X286.6266 Y97.3001 Z-2.0000 F1200.0000 S0.0
G1 X286.7040 Y96.4089 Z-2.0000 F1200.0000 S0.0
G1 X286.7516 Y95.4602 Z-2.0000 F1200.0000 S0.0
G1 X286.7755 Y94.4639 Z-2.0000 F1200.0000 S0.0
G1 X286.7820 Y93.4300 Z-2.0000 F1200.0000 S0.0
G1 X286.7820 Y65.8601 Z-2.0000 F1200.0000 S0.0
G1 X286.8852 Y64.0092 Z-2.0000 F1200.0000 S0.0
G1 X287.1911 Y62.2305 Z-2.0000 F1200.0000 S0.0
G1 X287.6944 Y60.5461 Z-2.0000 F1200.0000 S0.0
G1 X288.3897 Y58.9778 Z-2.0000 F1200.0000 S0.0
G1 X289.2717 Y57.5475 Z-2.0000 F1200.0000 S0.0
G1 X290.3348 Y56.2772 Z-2.0000 F1200.0000 S0.0
G1 X291.5739 Y55.1887 Z-2.0000 F1200.0000 S0.0
G1 X292.9834 Y54.3040 Z-2.0000 F1200.0000 S0.0
G1 X294.5580 Y53.6449 Z-2.0000 F1200.0000 S0.0
G1 X296.2924 Y53.2334 Z-2.0000 F1200.0000 S0.0
G1 X298.1811 Y53.0913 Z-2.0000 F1200.0000 S0.0
G1 X301.8384 Y53.5233 Z-2.0000 F1200.0000 S0.0
G1 X305.0530 Y54.7342 Z-2.0000 F1200.0000 S0.0
G1 X307.8539 Y56.5965 Z-2.0000 F1200.0000 S0.0
G1 X310.2696 Y58.9823 Z-2.0000 F1200.0000 S0.0
G1 X312.3290 Y61.7642 Z-2.0000 F1200.0000 S0.0
G1 X314.0607 Y64.8144 Z-2.0000 F1200.0000 S0.0
G1 X315.4935 Y68.0054 Z-2.0000 F1200.0000 S0.0
G1 X316.6562 Y71.2095 Z-2.0000 F1200.0000 S0.0
G1 X317.5773 Y74.2990 Z-2.0000 F1200.0000 S0.0
G0 Z5.0000
G0 X346.3034 Y96.4345 Z5.0000
G0 X346.3034 Y96.4345 Z3.0000
G1 X346.3034 Y96.4345 Z-2.0000 F1200.0000 S0.0
G1 X346.2077 Y98.4117 Z-2.0000 F1200.0000 S0.0
G1 X345.9246 Y100.2718 Z-2.0000 F1200.0000 S0.0
G1 X345.4598 Y102.0042 Z-2.0000 F1200.0000 S0.0
G1 X344.8192 Y103.5986 Z-2.0000 F1200.0000 S0.0
G1 X344.0086 Y105.0444 Z-2.0000 F1200.0000 S0.0
G1 X343.0339 Y106.3314 Z-2.0000 F1200.0000 S0.0
G1 X341.9008 Y107.4489 Z-2.0000 F1200.0000 S0.0
G1 X340.6153 Y108.3867 Z-2.0000 F1200.0000 S0.0
G1 X339.1831 Y109.1342 Z-2.0000 F1200.0000 S0.0
G1 X337.6100 Y109.6811 Z-2.0000 F1200.0000 S0.0
G1 X335.9020 Y110.0168 Z-2.0000 F1200.0000 S0.0
G1 X334.0648 Y110.1311 Z-2.0000 F1200.0000 S0.0
G1 X331.2309 Y109.8176 Z-2.0000 F1200.0000 S0.0
G1 X328.4477 Y108.9031 Z-2.0000 F1200.0000 S0.0
G1 X325.7612 Y107.4261 Z-2.0000 F1200.0000 S0.0
G1 X323.2177 Y105.4253 Z-2.0000 F1200.0000 S0.0
G1 X320.8635 Y102.9394 Z-2.0000 F1200.0000 S0.0
G1 X318.7446 Y100.0068 Z-2.0000 F1200.0000 S0.0
G1 X316.9074 Y96.6664 Z-2.0000 F1200.0000 S0.0
G1 X315.3980 Y92.9567 Z-2.0000 F1200.0000 S0.0
G1 X314.2627 Y88.9164 Z-2.0000 F1200.0000 S0.0
G1 X313.5476 Y84.5842 Z-2.0000 F1200.0000 S0.0
G1 X313.2990 Y79.9985 Z-2.0000 F1200.0000 S0.0
G1 X313.5799 Y75.5478 Z-2.0000 F1200.0000 S0.0
G1 X314.3899 Y71.4585 Z-2.0000 F1200.0000 S0.0
G1 X315.6795 Y67.7439 Z-2.0000 F1200.0000 S0.0
G1 X317.3992 Y64.4170 Z-2.0000 F1200.0000 S0.0
G1 X319.4998 Y61.4911 Z-2.0000 F1200.0000 S0.0
G1 X321.9318 Y58.9793 Z-2.0000 F1200.0000 S0.0
G1 X324.6458 Y56.8947 Z-2.0000 F1200.0000 S0.0
G1 X327.5925 Y55.2504 Z-2.0000 F1200.0000 S0.0
G1 X330.7224 Y54.0597 Z-2.0000 F1200.0000 S0.0
G1 X333.9861 Y53.3356 Z-2.0000 F1200.0000 S0.0
G1 X337.3343 Y53.0913 Z-2.0000 F1200.0000 S0.0
G1 X342.4270 Y53.4804 Z-2.0000 F1200.0000 S0.0
G1 X346.8424 Y54.5737 Z-2.0000 F1200.0000 S0.0
G1 X350.6265 Y56.2605 Z-2.0000 F1200.0000 S0.0
G1 X353.8251 Y58.4301 Z-2.0000 F1200.0000 S0.0
G1 X356.4839 Y60.9718 Z-2.0000 F1200.0000 S0.0
G1 X358.6487 Y63.7748 Z-2.0000 F1200.0000 S0.0
G1 X360.3654 Y66.7284 Z-2.0000 F1200.0000 S0.0
G1 X361.6798 Y69.7218 Z-2.0000 F1200.0000 S0.0
G1 X362.6377 Y72.6443 Z-2.0000 F1200.0000 S0.0
G1 X363.2849 Y75.3851 Z-2.0000 F1200.0000 S0.0
G1 X363.6672 Y77.8336 Z-2.0000 F1200.0000 S0.0
G1 X363.6927 Y78.3909 Z-2.0000 F1200.0000 S0.0
G1 X363.6457 Y78.9265 Z-2.0000 F1200.0000 S0.0
G1 X363.5319 Y79.4377 Z-2.0000 F1200.0000 S0.0
G1 X363.3567 Y79.9219 Z-2.0000 F1200.0000 S0.0
G1 X363.1257 Y80.3764 Z-2.0000 F1200.0000 S0.0
G1 X362.8444 Y80.7986 Z-2.0000 F1200.0000 S0.0
G1 X362.5186 Y81.1858 Z-2.0000 F1200.0000 S0.0
G1 X362.1536 Y81.5354 Z-2.0000 F1200.0000 S0.0
G1 X361.7551 Y81.8447 Z-2.0000 F1200.0000 S0.0
G1 X361.3287 Y82.1112 Z-2.0000 F1200.0000 S0.0
G1 X360.8798 Y82.3320 Z-2.0000 F1200.0000 S0.0
G1 X360.4141 Y82.5047 Z-2.0000 F1200.0000 S0.0
G1 X359.9372 Y82.6266 Z-2.0000 F1200.0000 S0.0
G1 X359.4546 Y82.6949 Z-2.0000 F1200.0000 S0.0
G1 X358.9718 Y82.7071 Z-2.0000 F1200.0000 S0.0
G1 X358.4944 Y82.6605 Z-2.0000 F1200.0000 S0.0
G1 X358.0281 Y82.5525 Z-2.0000 F1200.0000 S0.0
G1 X357.5783 Y82.3804 Z-2.0000 F1200.0000 S0.0
G1 X357.1506 Y82.1415 Z-2.0000 F1200.0000 S0.0
G1 X356.7506 Y81.8333 Z-2.0000 F1200.0000 S0.0
G1 X356.3839 Y81.4531 Z-2.0000 F1200.0000 S0.0
G1 X356.0560 Y80.9982 Z-2.0000 F1200.0000 S0.0
G1 X355.7725 Y80.4660 Z-2.0000 F1200.0000 S0.0
G1 X355.5389 Y79.8538 Z-2.0000 F1200.0000 S0.0
G1 X355.3608 Y79.1591 Z-2.0000 F1200.0000 S0.0
G1 X354.7967 Y76.6726 Z-2.0000 F1200.0000 S0.0
G1 X354.0452 Y74.2081 Z-2.0000 F1200.0000 S0.0
G1 X353.0859 Y71.8221 Z-2.0000 F1200.0000 S0.0
G1 X351.8983 Y69.5711 Z-2.0000 F1200.0000 S0.0
G1 X350.4621 Y67.5114 Z-2.0000 F1200.0000 S0.0
G1 X348.7568 Y65.6996 Z-2.0000 F1200.0000 S0.0
G1 X346.7620 Y64.1922 Z-2.0000 F1200.0000 S0.0
G1 X344.4573 Y63.0455 Z-2.0000 F1200.0000 S0.0
G1 X341.8223 Y62.3161 Z-2.0000 F1200.0000 S0.0
G1 X338.8365 Y62.0604 Z-2.0000 F1200.0000 S0.0
G1 X336.6039 Y62.1971 Z-2.0000 F1200.0000 S0.0
G1 X334.6098 Y62.5908 Z-2.0000 F1200.0000 S0.0
G1 X332.8408 Y63.2173 Z-2.0000 F1200.0000 S0.0
G1 X331.2834 Y64.0522 Z-2.0000 F1200.0000 S0.0
G1 X329.9242 Y65.0710 Z-2.0000 F1200.0000 S0.0
G1 X328.7498 Y66.2495 Z-2.0000 F1200.0000 S0.0
G1 X327.7466 Y67.5633 Z-2.0000 F1200.0000 S0.0
G1 X326.9013 Y68.9880 Z-2.0000 F1200.0000 S0.0
G1 X326.2003 Y70.4993 Z-2.0000 F1200.0000 S0.0
G1 X330.3574 Y72.0927 Z-2.0000 F1200.0000 S0.0
G1 X334.0472 Y74.1974 Z-2.0000 F1200.0000 S0.0
G1 X337.2640 Y76.7323 Z-2.0000 F1200.0000 S0.0
G1 X340.0018 Y79.6163 Z-2.0000 F1200.0000 S0.0
G1 X342.2548 Y82.7683 Z-2.0000 F1200.0000 S0.0
G1 X344.0173 Y86.1072 Z-2.0000 F1200.0000 S0.0
G1 X345.2835 Y89.5519 Z-2.0000 F1200.0000 S0.0
G1 X346.0474 Y93.0214 Z-2.0000 F1200.0000 S0.0
G1 X346.3034 Y96.4345 Z-2.0000 F1200.0000 S0.0
G0 Z5.0000
G0 X324.4330 Y80.3962 Z5.0000
G0 X324.4330 Y80.3962 Z3.0000
G1 X324.4330 Y80.3962 Z-2.0000 F1200.0000 S0.0
G1 X324.4458 Y82.9192 Z-2.0000 F1200.0000 S0.0
G1 X324.7008 Y86.0246 Z-2.0000 F1200.0000 S0.0
G1 X325.2252 Y89.4294 Z-2.0000 F1200.0000 S0.0
G1 X326.0457 Y92.8501 Z-2.0000 F1200.0000 S0.0
G1 X327.1892 Y96.0038 Z-2.0000 F1200.0000 S0.0
G1 X328.6828 Y98.6070 Z-2.0000 F1200.0000 S0.0
G1 X330.5533 Y100.3766 Z-2.0000 F1200.0000 S0.0
G1 X332.8277 Y101.0295 Z-2.0000 F1200.0000 S0.0
G1 X333.2555 Y100.9929 Z-2.0000 F1200.0000 S0.0
G1 X333.6541 Y100.8846 Z-2.0000 F1200.0000 S0.0
G1 X334.0220 Y100.7064 Z-2.0000 F1200.0000 S0.0
G1 X334.3577 Y100.4600 Z-2.0000 F1200.0000 S0.0
G1 X334.6597 Y100.1473 Z-2.0000 F1200.0000 S0.0
G1 X334.9264 Y99.7703 Z-2.0000 F1200.0000 S0.0
G1 X335.1562 Y99.3306 Z-2.0000 F1200.0000 S0.0
G1 X335.3477 Y98.8301 Z-2.0000 F1200.0000 S0.0
G1 X335.4994 Y98.2708 Z-2.0000 F1200.0000 S0.0
G1 X335.6096 Y97.6544 Z-2.0000 F1200.0000 S0.0
G1 X335.6768 Y96.9828 Z-2.0000 F1200.0000 S0.0
G1 X335.6996 Y96.2577 Z-2.0000 F1200.0000 S0.0
G1 X335.5002 Y93.2645 Z-2.0000 F1200.0000 S0.0
G1 X334.9167 Y90.4049 Z-2.0000 F1200.0000 S0.0
G1 X333.9707 Y87.7131 Z-2.0000 F1200.0000 S0.0
G1 X332.6841 Y85.2231 Z-2.0000 F1200.0000 S0.0
G1 X331.0785 Y82.9693 Z-2.0000 F1200.0000 S0.0
G1 X329.1757 Y80.9857 Z-2.0000 F1200.0000 S0.0
G1 X326.9975 Y79.3066 Z-2.0000 F1200.0000 S0.0
G1 X324.5655 Y77.9661 Z-2.0000 F1200.0000 S0.0
G1 X324.4330 Y80.3962 Z-2.0000 F1200.0000 S0.0
G0 Z5.0000
G0 X389.2563 Y53.0913 Z5.0000
G0 X389.2563 Y53.0913 Z3.0000
G1 X389.2563 Y53.0913 Z-2.0000 F1200.0000 S0.0
G1 X392.9135 Y53.5233 Z-2.0000 F1200.0000 S0.0
G1 X396.1281 Y54.7342 Z-2.0000 F1200.0000 S0.0
G1 X398.9290 Y56.5965 Z-2.0000 F1200.0000 S0.0
G1 X401.3447 Y58.9823 Z-2.0000 F1200.0000 S0.0
G1 X403.4041 Y61.7642 Z-2.0000 F1200.0000 S0.0
G1 X405.1358 Y64.8144 Z-2.0000 F1200.0000 S0.0
G1 X406.5686 Y68.0054 Z-2.0000 F1200.0000 S0.0
G1 X407.7313 Y71.2095 Z-2.0000 F1200.0000 S0.0
G1 X408.6524 Y74.2990 Z-2.0000 F1200.0000 S0.0
G1 X408.6868 Y74.5690 Z-2.0000 F1200.0000 S0.0
G1 X408.7506 Y74.8684 Z-2.0000 F1200.0000 S0.0
G1 X408.7850 Y75.2268 Z-2.0000 F1200.0000 S0.0
G1 X408.6941 Y76.1043 Z-2.0000 F1200.0000 S0.0
G1 X408.4378 Y76.9807 Z-2.0000 F1200.0000 S0.0
G1 X408.0404 Y77.8287 Z-2.0000 F1200.0000 S0.0
G1 X407.5263 Y78.6210 Z-2.0000 F1200.0000 S0.0
G1 X406.9198 Y79.3305 Z-2.0000 F1200.0000 S0.0
G1 X406.2453 Y79.9298 Z-2.0000 F1200.0000 S0.0
G1 X405.5272 Y80.3916 Z-2.0000 F1200.0000 S0.0
G1 X404.7898 Y80.6887 Z-2.0000 F1200.0000 S0.0
G1 X404.0574 Y80.7938 Z-2.0000 F1200.0000 S0.0
G1 X403.6845 Y80.7639 Z-2.0000 F1200.0000 S0.0
G1 X403.3154 Y80.6726 Z-2.0000 F1200.0000 S0.0
G1 X402.9538 Y80.5178 Z-2.0000 F1200.0000 S0.0
G1 X402.6036 Y80.2972 Z-2.0000 F1200.0000 S0.0
G1 X402.2686 Y80.0088 Z-2.0000 F1200.0000 S0.0
G1 X401.9524 Y79.6502 Z-2.0000 F1200.0000 S0.0
G1 X401.6590 Y79.2193 Z-2.0000 F1200.0000 S0.0
G1 X401.3920 Y78.7139 Z-2.0000 F1200.0000 S0.0
G1 X401.1553 Y78.1319 Z-2.0000 F1200.0000 S0.0
G1 X400.9527 Y77.4710 Z-2.0000 F1200.0000 S0.0
G1 X400.7879 Y76.7290 Z-2.0000 F1200.0000 S0.0
G1 X400.3323 Y74.6550 Z-2.0000 F1200.0000 S0.0
G1 X399.7746 Y72.4723 Z-2.0000 F1200.0000 S0.0
G1 X399.0910 Y70.2751 Z-2.0000 F1200.0000 S0.0
G1 X398.2579 Y68.1575 Z-2.0000 F1200.0000 S0.0
G1 X397.2518 Y66.2137 Z-2.0000 F1200.0000 S0.0
G1 X396.0489 Y64.5379 Z-2.0000 F1200.0000 S0.0
G1 X394.6257 Y63.2243 Z-2.0000 F1200.0000 S0.0
G1 X392.9584 Y62.3671 Z-2.0000 F1200.0000 S0.0
G1 X391.0236 Y62.0604 Z-2.0000 F1200.0000 S0.0
G1 X390.0704 Y62.1456 Z-2.0000 F1200.0000 S0.0
G1 X389.2109 Y62.3913 Z-2.0000 F1200.0000 S0.0
G1 X388.4444 Y62.7828 Z-2.0000 F1200.0000 S0.0
G1 X387.7703 Y63.3053 Z-2.0000 F1200.0000 S0.0
G1 X387.1880 Y63.9442 Z-2.0000 F1200.0000 S0.0
G1 X386.6970 Y64.6847 Z-2.0000 F1200.0000 S0.0
G1 X386.2966 Y65.5119 Z-2.0000 F1200.0000 S0.0
G1 X385.9861 Y66.4113 Z-2.0000 F1200.0000 S0.0
G1 X385.7652 Y67.3681 Z-2.0000 F1200.0000 S0.0
G1 X385.6330 Y68.3674 Z-2.0000 F1200.0000 S0.0
G1 X385.5891 Y69.3947 Z-2.0000 F1200.0000 S0.0
G1 X385.8511 Y74.5642 Z-2.0000 F1200.0000 S0.0
G1 X386.5418 Y79.7679 Z-2.0000 F1200.0000 S0.0
G1 X387.5183 Y84.8080 Z-2.0000 F1200.0000 S0.0
G1 X388.6377 Y89.4867 Z-2.0000 F1200.0000 S0.0
G1 X389.7571 Y93.6063 Z-2.0000 F1200.0000 S0.0
G1 X390.7336 Y96.9688 Z-2.0000 F1200.0000 S0.0
G1 X391.4243 Y99.3766 Z-2.0000 F1200.0000 S0.0
G1 X391.6863 Y100.6318 Z-2.0000 F1200.0000 S0.0
G1 X391.6247 Y101.8463 Z-2.0000 F1200.0000 S0.0
G1 X391.1188 Y103.1240 Z-2.0000 F1200.0000 S0.0
G1 X390.2837 Y104.3954 Z-2.0000 F1200.0000 S0.0
G1 X389.2342 Y105.5913 Z-2.0000 F1200.0000 S0.0
G1 X388.0852 Y106.6422 Z-2.0000 F1200.0000 S0.0
G1 X386.9519 Y107.4787 Z-2.0000 F1200.0000 S0.0
G1 X385.9489 Y108.0315 Z-2.0000 F1200.0000 S0.0
G1 X385.1915 Y108.2312 Z-2.0000 F1200.0000 S0.0
G1 X378.1222 Y108.2312 Z-2.0000 F1200.0000 S0.0
G1 X377.6614 Y108.2319 Z-2.0000 F1200.0000 S0.0
G1 X377.1752 Y108.2370 Z-2.0000 F1200.0000 S0.0
G1 X376.6380 Y108.2509 Z-2.0000 F1200.0000 S0.0
G1 X376.0245 Y108.2778 Z-2.0000 F1200.0000 S0.0
G1 X375.3092 Y108.3221 Z-2.0000 F1200.0000 S0.0
G1 X374.4665 Y108.3883 Z-2.0000 F1200.0000 S0.0
G1 X373.4712 Y108.4807 Z-2.0000 F1200.0000 S0.0
G1 X372.2976 Y108.6036 Z-2.0000 F1200.0000 S0.0
G1 X370.9205 Y108.7614 Z-2.0000 F1200.0000 S0.0
G1 X370.4037 Y110.3158 Z-2.0000 F1200.0000 S0.0
G1 X369.7661 Y111.6481 Z-2.0000 F1200.0000 S0.0
G1 X369.0245 Y112.7720 Z-2.0000 F1200.0000 S0.0
G1 X368.1960 Y113.7014 Z-2.0000 F1200.0000 S0.0
G1 X367.2975 Y114.4499 Z-2.0000 F1200.0000 S0.0
G1 X366.3460 Y115.0315 Z-2.0000 F1200.0000 S0.0
G1 X365.3584 Y115.4598 Z-2.0000 F1200.0000 S0.0
G1 X364.3518 Y115.7486 Z-2.0000 F1200.0000 S0.0
G1 X363.3430 Y115.9118 Z-2.0000 F1200.0000 S0.0
G1 X362.3490 Y115.9632 Z-2.0000 F1200.0000 S0.0
G1 X361.4049 Y115.9037 Z-2.0000 F1200.0000 S0.0
G1 X360.4854 Y115.7286 Z-2.0000 F1200.0000 S0.0
G1 X359.6044 Y115.4425 Z-2.0000 F1200.0000 S0.0
G1 X358.7755 Y115.0502 Z-2.0000 F1200.0000 S0.0
G1 X358.0126 Y114.5565 Z-2.0000 F1200.0000 S0.0
G1 X357.3294 Y113.9663 Z-2.0000 F1200.0000 S0.0
G1 X356.7395 Y113.2842 Z-2.0000 F1200.0000 S0.0
G1 X356.2568 Y112.5151 Z-2.0000 F1200.0000 S0.0
G1 X355.8950 Y111.6638 Z-2.0000 F1200.0000 S0.0
G1 X355.6679 Y110.7350 Z-2.0000 F1200.0000 S0.0
G1 X355.5891 Y109.7334 Z-2.0000 F1200.0000 S0.0
G1 X355.7002 Y108.3084 Z-2.0000 F1200.0000 S0.0
G1 X356.0220 Y106.9817 Z-2.0000 F1200.0000 S0.0
G1 X356.5374 Y105.7523 Z-2.0000 F1200.0000 S0.0
G1 X357.2294 Y104.6193 Z-2.0000 F1200.0000 S0.0
G1 X358.0808 Y103.5815 Z-2.0000 F1200.0000 S0.0
G1 X359.0747 Y102.6380 Z-2.0000 F1200.0000 S0.0
G1 X360.1938 Y101.7876 Z-2.0000 F1200.0000 S0.0
G1 X361.4212 Y101.0295 Z-2.0000 F1200.0000 S0.0
G1 X360.8524 Y88.6473 Z-2.0000 F1200.0000 S0.0
G1 X359.2563 Y77.3918 Z-2.0000 F1200.0000 S0.0
G1 X359.1439 Y76.8166 Z-2.0000 F1200.0000 S0.0
G1 X359.1122 Y76.2429 Z-2.0000 F1200.0000 S0.0
G1 X359.1551 Y75.6754 Z-2.0000 F1200.0000 S0.0
G1 X359.2669 Y75.1190 Z-2.0000 F1200.0000 S0.0
G1 X359.4416 Y74.5783 Z-2.0000 F1200.0000 S0.0
G1 X359.6732 Y74.0580 Z-2.0000 F1200.0000 S0.0
G1 X359.9560 Y73.5630 Z-2.0000 F1200.0000 S0.0
G1 X360.2839 Y73.0979 Z-2.0000 F1200.0000 S0.0
G1 X360.6511 Y72.6674 Z-2.0000 F1200.0000 S0.0
G1 X361.0517 Y72.2764 Z-2.0000 F1200.0000 S0.0
G1 X361.4797 Y71.9295 Z-2.0000 F1200.0000 S0.0
G1 X361.9293 Y71.6314 Z-2.0000 F1200.0000 S0.0
G1 X362.3945 Y71.3870 Z-2.0000 F1200.0000 S0.0
G1 X362.8695 Y71.2010 Z-2.0000 F1200.0000 S0.0
G1 X363.3483 Y71.0780 Z-2.0000 F1200.0000 S0.0
G1 X363.8251 Y71.0229 Z-2.0000 F1200.0000 S0.0
G1 X364.2938 Y71.0403 Z-2.0000 F1200.0000 S0.0
G1 X364.7487 Y71.1351 Z-2.0000 F1200.0000 S0.0
G1 X365.1838 Y71.3119 Z-2.0000 F1200.0000 S0.0
G1 X365.5932 Y71.5754 Z-2.0000 F1200.0000 S0.0
G1 X365.9710 Y71.9305 Z-2.0000 F1200.0000 S0.0
G1 X366.3113 Y72.3818 Z-2.0000 F1200.0000 S0.0
G1 X366.6081 Y72.9340 Z-2.0000 F1200.0000 S0.0
G1 X366.8557 Y73.5920 Z-2.0000 F1200.0000 S0.0
G1 X368.7883 Y82.4122 Z-2.0000 F1200.0000 S0.0
G1 X369.8568 Y91.5171 Z-2.0000 F1200.0000 S0.0
G1 X370.2577 Y98.5994 Z-2.0000 F1200.0000 S0.0
G1 X371.7158 Y98.5994 Z-2.0000 F1200.0000 S0.0
G1 X382.0545 Y98.5994 Z-2.0000 F1200.0000 S0.0
G1 X379.1647 Y90.1902 Z-2.0000 F1200.0000 S0.0
G1 X377.0287 Y82.4562 Z-2.0000 F1200.0000 S0.0
G1 X375.7046 Y75.2938 Z-2.0000 F1200.0000 S0.0
G1 X375.2504 Y68.5994 Z-2.0000 F1200.0000 S0.0
G1 X375.3813 Y65.9839 Z-2.0000 F1200.0000 S0.0
G1 X375.7580 Y63.6545 Z-2.0000 F1200.0000 S0.0
G1 X376.3564 Y61.5980 Z-2.0000 F1200.0000 S0.0
G1 X377.1527 Y59.8009 Z-2.0000 F1200.0000 S0.0
G1 X378.1226 Y58.2499 Z-2.0000 F1200.0000 S0.0
G1 X379.2424 Y56.9315 Z-2.0000 F1200.0000 S0.0
G1 X380.4878 Y55.8323 Z-2.0000 F1200.0000 S0.0
G1 X381.8350 Y54.9390 Z-2.0000 F1200.0000 S0.0
G1 X383.2599 Y54.2381 Z-2.0000 F1200.0000 S0.0
G1 X384.7385 Y53.7163 Z-2.0000 F1200.0000 S0.0
G1 X386.2467 Y53.3601 Z-2.0000 F1200.0000 S0.0
G1 X387.7607 Y53.1563 Z-2.0000 F1200.0000 S0.0
G1 X389.2563 Y53.0913 Z-2.0000 F1200.0000 S0.0
G0 Z5.0000
G0 X510.5081 Y59.4978 Z5.0000
G0 X510.5081 Y59.4978 Z3.0000
G1 X510.5081 Y59.4978 Z-2.0000 F1200.0000 S0.0
G1 X509.4379 Y60.0983 Z-2.0000 F1200.0000 S0.0
G1 X508.4201 Y60.8162 Z-2.0000 F1200.0000 S0.0
G1 X507.4742 Y61.6611 Z-2.0000 F1200.0000 S0.0
G1 X506.6200 Y62.6423 Z-2.0000 F1200.0000 S0.0
G1 X505.8771 Y63.7694 Z-2.0000 F1200.0000 S0.0
G1 X505.2651 Y65.0517 Z-2.0000 F1200.0000 S0.0
G1 X504.8036 Y66.4988 Z-2.0000 F1200.0000 S0.0
G1 X504.5124 Y68.1200 Z-2.0000 F1200.0000 S0.0
G1 X504.4109 Y69.9249 Z-2.0000 F1200.0000 S0.0
G1 X504.4109 Y130.3667 Z-2.0000 F1200.0000 S0.0
G1 X504.2582 Y133.8487 Z-2.0000 F1200.0000 S0.0
G1 X503.8171 Y136.9821 Z-2.0000 F1200.0000 S0.0
G1 X503.1126 Y139.7791 Z-2.0000 F1200.0000 S0.0
G1 X502.1701 Y142.2519 Z-2.0000 F1200.0000 S0.0
G1 X501.0147 Y144.4126 Z-2.0000 F1200.0000 S0.0
G1 X499.6718 Y146.2735 Z-2.0000 F1200.0000 S0.0
G1 X498.1663 Y147.8468 Z-2.0000 F1200.0000 S0.0
G1 X496.5237 Y149.1446 Z-2.0000 F1200.0000 S0.0
G1 X494.7692 Y150.1790 Z-2.0000 F1200.0000 S0.0
G1 X492.9278 Y150.9624 Z-2.0000 F1200.0000 S0.0
G1 X491.0250 Y151.5069 Z-2.0000 F1200.0000 S0.0
G1 X489.0858 Y151.8246 Z-2.0000 F1200.0000 S0.0
G1 X487.1355 Y151.9278 Z-2.0000 F1200.0000 S0.0
G1 X486.0667 Y151.8952 Z-2.0000 F1200.0000 S0.0
G1 X484.8145 Y151.7663 Z-2.0000 F1200.0000 S0.0
G1 X483.4278 Y151.4945 Z-2.0000 F1200.0000 S0.0
G1 X481.9551 Y151.0331 Z-2.0000 F1200.0000 S0.0
G1 X480.4451 Y150.3357 Z-2.0000 F1200.0000 S0.0
G1 X478.9465 Y149.3556 Z-2.0000 F1200.0000 S0.0
G1 X477.5080 Y148.0462 Z-2.0000 F1200.0000 S0.0
G1 X476.1782 Y146.3608 Z-2.0000 F1200.0000 S0.0
G1 X474.5174 Y148.0462 Z-2.0000 F1200.0000 S0.0
G1 X472.7582 Y149.3556 Z-2.0000 F1200.0000 S0.0
G1 X470.9638 Y150.3357 Z-2.0000 F1200.0000 S0.0
G1 X469.1973 Y151.0331 Z-2.0000 F1200.0000 S0.0
G1 X467.5220 Y151.4945 Z-2.0000 F1200.0000 S0.0
G1 X466.0010 Y151.7663 Z-2.0000 F1200.0000 S0.0
G1 X464.6975 Y151.8952 Z-2.0000 F1200.0000 S0.0
G1 X463.6745 Y151.9278 Z-2.0000 F1200.0000 S0.0
G1 X461.7925 Y151.8246 Z-2.0000 F1200.0000 S0.0
G1 X459.9154 Y151.5069 Z-2.0000 F1200.0000 S0.0
G1 X458.0686 Y150.9624 Z-2.0000 F1200.0000 S0.0
G1 X456.2774 Y150.1790 Z-2.0000 F1200.0000 S0.0
G1 X454.5672 Y149.1446 Z-2.0000 F1200.0000 S0.0
G1 X452.9633 Y147.8468 Z-2.0000 F1200.0000 S0.0
G1 X451.4910 Y146.2735 Z-2.0000 F1200.0000 S0.0
G1 X450.1758 Y144.4126 Z-2.0000 F1200.0000 S0.0
G1 X449.0428 Y142.2519 Z-2.0000 F1200.0000 S0.0
G1 X448.1175 Y139.7791 Z-2.0000 F1200.0000 S0.0
G1 X447.4252 Y136.9821 Z-2.0000 F1200.0000 S0.0
G1 X446.9912 Y133.8487 Z-2.0000 F1200.0000 S0.0
G1 X446.8409 Y130.3667 Z-2.0000 F1200.0000 S0.0
G1 X446.8409 Y73.5920 Z-2.0000 F1200.0000 S0.0
G1 X446.8025 Y71.4769 Z-2.0000 F1200.0000 S0.0
G1 X446.6914 Y69.5868 Z-2.0000 F1200.0000 S0.0
G1 X446.5144 Y67.9111 Z-2.0000 F1200.0000 S0.0
G1 X446.2780 Y66.4394 Z-2.0000 F1200.0000 S0.0
G1 X445.9889 Y65.1609 Z-2.0000 F1200.0000 S0.0
G1 X445.6535 Y64.0652 Z-2.0000 F1200.0000 S0.0
G1 X445.2786 Y63.1416 Z-2.0000 F1200.0000 S0.0
G1 X444.8707 Y62.3795 Z-2.0000 F1200.0000 S0.0
G1 X444.4364 Y61.7684 Z-2.0000 F1200.0000 S0.0
G1 X443.9824 Y61.2976 Z-2.0000 F1200.0000 S0.0
G1 X443.5151 Y60.9567 Z-2.0000 F1200.0000 S0.0
G1 X443.0412 Y60.7349 Z-2.0000 F1200.0000 S0.0
G1 X442.4769 Y60.5656 Z-2.0000 F1200.0000 S0.0
G1 X441.9303 Y60.4673 Z-2.0000 F1200.0000 S0.0
G1 X441.4113 Y60.4184 Z-2.0000 F1200.0000 S0.0
G1 X440.9297 Y60.3970 Z-2.0000 F1200.0000 S0.0
G1 X440.4952 Y60.3814 Z-2.0000 F1200.0000 S0.0
G1 X440.1178 Y60.3500 Z-2.0000 F1200.0000 S0.0
G1 X439.8071 Y60.2809 Z-2.0000 F1200.0000 S0.0
G1 X439.5731 Y60.1524 Z-2.0000 F1200.0000 S0.0
G1 X439.4255 Y59.9428 Z-2.0000 F1200.0000 S0.0
G1 X439.3741 Y59.6303 Z-2.0000 F1200.0000 S0.0
G1 X439.4039 Y58.9912 Z-2.0000 F1200.0000 S0.0
G1 X439.4986 Y58.3022 Z-2.0000 F1200.0000 S0.0
G1 X439.6661 Y57.5834 Z-2.0000 F1200.0000 S0.0
G1 X439.9141 Y56.8550 Z-2.0000 F1200.0000 S0.0
G1 X440.2504 Y56.1370 Z-2.0000 F1200.0000 S0.0
G1 X440.6830 Y55.4496 Z-2.0000 F1200.0000 S0.0
G1 X441.2195 Y54.8127 Z-2.0000 F1200.0000 S0.0
G1 X441.8679 Y54.2466 Z-2.0000 F1200.0000 S0.0
G1 X442.6360 Y53.7713 Z-2.0000 F1200.0000 S0.0
G1 X443.5315 Y53.4069 Z-2.0000 F1200.0000 S0.0
G1 X444.5624 Y53.1736 Z-2.0000 F1200.0000 S0.0
G1 X445.7364 Y53.0913 Z-2.0000 F1200.0000 S0.0
G1 X447.4278 Y53.2069 Z-2.0000 F1200.0000 S0.0
G1 X448.9937 Y53.5514 Z-2.0000 F1200.0000 S0.0
G1 X450.4323 Y54.1219 Z-2.0000 F1200.0000 S0.0
G1 X451.7418 Y54.9151 Z-2.0000 F1200.0000 S0.0
G1 X452.9207 Y55.9279 Z-2.0000 F1200.0000 S0.0
G1 X453.9673 Y57.1572 Z-2.0000 F1200.0000 S0.0
G1 X454.8797 Y58.5998 Z-2.0000 F1200.0000 S0.0
G1 X455.6565 Y60.2526 Z-2.0000 F1200.0000 S0.0
G1 X456.2957 Y62.1124 Z-2.0000 F1200.0000 S0.0
G1 X456.7959 Y64.1762 Z-2.0000 F1200.0000 S0.0
G1 X457.1553 Y66.4407 Z-2.0000 F1200.0000 S0.0
G1 X457.3721 Y68.9029 Z-2.0000 F1200.0000 S0.0
G1 X457.4448 Y71.5596 Z-2.0000 F1200.0000 S0.0
G1 X457.4448 Y131.6922 Z-2.0000 F1200.0000 S0.0
G1 X457.4923 Y133.4115 Z-2.0000 F1200.0000 S0.0
G1 X457.6286 Y134.9287 Z-2.0000 F1200.0000 S0.0
G1 X457.8442 Y136.2566 Z-2.0000 F1200.0000 S0.0
G1 X458.1298 Y137.4076 Z-2.0000 F1200.0000 S0.0
G1 X458.4760 Y138.3946 Z-2.0000 F1200.0000 S0.0
G1 X458.8735 Y139.2300 Z-2.0000 F1200.0000 S0.0
G1 X459.3127 Y139.9266 Z-2.0000 F1200.0000 S0.0
G1 X459.7844 Y140.4968 Z-2.0000 F1200.0000 S0.0
G1 X460.2791 Y140.9535 Z-2.0000 F1200.0000 S0.0
G1 X460.7875 Y141.3091 Z-2.0000 F1200.0000 S0.0
G1 X461.3001 Y141.5764 Z-2.0000 F1200.0000 S0.0
G1 X461.8076 Y141.7679 Z-2.0000 F1200.0000 S0.0
G1 X462.3006 Y141.8962 Z-2.0000 F1200.0000 S0.0
G1 X462.7697 Y141.9741 Z-2.0000 F1200.0000 S0.0
G1 X463.2055 Y142.0141 Z-2.0000 F1200.0000 S0.0
G1 X463.5986 Y142.0288 Z-2.0000 F1200.0000 S0.0
G1 X463.9396 Y142.0309 Z-2.0000 F1200.0000 S0.0
G1 X464.3208 Y142.0288 Z-2.0000 F1200.0000 S0.0
G1 X464.7415 Y142.0141 Z-2.0000 F1200.0000 S0.0
G1 X465.1938 Y141.9741 Z-2.0000 F1200.0000 S0.0
G1 X465.6695 Y141.8962 Z-2.0000 F1200.0000 S0.0
G1 X466.1605 Y141.7679 Z-2.0000 F1200.0000 S0.0
G1 X466.6588 Y141.5764 Z-2.0000 F1200.0000 S0.0
G1 X467.1562 Y141.3091 Z-2.0000 F1200.0000 S0.0
G1 X467.6446 Y140.9535 Z-2.0000 F1200.0000 S0.0
G1 X468.1160 Y140.4968 Z-2.0000 F1200.0000 S0.0
G1 X468.5622 Y139.9266 Z-2.0000 F1200.0000 S0.0
G1 X468.9752 Y139.2300 Z-2.0000 F1200.0000 S0.0
G1 X469.3469 Y138.3946 Z-2.0000 F1200.0000 S0.0
G1 X469.6691 Y137.4076 Z-2.0000 F1200.0000 S0.0
G1 X469.9338 Y136.2566 Z-2.0000 F1200.0000 S0.0
G1 X470.1329 Y134.9287 Z-2.0000 F1200.0000 S0.0
G1 X470.2583 Y133.4115 Z-2.0000 F1200.0000 S0.0
G1 X470.3019 Y131.6922 Z-2.0000 F1200.0000 S0.0
G1 X470.3019 Y55.6981 Z-2.0000 F1200.0000 S0.0
G1 X470.3264 Y55.1784 Z-2.0000 F1200.0000 S0.0
G1 X470.3976 Y54.7329 Z-2.0000 F1200.0000 S0.0
G1 X470.5123 Y54.3557 Z-2.0000 F1200.0000 S0.0
G1 X470.6672 Y54.0413 Z-2.0000 F1200.0000 S0.0
G1 X470.8590 Y53.7839 Z-2.0000 F1200.0000 S0.0
G1 X471.0844 Y53.5777 Z-2.0000 F1200.0000 S0.0
G1 X471.3402 Y53.4172 Z-2.0000 F1200.0000 S0.0
G1 X471.6230 Y53.2965 Z-2.0000 F1200.0000 S0.0
G1 X471.9296 Y53.2101 Z-2.0000 F1200.0000 S0.0
G1 X472.2566 Y53.1521 Z-2.0000 F1200.0000 S0.0
G1 X472.6009 Y53.1170 Z-2.0000 F1200.0000 S0.0
G1 X472.9591 Y53.0989 Z-2.0000 F1200.0000 S0.0
G1 X473.3278 Y53.0923 Z-2.0000 F1200.0000 S0.0
G1 X473.7040 Y53.0913 Z-2.0000 F1200.0000 S0.0
G1 X474.8697 Y53.1583 Z-2.0000 F1200.0000 S0.0
G1 X476.0685 Y53.3461 Z-2.0000 F1200.0000 S0.0
G1 X477.2550 Y53.6346 Z-2.0000 F1200.0000 S0.0
G1 X478.3836 Y54.0038 Z-2.0000 F1200.0000 S0.0
G1 X479.4089 Y54.4338 Z-2.0000 F1200.0000 S0.0
G1 X480.2856 Y54.9044 Z-2.0000 F1200.0000 S0.0
G1 X480.9680 Y55.3958 Z-2.0000 F1200.0000 S0.0
G1 X481.4108 Y55.8880 Z-2.0000 F1200.0000 S0.0
G1 X481.5685 Y56.3608 Z-2.0000 F1200.0000 S0.0
G1 X481.5509 Y56.4673 Z-2.0000 F1200.0000 S0.0
G1 X481.5022 Y56.5831 Z-2.0000 F1200.0000 S0.0
G1 X481.4287 Y56.7010 Z-2.0000 F1200.0000 S0.0
G1 X481.3365 Y56.8137 Z-2.0000 F1200.0000 S0.0
G1 X481.2319 Y56.9140 Z-2.0000 F1200.0000 S0.0
G1 X481.1211 Y56.9946 Z-2.0000 F1200.0000 S0.0
G1 X481.0103 Y57.0482 Z-2.0000 F1200.0000 S0.0
G1 X480.9057 Y57.0677 Z-2.0000 F1200.0000 S0.0
G1 X480.9057 Y130.3667 Z-2.0000 F1200.0000 S0.0
G1 X480.9511 Y132.3064 Z-2.0000 F1200.0000 S0.0
G1 X481.0815 Y134.0182 Z-2.0000 F1200.0000 S0.0
G1 X481.2884 Y135.5163 Z-2.0000 F1200.0000 S0.0
G1 X481.5633 Y136.8149 Z-2.0000 F1200.0000 S0.0
G1 X481.8977 Y137.9284 Z-2.0000 F1200.0000 S0.0
G1 X482.2830 Y138.8709 Z-2.0000 F1200.0000 S0.0
G1 X482.7107 Y139.6568 Z-2.0000 F1200.0000 S0.0
G1 X483.1723 Y140.3002 Z-2.0000 F1200.0000 S0.0
G1 X483.6592 Y140.8154 Z-2.0000 F1200.0000 S0.0
G1 X484.1630 Y141.2166 Z-2.0000 F1200.0000 S0.0
G1 X484.6751 Y141.5181 Z-2.0000 F1200.0000 S0.0
G1 X485.1870 Y141.7342 Z-2.0000 F1200.0000 S0.0
G1 X485.6901 Y141.8790 Z-2.0000 F1200.0000 S0.0
G1 X486.1760 Y141.9668 Z-2.0000 F1200.0000 S0.0
G1 X486.6361 Y142.0119 Z-2.0000 F1200.0000 S0.0
G1 X487.0618 Y142.0286 Z-2.0000 F1200.0000 S0.0
G1 X487.4448 Y142.0309 Z-2.0000 F1200.0000 S0.0
G1 X487.7845 Y142.0288 Z-2.0000 F1200.0000 S0.0
G1 X488.1739 Y142.0141 Z-2.0000 F1200.0000 S0.0
G1 X488.6038 Y141.9741 Z-2.0000 F1200.0000 S0.0
G1 X489.0652 Y141.8962 Z-2.0000 F1200.0000 S0.0
G1 X489.5491 Y141.7679 Z-2.0000 F1200.0000 S0.0
G1 X490.0464 Y141.5764 Z-2.0000 F1200.0000 S0.0
G1 X490.5480 Y141.3091 Z-2.0000 F1200.0000 S0.0
G1 X491.0449 Y140.9535 Z-2.0000 F1200.0000 S0.0
G1 X491.5279 Y140.4968 Z-2.0000 F1200.0000 S0.0
G1 X491.9880 Y139.9266 Z-2.0000 F1200.0000 S0.0
G1 X492.4162 Y139.2300 Z-2.0000 F1200.0000 S0.0
G1 X492.8035 Y138.3946 Z-2.0000 F1200.0000 S0.0
G1 X493.1406 Y137.4076 Z-2.0000 F1200.0000 S0.0
G1 X493.4186 Y136.2566 Z-2.0000 F1200.0000 S0.0
G1 X493.6284 Y134.9287 Z-2.0000 F1200.0000 S0.0
G1 X493.7609 Y133.4115 Z-2.0000 F1200.0000 S0.0
G1 X493.8071 Y131.6922 Z-2.0000 F1200.0000 S0.0
G1 X493.8071 Y68.8645 Z-2.0000 F1200.0000 S0.0
G1 X493.8974 Y66.3021 Z-2.0000 F1200.0000 S0.0
G1 X494.1579 Y63.9805 Z-2.0000 F1200.0000 S0.0
G1 X494.5727 Y61.8954 Z-2.0000 F1200.0000 S0.0
G1 X495.1260 Y60.0427 Z-2.0000 F1200.0000 S0.0
G1 X495.8021 Y58.4183 Z-2.0000 F1200.0000 S0.0
G1 X496.5851 Y57.0180 Z-2.0000 F1200.0000 S0.0
G1 X497.4592 Y55.8378 Z-2.0000 F1200.0000 S0.0
G1 X498.4086 Y54.8733 Z-2.0000 F1200.0000 S0.0
G1 X499.4176 Y54.1206 Z-2.0000 F1200.0000 S0.0
G1 X500.4703 Y53.5755 Z-2.0000 F1200.0000 S0.0
G1 X501.5509 Y53.2338 Z-2.0000 F1200.0000 S0.0
G1 X502.6436 Y53.0913 Z-2.0000 F1200.0000 S0.0
G1 X503.7150 Y53.1507 Z-2.0000 F1200.0000 S0.0
G1 X504.7932 Y53.3735 Z-2.0000 F1200.0000 S0.0
G1 X505.8551 Y53.7347 Z-2.0000 F1200.0000 S0.0
G1 X506.8777 Y54.2097 Z-2.0000 F1200.0000 S0.0
G1 X507.8379 Y54.7734 Z-2.0000 F1200.0000 S0.0
G1 X508.7127 Y55.4012 Z-2.0000 F1200.0000 S0.0
G1 X509.4790 Y56.0680 Z-2.0000 F1200.0000 S0.0
G1 X510.1137 Y56.7490 Z-2.0000 F1200.0000 S0.0
G1 X510.5939 Y57.4194 Z-2.0000 F1200.0000 S0.0
G1 X510.8965 Y58.0544 Z-2.0000 F1200.0000 S0.0
G1 X510.9984 Y58.6290 Z-2.0000 F1200.0000 S0.0
G1 X510.8766 Y59.1184 Z-2.0000 F1200.0000 S0.0
G1 X510.5081 Y59.4978 Z-2.0000 F1200.0000 S0.0
G0 Z5.0000
G0 X560.0884 Y62.0604 Z5.0000
G0 X560.0884 Y62.0604 Z3.0000
G1 X560.0884 Y62.0604 Z-2.0000 F1200.0000 S0.0
G1 X559.2544 Y62.1388 Z-2.0000 F1200.0000 S0.0
G1 X558.5102 Y62.3634 Z-2.0000 F1200.0000 S0.0
G1 X557.8537 Y62.7182 Z-2.0000 F1200.0000 S0.0
G1 X557.2826 Y63.1874 Z-2.0000 F1200.0000 S0.0
G1 X556.7948 Y63.7550 Z-2.0000 F1200.0000 S0.0
G1 X556.3880 Y64.4050 Z-2.0000 F1200.0000 S0.0
G1 X556.0601 Y65.1216 Z-2.0000 F1200.0000 S0.0
G1 X555.8089 Y65.8887 Z-2.0000 F1200.0000 S0.0
G1 X555.6321 Y66.6905 Z-2.0000 F1200.0000 S0.0
G1 X555.5277 Y67.5110 Z-2.0000 F1200.0000 S0.0
G1 X555.4934 Y68.3343 Z-2.0000 F1200.0000 S0.0
G1 X555.4934 Y90.6907 Z-2.0000 F1200.0000 S0.0
G1 X555.4351 Y91.4958 Z-2.0000 F1200.0000 S0.0
G1 X555.2631 Y92.2711 Z-2.0000 F1200.0000 S0.0
G1 X554.9811 Y93.0089 Z-2.0000 F1200.0000 S0.0
G1 X554.5934 Y93.7017 Z-2.0000 F1200.0000 S0.0
G1 X554.1037 Y94.3417 Z-2.0000 F1200.0000 S0.0
G1 X553.5162 Y94.9212 Z-2.0000 F1200.0000 S0.0
G1 X552.8348 Y95.4326 Z-2.0000 F1200.0000 S0.0
G1 X552.0635 Y95.8683 Z-2.0000 F1200.0000 S0.0
G1 X551.2063 Y96.2205 Z-2.0000 F1200.0000 S0.0
G1 X550.2671 Y96.4815 Z-2.0000 F1200.0000 S0.0
G1 X549.2501 Y96.6438 Z-2.0000 F1200.0000 S0.0
G1 X548.1591 Y96.6996 Z-2.0000 F1200.0000 S0.0
G1 X547.6485 Y96.6759 Z-2.0000 F1200.0000 S0.0
G1 X547.1573 Y96.6066 Z-2.0000 F1200.0000 S0.0
G1 X546.6916 Y96.4943 Z-2.0000 F1200.0000 S0.0
G1 X546.2575 Y96.3416 Z-2.0000 F1200.0000 S0.0
G1 X545.8613 Y96.1510 Z-2.0000 F1200.0000 S0.0
G1 X545.5091 Y95.9252 Z-2.0000 F1200.0000 S0.0
G1 X545.2071 Y95.6667 Z-2.0000 F1200.0000 S0.0
G1 X544.9614 Y95.3781 Z-2.0000 F1200.0000 S0.0
G1 X544.7783 Y95.0621 Z-2.0000 F1200.0000 S0.0
G1 X544.6639 Y94.7211 Z-2.0000 F1200.0000 S0.0
G1 X544.6244 Y94.3579 Z-2.0000 F1200.0000 S0.0
G1 X544.6491 Y94.0124 Z-2.0000 F1200.0000 S0.0
G1 X544.7142 Y93.6565 Z-2.0000 F1200.0000 S0.0
G1 X544.8062 Y93.2675 Z-2.0000 F1200.0000 S0.0
G1 X544.9116 Y92.8225 Z-2.0000 F1200.0000 S0.0
G1 X545.0171 Y92.2989 Z-2.0000 F1200.0000 S0.0
G1 X545.1091 Y91.6738 Z-2.0000 F1200.0000 S0.0
G1 X545.1741 Y90.9244 Z-2.0000 F1200.0000 S0.0
G1 X545.1988 Y90.0280 Z-2.0000 F1200.0000 S0.0
G1 X545.1988 Y69.1296 Z-2.0000 F1200.0000 S0.0
G1 X544.5895 Y67.7349 Z-2.0000 F1200.0000 S0.0
G1 X543.8865 Y66.4220 Z-2.0000 F1200.0000 S0.0
G1 X543.0871 Y65.2231 Z-2.0000 F1200.0000 S0.0
G1 X542.1889 Y64.1701 Z-2.0000 F1200.0000 S0.0
G1 X541.1892 Y63.2953 Z-2.0000 F1200.0000 S0.0
G1 X540.0854 Y62.6306 Z-2.0000 F1200.0000 S0.0
G1 X538.8749 Y62.2083 Z-2.0000 F1200.0000 S0.0
G1 X537.5552 Y62.0604 Z-2.0000 F1200.0000 S0.0
G1 X536.4100 Y62.1445 Z-2.0000 F1200.0000 S0.0
G1 X535.3410 Y62.3942 Z-2.0000 F1200.0000 S0.0
G1 X534.3527 Y62.8060 Z-2.0000 F1200.0000 S0.0
G1 X533.4495 Y63.3760 Z-2.0000 F1200.0000 S0.0
G1 X532.6359 Y64.1008 Z-2.0000 F1200.0000 S0.0
G1 X531.9164 Y64.9764 Z-2.0000 F1200.0000 S0.0
G1 X531.2954 Y65.9994 Z-2.0000 F1200.0000 S0.0
G1 X530.7773 Y67.1659 Z-2.0000 F1200.0000 S0.0
G1 X530.3666 Y68.4724 Z-2.0000 F1200.0000 S0.0
G1 X530.0677 Y69.9151 Z-2.0000 F1200.0000 S0.0
G1 X529.8851 Y71.4903 Z-2.0000 F1200.0000 S0.0
G1 X529.8233 Y73.1944 Z-2.0000 F1200.0000 S0.0
G1 X530.0674 Y77.8642 Z-2.0000 F1200.0000 S0.0
G1 X530.7677 Y82.0917 Z-2.0000 F1200.0000 S0.0
G1 X531.8757 Y85.8838 Z-2.0000 F1200.0000 S0.0
G1 X533.3432 Y89.2474 Z-2.0000 F1200.0000 S0.0
G1 X535.1217 Y92.1895 Z-2.0000 F1200.0000 S0.0
G1 X537.1631 Y94.7169 Z-2.0000 F1200.0000 S0.0
G1 X539.4190 Y96.8365 Z-2.0000 F1200.0000 S0.0
G1 X541.8409 Y98.5552 Z-2.0000 F1200.0000 S0.0
G1 X544.3808 Y99.8800 Z-2.0000 F1200.0000 S0.0
G1 X546.9901 Y100.8177 Z-2.0000 F1200.0000 S0.0
G1 X549.6205 Y101.3753 Z-2.0000 F1200.0000 S0.0
G1 X552.2239 Y101.5596 Z-2.0000 F1200.0000 S0.0
G1 X556.1561 Y101.2946 Z-2.0000 F1200.0000 S0.0
G1 X556.4349 Y101.3076 Z-2.0000 F1200.0000 S0.0
G1 X556.6853 Y101.3478 Z-2.0000 F1200.0000 S0.0
G1 X556.9084 Y101.4163 Z-2.0000 F1200.0000 S0.0
G1 X557.1055 Y101.5146 Z-2.0000 F1200.0000 S0.0
G1 X557.2778 Y101.6440 Z-2.0000 F1200.0000 S0.0
G1 X557.4267 Y101.8058 Z-2.0000 F1200.0000 S0.0
G1 X557.5534 Y102.0015 Z-2.0000 F1200.0000 S0.0
G1 X557.6591 Y102.2323 Z-2.0000 F1200.0000 S0.0
G1 X557.7451 Y102.4997 Z-2.0000 F1200.0000 S0.0
G1 X557.8126 Y102.8049 Z-2.0000 F1200.0000 S0.0
G1 X557.8630 Y103.1493 Z-2.0000 F1200.0000 S0.0
G1 X557.8974 Y103.5343 Z-2.0000 F1200.0000 S0.0
G1 X557.9171 Y103.9613 Z-2.0000 F1200.0000 S0.0
G1 X557.9234 Y104.4315 Z-2.0000 F1200.0000 S0.0
G1 X557.8709 Y105.2862 Z-2.0000 F1200.0000 S0.0
G1 X557.7166 Y106.0810 Z-2.0000 F1200.0000 S0.0
G1 X557.4657 Y106.8132 Z-2.0000 F1200.0000 S0.0
G1 X557.1232 Y107.4801 Z-2.0000 F1200.0000 S0.0
G1 X556.6942 Y108.0789 Z-2.0000 F1200.0000 S0.0
G1 X556.1837 Y108.6068 Z-2.0000 F1200.0000 S0.0
G1 X555.5968 Y109.0610 Z-2.0000 F1200.0000 S0.0
G1 X554.9386 Y109.4389 Z-2.0000 F1200.0000 S0.0
G1 X554.2141 Y109.7376 Z-2.0000 F1200.0000 S0.0
G1 X553.4284 Y109.9543 Z-2.0000 F1200.0000 S0.0
G1 X552.5866 Y110.0864 Z-2.0000 F1200.0000 S0.0
G1 X551.6937 Y110.1311 Z-2.0000 F1200.0000 S0.0
G1 X547.2070 Y109.7909 Z-2.0000 F1200.0000 S0.0
G1 X542.8291 Y108.7857 Z-2.0000 F1200.0000 S0.0
G1 X538.6270 Y107.1384 Z-2.0000 F1200.0000 S0.0
G1 X534.6679 Y104.8719 Z-2.0000 F1200.0000 S0.0
G1 X531.0190 Y102.0091 Z-2.0000 F1200.0000 S0.0
G1 X527.7472 Y98.5728 Z-2.0000 F1200.0000 S0.0
G1 X524.9198 Y94.5861 Z-2.0000 F1200.0000 S0.0
G1 X522.6039 Y90.0717 Z-2.0000 F1200.0000 S0.0
G1 X520.8666 Y85.0526 Z-2.0000 F1200.0000 S0.0
G1 X519.7750 Y79.5518 Z-2.0000 F1200.0000 S0.0
G1 X519.3962 Y73.5920 Z-2.0000 F1200.0000 S0.0
G1 X519.5118 Y70.7662 Z-2.0000 F1200.0000 S0.0
G1 X519.8574 Y68.0694 Z-2.0000 F1200.0000 S0.0
G1 X520.4310 Y65.5239 Z-2.0000 F1200.0000 S0.0
G1 X521.2306 Y63.1519 Z-2.0000 F1200.0000 S0.0
G1 X522.2541 Y60.9756 Z-2.0000 F1200.0000 S0.0
G1 X523.4996 Y59.0173 Z-2.0000 F1200.0000 S0.0
G1 X524.9651 Y57.2993 Z-2.0000 F1200.0000 S0.0
G1 X526.6487 Y55.8437 Z-2.0000 F1200.0000 S0.0
G1 X528.5482 Y54.6729 Z-2.0000 F1200.0000 S0.0
G1 X530.6617 Y53.8091 Z-2.0000 F1200.0000 S0.0
G1 X532.9873 Y53.2745 Z-2.0000 F1200.0000 S0.0
G1 X535.5228 Y53.0913 Z-2.0000 F1200.0000 S0.0
G1 X537.9948 Y53.2889 Z-2.0000 F1200.0000 S0.0
G1 X540.2471 Y53.8473 Z-2.0000 F1200.0000 S0.0
G1 X542.2883 Y54.7150 Z-2.0000 F1200.0000 S0.0
G1 X544.1270 Y55.8405 Z-2.0000 F1200.0000 S0.0
G1 X545.7718 Y57.1721 Z-2.0000 F1200.0000 S0.0
G1 X547.2312 Y58.6583 Z-2.0000 F1200.0000 S0.0
G1 X548.2007 Y57.3344 Z-2.0000 F1200.0000 S0.0
G1 X549.3602 Y56.1442 Z-2.0000 F1200.0000 S0.0
G1 X550.6999 Y55.1131 Z-2.0000 F1200.0000 S0.0
G1 X552.2096 Y54.2669 Z-2.0000 F1200.0000 S0.0
G1 X553.8792 Y53.6308 Z-2.0000 F1200.0000 S0.0
G1 X555.6988 Y53.2304 Z-2.0000 F1200.0000 S0.0
G1 X557.6583 Y53.0913 Z-2.0000 F1200.0000 S0.0
G1 X561.3200 Y53.5233 Z-2.0000 F1200.0000 S0.0
G1 X564.5460 Y54.7342 Z-2.0000 F1200.0000 S0.0
G1 X567.3621 Y56.5965 Z-2.0000 F1200.0000 S0.0
G1 X569.7943 Y58.9823 Z-2.0000 F1200.0000 S0.0
G1 X571.8683 Y61.7642 Z-2.0000 F1200.0000 S0.0
G1 X573.6099 Y64.8144 Z-2.0000 F1200.0000 S0.0
G1 X575.0449 Y68.0054 Z-2.0000 F1200.0000 S0.0
G1 X576.1993 Y71.2095 Z-2.0000 F1200.0000 S0.0
G1 X577.0987 Y74.2990 Z-2.0000 F1200.0000 S0.0
G1 X577.1381 Y74.4661 Z-2.0000 F1200.0000 S0.0
G1 X577.1689 Y74.6146 Z-2.0000 F1200.0000 S0.0
G1 X577.1919 Y74.7457 Z-2.0000 F1200.0000 S0.0
G1 X577.2085 Y74.8604 Z-2.0000 F1200.0000 S0.0
G1 X577.2196 Y74.9599 Z-2.0000 F1200.0000 S0.0
G1 X577.2263 Y75.0452 Z-2.0000 F1200.0000 S0.0
G1 X577.2298 Y75.1173 Z-2.0000 F1200.0000 S0.0
G1 X577.2310 Y75.1775 Z-2.0000 F1200.0000 S0.0
G1 X577.2312 Y75.2268 Z-2.0000 F1200.0000 S0.0
G1 X577.1389 Y76.1043 Z-2.0000 F1200.0000 S0.0
G1 X576.8785 Y76.9807 Z-2.0000 F1200.0000 S0.0
G1 X576.4752 Y77.8287 Z-2.0000 F1200.0000 S0.0
G1 X575.9541 Y78.6210 Z-2.0000 F1200.0000 S0.0
G1 X575.3403 Y79.3305 Z-2.0000 F1200.0000 S0.0
G1 X574.6588 Y79.9298 Z-2.0000 F1200.0000 S0.0
G1 X573.9348 Y80.3916 Z-2.0000 F1200.0000 S0.0
G1 X573.1933 Y80.6887 Z-2.0000 F1200.0000 S0.0
G1 X572.4595 Y80.7938 Z-2.0000 F1200.0000 S0.0
G1 X572.0876 Y80.7639 Z-2.0000 F1200.0000 S0.0
G1 X571.7210 Y80.6726 Z-2.0000 F1200.0000 S0.0
G1 X571.3631 Y80.5178 Z-2.0000 F1200.0000 S0.0
G1 X571.0168 Y80.2972 Z-2.0000 F1200.0000 S0.0
G1 X570.6856 Y80.0088 Z-2.0000 F1200.0000 S0.0
G1 X570.3724 Y79.6502 Z-2.0000 F1200.0000 S0.0
G1 X570.0805 Y79.2193 Z-2.0000 F1200.0000 S0.0
G1 X569.8132 Y78.7139 Z-2.0000 F1200.0000 S0.0
G1 X569.5735 Y78.1319 Z-2.0000 F1200.0000 S0.0
G1 X569.3647 Y77.4710 Z-2.0000 F1200.0000 S0.0
G1 X569.1900 Y76.7290 Z-2.0000 F1200.0000 S0.0
G1 X568.6793 Y74.3862 Z-2.0000 F1200.0000 S0.0
G1 X568.0288 Y71.9207 Z-2.0000 F1200.0000 S0.0
G1 X567.2189 Y69.4666 Z-2.0000 F1200.0000 S0.0
G1 X566.2297 Y67.1580 Z-2.0000 F1200.0000 S0.0
G1 X565.0418 Y65.1289 Z-2.0000 F1200.0000 S0.0
G1 X563.6354 Y63.5136 Z-2.0000 F1200.0000 S0.0
G1 X561.9908 Y62.4460 Z-2.0000 F1200.0000 S0.0
G1 X560.0884 Y62.0604 Z-2.0000 F1200.0000 S0.0
G0 Z5.0000
G0 X562.5700 Y120.6907 Z5.0000
G0 X562.5700 Y120.6907 Z3.0000
G1 X562.5700 Y120.6907 Z-2.0000 F1200.0000 S0.0
G1 X561.9343 Y120.6004 Z-2.0000 F1200.0000 S0.0
G1 X561.4269 Y120.3441 Z-2.0000 F1200.0000 S0.0
G1 X561.0422 Y119.9441 Z-2.0000 F1200.0000 S0.0
G1 X560.7746 Y119.4223 Z-2.0000 F1200.0000 S0.0
G1 X560.6185 Y118.8011 Z-2.0000 F1200.0000 S0.0
G1 X560.5682 Y118.1024 Z-2.0000 F1200.0000 S0.0
G1 X560.6182 Y117.3483 Z-2.0000 F1200.0000 S0.0
G1 X560.7629 Y116.5611 Z-2.0000 F1200.0000 S0.0
G1 X560.9965 Y115.7629 Z-2.0000 F1200.0000 S0.0
G1 X561.3136 Y114.9757 Z-2.0000 F1200.0000 S0.0
G1 X561.7085 Y114.2217 Z-2.0000 F1200.0000 S0.0
G1 X562.1756 Y113.5229 Z-2.0000 F1200.0000 S0.0
G1 X562.7093 Y112.9017 Z-2.0000 F1200.0000 S0.0
G1 X563.3040 Y112.3799 Z-2.0000 F1200.0000 S0.0
G1 X563.9540 Y111.9799 Z-2.0000 F1200.0000 S0.0
G1 X564.6537 Y111.7236 Z-2.0000 F1200.0000 S0.0
G1 X565.3976 Y111.6333 Z-2.0000 F1200.0000 S0.0
G1 X565.4680 Y111.6272 Z-2.0000 F1200.0000 S0.0
G1 X565.6773 Y111.6104 Z-2.0000 F1200.0000 S0.0
G1 X566.0224 Y111.5850 Z-2.0000 F1200.0000 S0.0
G1 X566.5006 Y111.5531 Z-2.0000 F1200.0000 S0.0
G1 X567.1088 Y111.5169 Z-2.0000 F1200.0000 S0.0
G1 X567.8443 Y111.4786 Z-2.0000 F1200.0000 S0.0
G1 X568.7040 Y111.4403 Z-2.0000 F1200.0000 S0.0
G1 X569.6850 Y111.4042 Z-2.0000 F1200.0000 S0.0
G1 X570.7845 Y111.3723 Z-2.0000 F1200.0000 S0.0
G1 X571.9995 Y111.3469 Z-2.0000 F1200.0000 S0.0
G1 X573.3271 Y111.3301 Z-2.0000 F1200.0000 S0.0
G1 X574.7644 Y111.3240 Z-2.0000 F1200.0000 S0.0
G1 X574.7644 Y68.1576 Z-2.0000 F1200.0000 S0.0
G1 X574.8548 Y65.8014 Z-2.0000 F1200.0000 S0.0
G1 X575.1205 Y63.6643 Z-2.0000 F1200.0000 S0.0
G1 X575.5533 Y61.7408 Z-2.0000 F1200.0000 S0.0
G1 X576.1451 Y60.0257 Z-2.0000 F1200.0000 S0.0
G1 X576.8875 Y58.5137 Z-2.0000 F1200.0000 S0.0
G1 X577.7725 Y57.1995 Z-2.0000 F1200.0000 S0.0
G1 X578.7917 Y56.0777 Z-2.0000 F1200.0000 S0.0
G1 X579.9371 Y55.1431 Z-2.0000 F1200.0000 S0.0
G1 X581.2003 Y54.3903 Z-2.0000 F1200.0000 S0.0
G1 X582.5732 Y53.8140 Z-2.0000 F1200.0000 S0.0
G1 X584.0476 Y53.4090 Z-2.0000 F1200.0000 S0.0
G1 X585.6153 Y53.1698 Z-2.0000 F1200.0000 S0.0
G1 X587.2680 Y53.0913 Z-2.0000 F1200.0000 S0.0
G1 X590.9296 Y53.5233 Z-2.0000 F1200.0000 S0.0
G1 X594.1552 Y54.7342 Z-2.0000 F1200.0000 S0.0
G1 X596.9702 Y56.5965 Z-2.0000 F1200.0000 S0.0
G1 X599.4001 Y58.9823 Z-2.0000 F1200.0000 S0.0
G1 X601.4704 Y61.7642 Z-2.0000 F1200.0000 S0.0
G1 X603.2065 Y64.8144 Z-2.0000 F1200.0000 S0.0
G1 X604.6339 Y68.0054 Z-2.0000 F1200.0000 S0.0
G1 X605.7780 Y71.2095 Z-2.0000 F1200.0000 S0.0
G1 X606.6642 Y74.2990 Z-2.0000 F1200.0000 S0.0
G1 X606.7037 Y74.4661 Z-2.0000 F1200.0000 S0.0
G1 X606.7344 Y74.6146 Z-2.0000 F1200.0000 S0.0
G1 X606.7575 Y74.7457 Z-2.0000 F1200.0000 S0.0
G1 X606.7740 Y74.8604 Z-2.0000 F1200.0000 S0.0
G1 X606.7851 Y74.9599 Z-2.0000 F1200.0000 S0.0
G1 X606.7919 Y75.0452 Z-2.0000 F1200.0000 S0.0
G1 X606.7953 Y75.1173 Z-2.0000 F1200.0000 S0.0
G1 X606.7966 Y75.1775 Z-2.0000 F1200.0000 S0.0
G1 X606.7968 Y75.2268 Z-2.0000 F1200.0000 S0.0
G1 X606.7059 Y76.1043 Z-2.0000 F1200.0000 S0.0
G1 X606.4496 Y76.9807 Z-2.0000 F1200.0000 S0.0
G1 X606.0522 Y77.8287 Z-2.0000 F1200.0000 S0.0
G1 X605.5381 Y78.6210 Z-2.0000 F1200.0000 S0.0
G1 X604.9316 Y79.3305 Z-2.0000 F1200.0000 S0.0
G1 X604.2571 Y79.9298 Z-2.0000 F1200.0000 S0.0
G1 X603.5389 Y80.3916 Z-2.0000 F1200.0000 S0.0
G1 X602.8015 Y80.6887 Z-2.0000 F1200.0000 S0.0
G1 X602.0692 Y80.7938 Z-2.0000 F1200.0000 S0.0
G1 X601.6963 Y80.7639 Z-2.0000 F1200.0000 S0.0
G1 X601.3272 Y80.6726 Z-2.0000 F1200.0000 S0.0
G1 X600.9656 Y80.5178 Z-2.0000 F1200.0000 S0.0
G1 X600.6154 Y80.2972 Z-2.0000 F1200.0000 S0.0
G1 X600.2803 Y80.0088 Z-2.0000 F1200.0000 S0.0
G1 X599.9642 Y79.6502 Z-2.0000 F1200.0000 S0.0
G1 X599.6707 Y79.2193 Z-2.0000 F1200.0000 S0.0
G1 X599.4038 Y78.7139 Z-2.0000 F1200.0000 S0.0
G1 X599.1671 Y78.1319 Z-2.0000 F1200.0000 S0.0
G1 X598.9645 Y77.4710 Z-2.0000 F1200.0000 S0.0
G1 X598.7997 Y76.7290 Z-2.0000 F1200.0000 S0.0
G1 X598.2763 Y74.3862 Z-2.0000 F1200.0000 S0.0
G1 X597.6199 Y71.9207 Z-2.0000 F1200.0000 S0.0
G1 X596.8092 Y69.4666 Z-2.0000 F1200.0000 S0.0
G1 X595.8229 Y67.1580 Z-2.0000 F1200.0000 S0.0
G1 X594.6399 Y65.1289 Z-2.0000 F1200.0000 S0.0
G1 X593.2389 Y63.5136 Z-2.0000 F1200.0000 S0.0
G1 X591.5987 Y62.4460 Z-2.0000 F1200.0000 S0.0
G1 X589.6981 Y62.0604 Z-2.0000 F1200.0000 S0.0
G1 X589.0560 Y62.0944 Z-2.0000 F1200.0000 S0.0
G1 X588.4563 Y62.1974 Z-2.0000 F1200.0000 S0.0
G1 X587.9005 Y62.3710 Z-2.0000 F1200.0000 S0.0
G1 X587.3901 Y62.6167 Z-2.0000 F1200.0000 S0.0
G1 X586.9269 Y62.9362 Z-2.0000 F1200.0000 S0.0
G1 X586.5122 Y63.3310 Z-2.0000 F1200.0000 S0.0
G1 X586.1478 Y63.8026 Z-2.0000 F1200.0000 S0.0
G1 X585.8351 Y64.3527 Z-2.0000 F1200.0000 S0.0
G1 X585.5758 Y64.9827 Z-2.0000 F1200.0000 S0.0
G1 X585.3713 Y65.6943 Z-2.0000 F1200.0000 S0.0
G1 X585.2234 Y66.4891 Z-2.0000 F1200.0000 S0.0
G1 X585.1334 Y67.3686 Z-2.0000 F1200.0000 S0.0
G1 X585.1031 Y68.3343 Z-2.0000 F1200.0000 S0.0
G1 X585.1031 Y111.3240 Z-2.0000 F1200.0000 S0.0
G1 X592.6256 Y111.3355 Z-2.0000 F1200.0000 S0.0
G1 X601.1594 Y111.4156 Z-2.0000 F1200.0000 S0.0
G1 X611.1267 Y111.6333 Z-2.0000 F1200.0000 S0.0
G1 X611.6940 Y111.7697 Z-2.0000 F1200.0000 S0.0
G1 X612.2160 Y112.1141 Z-2.0000 F1200.0000 S0.0
G1 X612.6898 Y112.6356 Z-2.0000 F1200.0000 S0.0
G1 X613.1126 Y113.3033 Z-2.0000 F1200.0000 S0.0
G1 X613.4816 Y114.0862 Z-2.0000 F1200.0000 S0.0
G1 X613.7940 Y114.9535 Z-2.0000 F1200.0000 S0.0
G1 X614.0469 Y115.8743 Z-2.0000 F1200.0000 S0.0
G1 X614.2375 Y116.8176 Z-2.0000 F1200.0000 S0.0
G1 X614.3630 Y117.7526 Z-2.0000 F1200.0000 S0.0
G1 X614.4207 Y118.6483 Z-2.0000 F1200.0000 S0.0
G1 X614.4075 Y119.4738 Z-2.0000 F1200.0000 S0.0
G1 X614.3209 Y120.1982 Z-2.0000 F1200.0000 S0.0
G1 X614.1579 Y120.7906 Z-2.0000 F1200.0000 S0.0
G1 X613.9157 Y121.2201 Z-2.0000 F1200.0000 S0.0
G1 X613.5915 Y121.4557 Z-2.0000 F1200.0000 S0.0
G1 X613.1825 Y121.4667 Z-2.0000 F1200.0000 S0.0
G1 X612.6858 Y121.2220 Z-2.0000 F1200.0000 S0.0
G1 X612.0987 Y120.6907 Z-2.0000 F1200.0000 S0.0
G1 X585.1031 Y120.1605 Z-2.0000 F1200.0000 S0.0
G1 X585.1031 Y143.9308 Z-2.0000 F1200.0000 S0.0
G1 X585.0329 Y144.8066 Z-2.0000 F1200.0000 S0.0
G1 X584.8260 Y145.6444 Z-2.0000 F1200.0000 S0.0
G1 X584.4883 Y146.4347 Z-2.0000 F1200.0000 S0.0
G1 X584.0254 Y147.1677 Z-2.0000 F1200.0000 S0.0
G1 X583.4433 Y147.8340 Z-2.0000 F1200.0000 S0.0
G1 X582.7477 Y148.4241 Z-2.0000 F1200.0000 S0.0
G1 X581.9443 Y148.9283 Z-2.0000 F1200.0000 S0.0
G1 X581.0390 Y149.3371 Z-2.0000 F1200.0000 S0.0
G1 X580.0374 Y149.6409 Z-2.0000 F1200.0000 S0.0
G1 X578.9454 Y149.8302 Z-2.0000 F1200.0000 S0.0
G1 X577.7688 Y149.8954 Z-2.0000 F1200.0000 S0.0
G1 X577.1184 Y149.8759 Z-2.0000 F1200.0000 S0.0
G1 X576.4506 Y149.8179 Z-2.0000 F1200.0000 S0.0
G1 X575.7904 Y149.7220 Z-2.0000 F1200.0000 S0.0
G1 X575.1629 Y149.5890 Z-2.0000 F1200.0000 S0.0
G1 X574.5933 Y149.4197 Z-2.0000 F1200.0000 S0.0
G1 X574.1065 Y149.2147 Z-2.0000 F1200.0000 S0.0
G1 X573.7278 Y148.9748 Z-2.0000 F1200.0000 S0.0
G1 X573.4822 Y148.7007 Z-2.0000 F1200.0000 S0.0
G1 X573.3947 Y148.3932 Z-2.0000 F1200.0000 S0.0
G1 X573.4266 Y148.1533 Z-2.0000 F1200.0000 S0.0
G1 X573.5141 Y147.9266 Z-2.0000 F1200.0000 S0.0
G1 X573.6448 Y147.6932 Z-2.0000 F1200.0000 S0.0
G1 X573.8063 Y147.4336 Z-2.0000 F1200.0000 S0.0
G1 X573.9864 Y147.1280 Z-2.0000 F1200.0000 S0.0
G1 X574.1727 Y146.7566 Z-2.0000 F1200.0000 S0.0
G1 X574.3527 Y146.2998 Z-2.0000 F1200.0000 S0.0
G1 X574.5143 Y145.7379 Z-2.0000 F1200.0000 S0.0
G1 X574.6450 Y145.0510 Z-2.0000 F1200.0000 S0.0
G1 X574.7325 Y144.2196 Z-2.0000 F1200.0000 S0.0
G1 X574.7644 Y143.2239 Z-2.0000 F1200.0000 S0.0
G1 X574.7644 Y120.2931 Z-2.0000 F1200.0000 S0.0
G1 X572.9837 Y120.3287 Z-2.0000 F1200.0000 S0.0
G1 X571.3144 Y120.3686 Z-2.0000 F1200.0000 S0.0
G1 X569.7648 Y120.4111 Z-2.0000 F1200.0000 S0.0
G1 X568.3432 Y120.4551 Z-2.0000 F1200.0000 S0.0
G1 X567.0577 Y120.4990 Z-2.0000 F1200.0000 S0.0
G1 X565.9168 Y120.5416 Z-2.0000 F1200.0000 S0.0
G1 X564.9287 Y120.5814 Z-2.0000 F1200.0000 S0.0
G1 X564.1016 Y120.6171 Z-2.0000 F1200.0000 S0.0
G1 X563.4439 Y120.6472 Z-2.0000 F1200.0000 S0.0
G1 X562.9639 Y120.6705 Z-2.0000 F1200.0000 S0.0
G1 X562.6698 Y120.6854 Z-2.0000 F1200.0000 S0.0
G1 X562.5700 Y120.6907 Z-2.0000 F1200.0000 S0.0
G0 Z5.0000
G0 X39.8601 Y126.9647 Z5.0000
G0 X39.8601 Y126.9647 Z3.0000
G1 X39.8601 Y126.9647 Z-2.0000 F1200.0000 S0.0
G1 X39.7847 Y127.8405 Z-2.0000 F1200.0000 S0.0
G1 X39.5635 Y128.6783 Z-2.0000 F1200.0000 S0.0
G1 X39.2040 Y129.4685 Z-2.0000 F1200.0000 S0.0
G1 X38.7139 Y130.2016 Z-2.0000 F1200.0000 S0.0
G1 X38.1008 Y130.8679 Z-2.0000 F1200.0000 S0.0
G1 X37.3721 Y131.4579 Z-2.0000 F1200.0000 S0.0
G1 X36.5354 Y131.9621 Z-2.0000 F1200.0000 S0.0
G1 X35.5984 Y132.3709 Z-2.0000 F1200.0000 S0.0
G1 X34.5685 Y132.6748 Z-2.0000 F1200.0000 S0.0
G1 X33.4534 Y132.8641 Z-2.0000 F1200.0000 S0.0
G1 X32.2607 Y132.9293 Z-2.0000 F1200.0000 S0.0
G1 X31.7501 Y132.9057 Z-2.0000 F1200.0000 S0.0
G1 X31.2589 Y132.8366 Z-2.0000 F1200.0000 S0.0
G1 X30.7932 Y132.7250 Z-2.0000 F1200.0000 S0.0
G1 X30.3591 Y132.5735 Z-2.0000 F1200.0000 S0.0
G1 X29.9629 Y132.3849 Z-2.0000 F1200.0000 S0.0
G1 X29.6107 Y132.1621 Z-2.0000 F1200.0000 S0.0
G1 X29.3087 Y131.9078 Z-2.0000 F1200.0000 S0.0
G1 X29.0631 Y131.6249 Z-2.0000 F1200.0000 S0.0
G1 X28.8800 Y131.3160 Z-2.0000 F1200.0000 S0.0
G1 X28.7656 Y130.9841 Z-2.0000 F1200.0000 S0.0
G1 X28.7261 Y130.6318 Z-2.0000 F1200.0000 S0.0
G1 X28.7579 Y130.2203 Z-2.0000 F1200.0000 S0.0
G1 X28.8399 Y129.7956 Z-2.0000 F1200.0000 S0.0
G1 X28.9521 Y129.3229 Z-2.0000 F1200.0000 S0.0
G1 X29.0744 Y128.7676 Z-2.0000 F1200.0000 S0.0
G1 X29.1866 Y128.0949 Z-2.0000 F1200.0000 S0.0
G1 X29.2686 Y127.2698 Z-2.0000 F1200.0000 S0.0
G1 X29.3004 Y126.2577 Z-2.0000 F1200.0000 S0.0
G1 X29.3004 Y74.2990 Z-2.0000 F1200.0000 S0.0
G1 X29.3836 Y71.0873 Z-2.0000 F1200.0000 S0.0
G1 X29.6397 Y68.1034 Z-2.0000 F1200.0000 S0.0
G1 X30.0785 Y65.3524 Z-2.0000 F1200.0000 S0.0
G1 X30.7098 Y62.8394 Z-2.0000 F1200.0000 S0.0
G1 X31.5433 Y60.5694 Z-2.0000 F1200.0000 S0.0
G1 X32.5887 Y58.5474 Z-2.0000 F1200.0000 S0.0
G1 X33.8560 Y56.7786 Z-2.0000 F1200.0000 S0.0
G1 X35.3548 Y55.2681 Z-2.0000 F1200.0000 S0.0
G1 X37.0949 Y54.0208 Z-2.0000 F1200.0000 S0.0
G1 X39.0862 Y53.0418 Z-2.0000 F1200.0000 S0.0
G1 X41.3383 Y52.3363 Z-2.0000 F1200.0000 S0.0
G1 X43.8610 Y51.9093 Z-2.0000 F1200.0000 S0.0
G1 X46.6642 Y51.7658 Z-2.0000 F1200.0000 S0.0
G1 X50.4716 Y52.2019 Z-2.0000 F1200.0000 S0.0
G1 X54.3729 Y53.5020 Z-2.0000 F1200.0000 S0.0
G1 X58.2870 Y55.6539 Z-2.0000 F1200.0000 S0.0
G1 X62.1330 Y58.6452 Z-2.0000 F1200.0000 S0.0
G1 X65.8300 Y62.4638 Z-2.0000 F1200.0000 S0.0
G1 X69.2968 Y67.0972 Z-2.0000 F1200.0000 S0.0
G1 X72.4524 Y72.5333 Z-2.0000 F1200.0000 S0.0
G1 X75.2160 Y78.7598 Z-2.0000 F1200.0000 S0.0
G1 X77.5064 Y85.7644 Z-2.0000 F1200.0000 S0.0
G1 X79.2428 Y93.5348 Z-2.0000 F1200.0000 S0.0
G1 X80.3439 Y102.0587 Z-2.0000 F1200.0000 S0.0
G1 X80.7290 Y111.3240 Z-2.0000 F1200.0000 S0.0
G1 X80.4979 Y116.7598 Z-2.0000 F1200.0000 S0.0
G1 X79.7973 Y122.0860 Z-2.0000 F1200.0000 S0.0
G1 X78.6158 Y127.2332 Z-2.0000 F1200.0000 S0.0
G1 X76.9424 Y132.1324 Z-2.0000 F1200.0000 S0.0
G1 X74.7658 Y136.7143 Z-2.0000 F1200.0000 S0.0
G1 X72.0747 Y140.9098 Z-2.0000 F1200.0000 S0.0
G1 X68.8581 Y144.6496 Z-2.0000 F1200.0000 S0.0
G1 X65.1047 Y147.8647 Z-2.0000 F1200.0000 S0.0
G1 X60.8033 Y150.4857 Z-2.0000 F1200.0000 S0.0
G1 X55.9428 Y152.4435 Z-2.0000 F1200.0000 S0.0
G1 X50.5118 Y153.6689 Z-2.0000 F1200.0000 S0.0
G1 X44.4993 Y154.0928 Z-2.0000 F1200.0000 S0.0
G1 X38.7287 Y153.7395 Z-2.0000 F1200.0000 S0.0
G1 X33.3198 Y152.7021 Z-2.0000 F1200.0000 S0.0
G1 X28.2994 Y151.0145 Z-2.0000 F1200.0000 S0.0
G1 X23.6942 Y148.7107 Z-2.0000 F1200.0000 S0.0
G1 X19.5307 Y145.8245 Z-2.0000 F1200.0000 S0.0
G1 X15.8358 Y142.3899 Z-2.0000 F1200.0000 S0.0
G1 X12.6361 Y138.4408 Z-2.0000 F1200.0000 S0.0
G1 X9.9583 Y134.0110 Z-2.0000 F1200.0000 S0.0
G1 X7.8291 Y129.1344 Z-2.0000 F1200.0000 S0.0
G1 X6.2752 Y123.8451 Z-2.0000 F1200.0000 S0.0
G1 X5.3232 Y118.1768 Z-2.0000 F1200.0000 S0.0
G1 X5.0000 Y112.1635 Z-2.0000 F1200.0000 S0.0
G1 X5.2141 Y107.5698 Z-2.0000 F1200.0000 S0.0
G1 X5.8069 Y103.3562 Z-2.0000 F1200.0000 S0.0
G1 X6.7045 Y99.5252 Z-2.0000 F1200.0000 S0.0
G1 X7.8326 Y96.0794 Z-2.0000 F1200.0000 S0.0
G1 X9.1172 Y93.0214 Z-2.0000 F1200.0000 S0.0
G1 X10.4842 Y90.3538 Z-2.0000 F1200.0000 S0.0
G1 X11.8594 Y88.0793 Z-2.0000 F1200.0000 S0.0
G1 X13.1689 Y86.2005 Z-2.0000 F1200.0000 S0.0
G1 X14.3384 Y84.7199 Z-2.0000 F1200.0000 S0.0
G1 X15.2939 Y83.6401 Z-2.0000 F1200.0000 S0.0
G1 X15.9614 Y82.9639 Z-2.0000 F1200.0000 S0.0
G1 X16.2666 Y82.6937 Z-2.0000 F1200.0000 S0.0
G1 X16.6688 Y82.4211 Z-2.0000 F1200.0000 S0.0
G1 X17.0774 Y82.2313 Z-2.0000 F1200.0000 S0.0
G1 X17.4881 Y82.1115 Z-2.0000 F1200.0000 S0.0
G1 X17.8967 Y82.0490 Z-2.0000 F1200.0000 S0.0
G1 X18.2990 Y82.0309 Z-2.0000 F1200.0000 S0.0
G1 X19.3479 Y82.1888 Z-2.0000 F1200.0000 S0.0
G1 X20.3837 Y82.6329 Z-2.0000 F1200.0000 S0.0
G1 X21.3770 Y83.3188 Z-2.0000 F1200.0000 S0.0
G1 X22.2983 Y84.2021 Z-2.0000 F1200.0000 S0.0
G1 X23.1181 Y85.2386 Z-2.0000 F1200.0000 S0.0
G1 X23.8071 Y86.3837 Z-2.0000 F1200.0000 S0.0
G1 X24.3356 Y87.5933 Z-2.0000 F1200.0000 S0.0
G1 X24.6744 Y88.8228 Z-2.0000 F1200.0000 S0.0
G1 X24.7938 Y90.0280 Z-2.0000 F1200.0000 S0.0
G1 X24.7875 Y90.2794 Z-2.0000 F1200.0000 S0.0
G1 X24.7681 Y90.5192 Z-2.0000 F1200.0000 S0.0
G1 X24.7350 Y90.7460 Z-2.0000 F1200.0000 S0.0
G1 X24.6875 Y90.9586 Z-2.0000 F1200.0000 S0.0
G1 X24.6250 Y91.1556 Z-2.0000 F1200.0000 S0.0
G1 X24.5468 Y91.3359 Z-2.0000 F1200.0000 S0.0
G1 X24.4524 Y91.4980 Z-2.0000 F1200.0000 S0.0
G1 X24.3409 Y91.6406 Z-2.0000 F1200.0000 S0.0
G1 X24.2119 Y91.7626 Z-2.0000 F1200.0000 S0.0
G1 X24.0646 Y91.8626 Z-2.0000 F1200.0000 S0.0
G1 X23.8984 Y91.9393 Z-2.0000 F1200.0000 S0.0
G1 X23.7127 Y91.9913 Z-2.0000 F1200.0000 S0.0
G1 X23.5068 Y92.0175 Z-2.0000 F1200.0000 S0.0
G1 X23.2800 Y92.0165 Z-2.0000 F1200.0000 S0.0
G1 X23.0318 Y91.9871 Z-2.0000 F1200.0000 S0.0
G1 X22.7614 Y91.9278 Z-2.0000 F1200.0000 S0.0
G1 X22.4742 Y92.2135 Z-2.0000 F1200.0000 S0.0
G1 X21.9402 Y92.8483 Z-2.0000 F1200.0000 S0.0
G1 X21.2171 Y93.8243 Z-2.0000 F1200.0000 S0.0
G1 X20.3629 Y95.1335 Z-2.0000 F1200.0000 S0.0
G1 X19.4351 Y96.7680 Z-2.0000 F1200.0000 S0.0
G1 X18.4916 Y98.7197 Z-2.0000 F1200.0000 S0.0
G1 X17.5901 Y100.9808 Z-2.0000 F1200.0000 S0.0
G1 X16.7884 Y103.5432 Z-2.0000 F1200.0000 S0.0
G1 X16.1443 Y106.3990 Z-2.0000 F1200.0000 S0.0
G1 X15.7154 Y109.5401 Z-2.0000 F1200.0000 S0.0
G1 X15.5596 Y112.9588 Z-2.0000 F1200.0000 S0.0
G1 X15.6909 Y116.5887 Z-2.0000 F1200.0000 S0.0
G1 X16.1091 Y120.2346 Z-2.0000 F1200.0000 S0.0
G1 X16.8506 Y123.8332 Z-2.0000 F1200.0000 S0.0
G1 X17.9521 Y127.3214 Z-2.0000 F1200.0000 S0.0
G1 X19.4499 Y130.6359 Z-2.0000 F1200.0000 S0.0
G1 X21.3807 Y133.7135 Z-2.0000 F1200.0000 S0.0
G1 X23.7809 Y136.4911 Z-2.0000 F1200.0000 S0.0
G1 X26.6871 Y138.9054 Z-2.0000 F1200.0000 S0.0
G1 X30.1358 Y140.8932 Z-2.0000 F1200.0000 S0.0
G1 X34.1634 Y142.3913 Z-2.0000 F1200.0000 S0.0
G1 X38.8065 Y143.3366 Z-2.0000 F1200.0000 S0.0
G1 X44.1016 Y143.6657 Z-2.0000 F1200.0000 S0.0
G1 X48.3953 Y143.3586 Z-2.0000 F1200.0000 S0.0
G1 X52.2689 Y142.4648 Z-2.0000 F1200.0000 S0.0
G1 X55.7313 Y141.0251 Z-2.0000 F1200.0000 S0.0
G1 X58.7915 Y139.0805 Z-2.0000 F1200.0000 S0.0
G1 X61.4584 Y136.6720 Z-2.0000 F1200.0000 S0.0
G1 X63.7408 Y133.8406 Z-2.0000 F1200.0000 S0.0
G1 X65.6477 Y130.6271 Z-2.0000 F1200.0000 S0.0
G1 X67.1879 Y127.0727 Z-2.0000 F1200.0000 S0.0
G1 X68.3703 Y123.2181 Z-2.0000 F1200.0000 S0.0
G1 X69.2039 Y119.1044 Z-2.0000 F1200.0000 S0.0
G1 X69.6975 Y114.7726 Z-2.0000 F1200.0000 S0.0
G1 X69.8601 Y110.2636 Z-2.0000 F1200.0000 S0.0
G1 X69.5714 Y103.0195 Z-2.0000 F1200.0000 S0.0
G1 X68.7467 Y96.1525 Z-2.0000 F1200.0000 S0.0
G1 X67.4482 Y89.7284 Z-2.0000 F1200.0000 S0.0
G1 X65.7381 Y83.8131 Z-2.0000 F1200.0000 S0.0
G1 X63.6783 Y78.4727 Z-2.0000 F1200.0000 S0.0
G1 X61.3312 Y73.7730 Z-2.0000 F1200.0000 S0.0
G1 X58.7588 Y69.7800 Z-2.0000 F1200.0000 S0.0
G1 X56.0233 Y66.5595 Z-2.0000 F1200.0000 S0.0
G1 X53.1868 Y64.1776 Z-2.0000 F1200.0000 S0.0
G1 X50.3115 Y62.7001 Z-2.0000 F1200.0000 S0.0
G1 X47.4595 Y62.1929 Z-2.0000 F1200.0000 S0.0
G1 X46.2716 Y62.2626 Z-2.0000 F1200.0000 S0.0
G1 X45.1940 Y62.4707 Z-2.0000 F1200.0000 S0.0
G1 X44.2241 Y62.8163 Z-2.0000 F1200.0000 S0.0
G1 X43.3591 Y63.2982 Z-2.0000 F1200.0000 S0.0
G1 X42.5964 Y63.9154 Z-2.0000 F1200.0000 S0.0
G1 X41.9334 Y64.6668 Z-2.0000 F1200.0000 S0.0
G1 X41.3674 Y65.5512 Z-2.0000 F1200.0000 S0.0
G1 X40.8958 Y66.5677 Z-2.0000 F1200.0000 S0.0
G1 X40.5158 Y67.7151 Z-2.0000 F1200.0000 S0.0
G1 X40.2250 Y68.9923 Z-2.0000 F1200.0000 S0.0
G1 X40.0205 Y70.3982 Z-2.0000 F1200.0000 S0.0
G1 X39.8997 Y71.9319 Z-2.0000 F1200.0000 S0.0
G1 X39.8601 Y73.5920 Z-2.0000 F1200.0000 S0.0
G1 X39.8601 Y126.9647 Z-2.0000 F1200.0000 S0.0
G0 Z5.0000
G0 X125.5376 Y96.4345 Z5.0000
G0 X125.5376 Y96.4345 Z3.0000
G1 X125.5376 Y96.4345 Z-2.0000 F1200.0000 S0.0
G1 X125.4419 Y98.4117 Z-2.0000 F1200.0000 S0.0
G1 X125.1587 Y100.2718 Z-2.0000 F1200.0000 S0.0
G1 X124.6939 Y102.0042 Z-2.0000 F1200.0000 S0.0
G1 X124.0533 Y103.5986 Z-2.0000 F1200.0000 S0.0
G1 X123.2428 Y105.0444 Z-2.0000 F1200.0000 S0.0
G1 X122.2680 Y106.3314 Z-2.0000 F1200.0000 S0.0
G1 X121.1350 Y107.4489 Z-2.0000 F1200.0000 S0.0
G1 X119.8495 Y108.3867 Z-2.0000 F1200.0000 S0.0
G1 X118.4172 Y109.1342 Z-2.0000 F1200.0000 S0.0
G1 X116.8442 Y109.6811 Z-2.0000 F1200.0000 S0.0
G1 X115.1362 Y110.0168 Z-2.0000 F1200.0000 S0.0
G1 X113.2990 Y110.1311 Z-2.0000 F1200.0000 S0.0
G1 X110.4651 Y109.8176 Z-2.0000 F1200.0000 S0.0
G1 X107.6818 Y108.9031 Z-2.0000 F1200.0000 S0.0
G1 X104.9954 Y107.4261 Z-2.0000 F1200.0000 S0.0
G1 X102.4519 Y105.4253 Z-2.0000 F1200.0000 S0.0
G1 X100.0976 Y102.9394 Z-2.0000 F1200.0000 S0.0
G1 X97.9788 Y100.0068 Z-2.0000 F1200.0000 S0.0
G1 X96.1416 Y96.6664 Z-2.0000 F1200.0000 S0.0
G1 X94.6322 Y92.9567 Z-2.0000 F1200.0000 S0.0
G1 X93.4969 Y88.9164 Z-2.0000 F1200.0000 S0.0
G1 X92.7818 Y84.5842 Z-2.0000 F1200.0000 S0.0
G1 X92.5331 Y79.9985 Z-2.0000 F1200.0000 S0.0
G1 X92.8141 Y75.5478 Z-2.0000 F1200.0000 S0.0
G1 X93.6241 Y71.4585 Z-2.0000 F1200.0000 S0.0
G1 X94.9136 Y67.7439 Z-2.0000 F1200.0000 S0.0
G1 X96.6334 Y64.4170 Z-2.0000 F1200.0000 S0.0
G1 X98.7340 Y61.4911 Z-2.0000 F1200.0000 S0.0
G1 X101.1660 Y58.9793 Z-2.0000 F1200.0000 S0.0
G1 X103.8800 Y56.8947 Z-2.0000 F1200.0000 S0.0
G1 X106.8267 Y55.2504 Z-2.0000 F1200.0000 S0.0
G1 X109.9566 Y54.0597 Z-2.0000 F1200.0000 S0.0
G1 X113.2203 Y53.3356 Z-2.0000 F1200.0000 S0.0
G1 X116.5685 Y53.0913 Z-2.0000 F1200.0000 S0.0
G1 X121.6611 Y53.4804 Z-2.0000 F1200.0000 S0.0
G1 X126.0766 Y54.5737 Z-2.0000 F1200.0000 S0.0
G1 X129.8607 Y56.2605 Z-2.0000 F1200.0000 S0.0
G1 X133.0593 Y58.4301 Z-2.0000 F1200.0000 S0.0
G1 X135.7180 Y60.9718 Z-2.0000 F1200.0000 S0.0
G1 X137.8829 Y63.7748 Z-2.0000 F1200.0000 S0.0
G1 X139.5996 Y66.7284 Z-2.0000 F1200.0000 S0.0
G1 X140.9140 Y69.7218 Z-2.0000 F1200.0000 S0.0
G1 X141.8719 Y72.6443 Z-2.0000 F1200.0000 S0.0
G1 X142.5191 Y75.3851 Z-2.0000 F1200.0000 S0.0
G1 X142.9013 Y77.8336 Z-2.0000 F1200.0000 S0.0
G1 X142.9269 Y78.3909 Z-2.0000 F1200.0000 S0.0
G1 X142.8799 Y78.9265 Z-2.0000 F1200.0000 S0.0
G1 X142.7660 Y79.4377 Z-2.0000 F1200.0000 S0.0
G1 X142.5908 Y79.9219 Z-2.0000 F1200.0000 S0.0
G1 X142.3598 Y80.3764 Z-2.0000 F1200.0000 S0.0
G1 X142.0786 Y80.7986 Z-2.0000 F1200.0000 S0.0
G1 X141.7527 Y81.1858 Z-2.0000 F1200.0000 S0.0
G1 X141.3878 Y81.5354 Z-2.0000 F1200.0000 S0.0
G1 X140.9893 Y81.8447 Z-2.0000 F1200.0000 S0.0
G1 X140.5628 Y82.1112 Z-2.0000 F1200.0000 S0.0
G1 X140.1140 Y82.3320 Z-2.0000 F1200.0000 S0.0
G1 X139.6483 Y82.5047 Z-2.0000 F1200.0000 S0.0
G1 X139.1714 Y82.6266 Z-2.0000 F1200.0000 S0.0
G1 X138.6887 Y82.6949 Z-2.0000 F1200.0000 S0.0
G1 X138.2059 Y82.7071 Z-2.0000 F1200.0000 S0.0
G1 X137.7286 Y82.6605 Z-2.0000 F1200.0000 S0.0
G1 X137.2622 Y82.5525 Z-2.0000 F1200.0000 S0.0
G1 X136.8125 Y82.3804 Z-2.0000 F1200.0000 S0.0
G1 X136.3848 Y82.1415 Z-2.0000 F1200.0000 S0.0
G1 X135.9848 Y81.8333 Z-2.0000 F1200.0000 S0.0
G1 X135.6181 Y81.4531 Z-2.0000 F1200.0000 S0.0
G1 X135.2902 Y80.9982 Z-2.0000 F1200.0000 S0.0
G1 X135.0066 Y80.4660 Z-2.0000 F1200.0000 S0.0
G1 X134.7731 Y79.8538 Z-2.0000 F1200.0000 S0.0
G1 X134.5950 Y79.1591 Z-2.0000 F1200.0000 S0.0
G1 X134.0309 Y76.6726 Z-2.0000 F1200.0000 S0.0
G1 X133.2794 Y74.2081 Z-2.0000 F1200.0000 S0.0
G1 X132.3201 Y71.8221 Z-2.0000 F1200.0000 S0.0
G1 X131.1325 Y69.5711 Z-2.0000 F1200.0000 S0.0
G1 X129.6962 Y67.5114 Z-2.0000 F1200.0000 S0.0
G1 X127.9909 Y65.6996 Z-2.0000 F1200.0000 S0.0
G1 X125.9961 Y64.1922 Z-2.0000 F1200.0000 S0.0
G1 X123.6914 Y63.0455 Z-2.0000 F1200.0000 S0.0
G1 X121.0564 Y62.3161 Z-2.0000 F1200.0000 S0.0
G1 X118.0707 Y62.0604 Z-2.0000 F1200.0000 S0.0
G1 X115.8380 Y62.1971 Z-2.0000 F1200.0000 S0.0
G1 X113.8439 Y62.5908 Z-2.0000 F1200.0000 S0.0
G1 X112.0749 Y63.2173 Z-2.0000 F1200.0000 S0.0
G1 X110.5176 Y64.0522 Z-2.0000 F1200.0000 S0.0
G1 X109.1584 Y65.0710 Z-2.0000 F1200.0000 S0.0
G1 X107.9840 Y66.2495 Z-2.0000 F1200.0000 S0.0
G1 X106.9808 Y67.5633 Z-2.0000 F1200.0000 S0.0
G1 X106.1354 Y68.9880 Z-2.0000 F1200.0000 S0.0
G1 X105.4345 Y70.4993 Z-2.0000 F1200.0000 S0.0
G1 X109.5916 Y72.0927 Z-2.0000 F1200.0000 S0.0
G1 X113.2814 Y74.1974 Z-2.0000 F1200.0000 S0.0
G1 X116.4981 Y76.7323 Z-2.0000 F1200.0000 S0.0
G1 X119.2359 Y79.6163 Z-2.0000 F1200.0000 S0.0
G1 X121.4890 Y82.7683 Z-2.0000 F1200.0000 S0.0
G1 X123.2515 Y86.1072 Z-2.0000 F1200.0000 S0.0
G1 X124.5177 Y89.5519 Z-2.0000 F1200.0000 S0.0
G1 X125.2816 Y93.0214 Z-2.0000 F1200.0000 S0.0
G1 X125.5376 Y96.4345 Z-2.0000 F1200.0000 S0.0
G0 Z5.0000
G0 X103.6672 Y80.3962 Z5.0000
G0 X103.6672 Y80.3962 Z3.0000
G1 X103.6672 Y80.3962 Z-2.0000 F1200.0000 S0.0
G1 X103.6799 Y82.9192 Z-2.0000 F1200.0000 S0.0
G1 X103.9350 Y86.0246 Z-2.0000 F1200.0000 S0.0
G1 X104.4593 Y89.4294 Z-2.0000 F1200.0000 S0.0
G1 X105.2798 Y92.8501 Z-2.0000 F1200.0000 S0.0
G1 X106.4234 Y96.0038 Z-2.0000 F1200.0000 S0.0
G1 X107.9170 Y98.6070 Z-2.0000 F1200.0000 S0.0
G1 X109.7875 Y100.3766 Z-2.0000 F1200.0000 S0.0
G1 X112.0619 Y101.0295 Z-2.0000 F1200.0000 S0.0
G1 X112.4896 Y100.9929 Z-2.0000 F1200.0000 S0.0
G1 X112.8882 Y100.8846 Z-2.0000 F1200.0000 S0.0
G1 X113.2562 Y100.7064 Z-2.0000 F1200.0000 S0.0
G1 X113.5919 Y100.4600 Z-2.0000 F1200.0000 S0.0
G1 X113.8938 Y100.1473 Z-2.0000 F1200.0000 S0.0
G1 X114.1605 Y99.7703 Z-2.0000 F1200.0000 S0.0
G1 X114.3904 Y99.3306 Z-2.0000 F1200.0000 S0.0
G1 X114.5819 Y98.8301 Z-2.0000 F1200.0000 S0.0
G1 X114.7335 Y98.2708 Z-2.0000 F1200.0000 S0.0
G1 X114.8437 Y97.6544 Z-2.0000 F1200.0000 S0.0
G1 X114.9110 Y96.9828 Z-2.0000 F1200.0000 S0.0
G1 X114.9337 Y96.2577 Z-2.0000 F1200.0000 S0.0
G1 X114.7344 Y93.2645 Z-2.0000 F1200.0000 S0.0
G1 X114.1509 Y90.4049 Z-2.0000 F1200.0000 S0.0
G1 X113.2049 Y87.7131 Z-2.0000 F1200.0000 S0.0
G1 X111.9183 Y85.2231 Z-2.0000 F1200.0000 S0.0
G1 X110.3127 Y82.9693 Z-2.0000 F1200.0000 S0.0
G1 X108.4099 Y80.9857 Z-2.0000 F1200.0000 S0.0
G1 X106.2316 Y79.3066 Z-2.0000 F1200.0000 S0.0
G1 X103.7997 Y77.9661 Z-2.0000 F1200.0000 S0.0
G1 X103.6672 Y80.3962 Z-2.0000 F1200.0000 S0.0
G0 Z5.0000
G0 X147.0177 Y16.5965 Z5.0000
G0 X147.0177 Y16.5965 Z3.0000
G1 X147.0177 Y16.5965 Z-2.0000 F1200.0000 S0.0
G1 X147.1500 Y14.2714 Z-2.0000 F1200.0000 S0.0
G1 X147.5370 Y12.0590 Z-2.0000 F1200.0000 S0.0
G1 X148.1640 Y9.9823 Z-2.0000 F1200.0000 S0.0
G1 X149.0163 Y8.0641 Z-2.0000 F1200.0000 S0.0
G1 X150.0791 Y6.3274 Z-2.0000 F1200.0000 S0.0
G1 X151.3377 Y4.7950 Z-2.0000 F1200.0000 S0.0
G1 X152.7773 Y3.4899 Z-2.0000 F1200.0000 S0.0
G1 X154.3833 Y2.4349 Z-2.0000 F1200.0000 S0.0
