(Exported by FreeCAD)
(Post Processor: smoothie_post)
(Output Time:2021-04-07 00:28:46.937714)
(begin preamble)
G17 G90
G21
(begin operation: Fixture)
G54
(finish operation: Fixture)
(begin operation: TC: Default Tool001)
(TC: Default Tool001)
M6 T1.0
M3 S0.0
(finish operation: TC: Default Tool001)
(begin operation: Profile001)
(Profile001)
(Compensated Tool Path. Diameter: 3.0)
G0 Z5.0000
G0 X30.3484 Y12.3484
G1 X30.3484 Y12.3484 Z-3.0000 S0.0
G3 X29.8114 Y12.4552 Z-3.0000 I-0.3484 J-0.3484 S0.0
G3 X30.1886 Y11.5448 Z-3.0000 I0.1886 J-0.4552 S0.0
G3 X30.3484 Y12.3484 Z-3.0000 I-0.1886 J0.4552 S0.0
G1 X30.3484 Y12.3484 Z-6.0000 S0.0
G3 X29.8114 Y12.4552 Z-6.0000 I-0.3484 J-0.3484 S0.0
G3 X30.1886 Y11.5448 Z-6.0000 I0.1886 J-0.4552 S0.0
G3 X30.3484 Y12.3484 Z-6.0000 I-0.1886 J0.4552 S0.0
G1 X30.3484 Y12.3484 Z-8.5000 S0.0
G3 X29.8114 Y12.4552 Z-8.5000 I-0.3484 J-0.3484 S0.0
G3 X30.1886 Y11.5448 Z-8.5000 I0.1886 J-0.4552 S0.0
G3 X30.3484 Y12.3484 Z-8.5000 I-0.1886 J0.4552 S0.0
G0 Z5.0000
G0 Z5.0000
G0 X30.3484 Y12.3484
G0 X30.0017 Y113.5073
G0 X30.0017 Y113.5073
G1 X30.0017 Y113.5073 Z-3.0000 S0.0
G3 X30.1886 Y113.5448 Z-3.0000 I-0.0017 J0.4927 S0.0
G3 X29.8114 Y114.4552 Z-3.0000 I-0.1886 J0.4552 S0.0
G3 X30.0017 Y113.5073 Z-3.0000 I0.1886 J-0.4552 S0.0
G1 X30.0017 Y113.5073 Z-6.0000 S0.0
G3 X30.1886 Y113.5448 Z-6.0000 I-0.0017 J0.4927 S0.0
G3 X29.8114 Y114.4552 Z-6.0000 I-0.1886 J0.4552 S0.0
G3 X30.0017 Y113.5073 Z-6.0000 I0.1886 J-0.4552 S0.0
G1 X30.0017 Y113.5073 Z-8.5000 S0.0
G3 X30.1886 Y113.5448 Z-8.5000 I-0.0017 J0.4927 S0.0
G3 X29.8114 Y114.4552 Z-8.5000 I-0.1886 J0.4552 S0.0
G3 X30.0017 Y113.5073 Z-8.5000 I0.1886 J-0.4552 S0.0
G0 Z5.0000
G0 Z5.0000
G0 X30.0017 Y113.5073
G0 X201.5073 Y113.9986
G0 X201.5073 Y113.9986
G1 X201.5073 Y113.9986 Z-3.0000 S0.0
G3 X202.1886 Y113.5448 Z-3.0000 I0.4927 J0.0014 S0.0
G3 X201.8114 Y114.4552 Z-3.0000 I-0.1886 J0.4552 S0.0
G3 X201.5073 Y113.9986 Z-3.0000 I0.1886 J-0.4552 S0.0
G1 X201.5073 Y113.9986 Z-6.0000 S0.0
G3 X202.1886 Y113.5448 Z-6.0000 I0.4927 J0.0014 S0.0
G3 X201.8114 Y114.4552 Z-6.0000 I-0.1886 J0.4552 S0.0
G3 X201.5073 Y113.9986 Z-6.0000 I0.1886 J-0.4552 S0.0
G1 X201.5073 Y113.9986 Z-8.5000 S0.0
G3 X202.1886 Y113.5448 Z-8.5000 I0.4927 J0.0014 S0.0
G3 X201.8114 Y114.4552 Z-8.5000 I-0.1886 J0.4552 S0.0
G3 X201.5073 Y113.9986 Z-8.5000 I0.1886 J-0.4552 S0.0
G0 Z5.0000
G0 Z5.0000
G0 X201.5073 Y113.9986
G0 X201.9976 Y12.4927
G0 X201.9976 Y12.4927
G1 X201.9976 Y12.4927 Z-3.0000 S0.0
G3 X201.8114 Y12.4552 Z-3.0000 I0.0024 J-0.4927 S0.0
G3 X202.1886 Y11.5448 Z-3.0000 I0.1886 J-0.4552 S0.0
G3 X201.9976 Y12.4927 Z-3.0000 I-0.1886 J0.4552 S0.0
G1 X201.9976 Y12.4927 Z-6.0000 S0.0
G3 X201.8114 Y12.4552 Z-6.0000 I0.0024 J-0.4927 S0.0
G3 X202.1886 Y11.5448 Z-6.0000 I0.1886 J-0.4552 S0.0
G3 X201.9976 Y12.4927 Z-6.0000 I-0.1886 J0.4552 S0.0
G1 X201.9976 Y12.4927 Z-8.5000 S0.0
G3 X201.8114 Y12.4552 Z-8.5000 I0.0024 J-0.4927 S0.0
G3 X202.1886 Y11.5448 Z-8.5000 I0.1886 J-0.4552 S0.0
G3 X201.9976 Y12.4927 Z-8.5000 I-0.1886 J0.4552 S0.0
G0 Z5.0000
G0 Z5.0000
(finish operation: Profile001)
(begin postamble)
M05
G17 G90
M2
