(Exported by FreeCAD)
(Post Processor: smoothie_post)
(Output Time:2021-04-07 00:27:58.471092)
(begin preamble)
G17 G90
G21
(begin operation: Fixture)
G54
(finish operation: Fixture)
(begin operation: TC: Default Tool)
(TC: Default Tool)
M6 T1.0
M3 S0.0
(finish operation: TC: Default Tool)
(begin operation: DressupTag)
G0 Z5.0000
G0 X2.8787 Y2.8787 Z5.0000
G1 X2.8787 Y2.8787 Z-3.0000 S0.0
G3 X5.0000 Y2.0000 Z-3.0000 I2.1213 J2.1213 S0.0
G1 X225.0000 Y2.0000 Z-3.0000 S0.0
G3 X228.0000 Y5.0000 Z-3.0000 I-0.0000 J3.0000 S0.0
G1 X228.0000 Y127.0000 Z-3.0000 S0.0
G3 X225.0000 Y130.0000 Z-3.0000 I-3.0000 J-0.0000 S0.0
G1 X5.0000 Y130.0000 Z-3.0000 S0.0
G3 X2.0000 Y127.0000 Z-3.0000 I0.0000 J-3.0000 S0.0
G1 X2.0000 Y5.0000 Z-3.0000 S0.0
G3 X2.8787 Y2.8787 Z-3.0000 I3.0000 J0.0000 S0.0
G1 X2.8787 Y2.8787 Z-6.0000 S0.0
G3 X5.0000 Y2.0000 Z-6.0000 I2.1213 J2.1213 S0.0
G1 X48.5425 Y2.0000 Z-6.0000 S0.0
G1 X50.2925 Y2.0000 Z-4.2500 S0.0
G1 X69.7075 Y2.0000 Z-4.2500 S0.0
G1 X71.4575 Y2.0000 Z-6.0000 S0.0
G1 X158.5425 Y2.0000 Z-6.0000 S0.0
G1 X160.2925 Y2.0000 Z-4.2500 S0.0
G1 X179.7075 Y2.0000 Z-4.2500 S0.0
G1 X181.4575 Y2.0000 Z-6.0000 S0.0
G1 X225.0000 Y2.0000 Z-6.0000 S0.0
G3 X228.0000 Y5.0000 Z-6.0000 I-0.0000 J3.0000 S0.0
G1 X228.0000 Y127.0000 Z-6.0000 S0.0
G3 X225.0000 Y130.0000 Z-6.0000 I-3.0000 J-0.0000 S0.0
G1 X181.4575 Y130.0000 Z-6.0000 S0.0
G1 X179.7075 Y130.0000 Z-4.2500 S0.0
G1 X160.2925 Y130.0000 Z-4.2500 S0.0
G1 X158.5425 Y130.0000 Z-6.0000 S0.0
G1 X71.4575 Y130.0000 Z-6.0000 S0.0
G1 X69.7075 Y130.0000 Z-4.2500 S0.0
G1 X50.2925 Y130.0000 Z-4.2500 S0.0
G1 X48.5425 Y130.0000 Z-6.0000 S0.0
G1 X5.0000 Y130.0000 Z-6.0000 S0.0
G3 X2.0000 Y127.0000 Z-6.0000 I0.0000 J-3.0000 S0.0
G1 X2.0000 Y5.0000 Z-6.0000 S0.0
G3 X2.8787 Y2.8787 Z-6.0000 I3.0000 J0.0000 S0.0
G1 X2.8787 Y2.8787 Z-8.5000 S0.0
G3 X5.0000 Y2.0000 Z-8.5000 I2.1213 J2.1213 S0.0
G1 X46.0425 Y2.0000 Z-8.5000 S0.0
G1 X50.2925 Y2.0000 Z-4.2500 S0.0
G1 X69.7075 Y2.0000 Z-4.2500 S0.0
G1 X73.9575 Y2.0000 Z-8.5000 S0.0
G1 X156.0425 Y2.0000 Z-8.5000 S0.0
G1 X160.2925 Y2.0000 Z-4.2500 S0.0
G1 X179.7075 Y2.0000 Z-4.2500 S0.0
G1 X183.9575 Y2.0000 Z-8.5000 S0.0
G1 X225.0000 Y2.0000 Z-8.5000 S0.0
G3 X228.0000 Y5.0000 Z-8.5000 I-0.0000 J3.0000 S0.0
G1 X228.0000 Y127.0000 Z-8.5000 S0.0
G3 X225.0000 Y130.0000 Z-8.5000 I-3.0000 J-0.0000 S0.0
G1 X183.9575 Y130.0000 Z-8.5000 S0.0
G1 X179.7075 Y130.0000 Z-4.2500 S0.0
G1 X160.2925 Y130.0000 Z-4.2500 S0.0
G1 X156.0425 Y130.0000 Z-8.5000 S0.0
G1 X73.9575 Y130.0000 Z-8.5000 S0.0
G1 X69.7075 Y130.0000 Z-4.2500 S0.0
G1 X50.2925 Y130.0000 Z-4.2500 S0.0
G1 X46.0425 Y130.0000 Z-8.5000 S0.0
G1 X5.0000 Y130.0000 Z-8.5000 S0.0
G3 X2.0000 Y127.0000 Z-8.5000 I0.0000 J-3.0000 S0.0
G1 X2.0000 Y5.0000 Z-8.5000 S0.0
G3 X2.8787 Y2.8787 Z-8.5000 I3.0000 J0.0000 S0.0
G0 X2.8787 Y2.8787 Z5.0000
(finish operation: DressupTag)
(begin postamble)
M05
G17 G90
M2
