(Exported by FreeCAD)
(Post Processor: smoothie_post)
(Output Time:2021-02-05 11:56:30.815593)
(begin preamble)
G17 G90
G21
(begin operation: T3: Fraise 6mm)
(T3: Fraise 6mm)
M6 T3.0
M3 S0.0
(finish operation: T3: Fraise 6mm)
(begin operation: Engrave)
(Engrave)
G0 X33.0324 Y70.0000 Z5.0000
G0 X33.0324 Y70.0000 Z3.0000
G1 X33.0324 Y70.0000 Z-7.0000 F300.0000 S0.0
G3 X33.0324 Y70.0000 Z-7.0000 I-3.0324 J0.0000 F300.0000 S0.0
G1 X33.0324 Y70.0000 Z-12.0000 F300.0000 S0.0
G3 X33.0324 Y70.0000 Z-12.0000 I-3.0324 J0.0000 F300.0000 S0.0
G0 Z5.0000
G0 X63.0188 Y60.0000 Z5.0000
G0 X63.0188 Y60.0000 Z3.0000
G1 X63.0188 Y60.0000 Z-7.0000 F300.0000 S0.0
G3 X63.0188 Y60.0000 Z-7.0000 I-3.0188 J0.0000 F300.0000 S0.0
G1 X63.0188 Y60.0000 Z-12.0000 F300.0000 S0.0
G3 X63.0188 Y60.0000 Z-12.0000 I-3.0188 J0.0000 F300.0000 S0.0
G0 Z5.0000
G0 X32.9613 Y30.0000 Z5.0000
G0 X32.9613 Y30.0000 Z3.0000
G1 X32.9613 Y30.0000 Z-7.0000 F300.0000 S0.0
G3 X32.9613 Y30.0000 Z-7.0000 I-2.9613 J0.0000 F300.0000 S0.0
G1 X32.9613 Y30.0000 Z-12.0000 F300.0000 S0.0
G3 X32.9613 Y30.0000 Z-12.0000 I-2.9613 J0.0000 F300.0000 S0.0
G0 Z5.0000
(finish operation: Engrave)
(begin postamble)
M05
G17 G90
M2
