(Exported by FreeCAD)
(Post Processor: smoothie_post)
(Output Time:2021-02-05 19:19:50.750609)
(begin preamble)
G17 G90
G21
(begin operation: T3: Fraise 6mm)
(T3: Fraise 6mm)
M6 T3.0
M3 S0.0
(finish operation: T3: Fraise 6mm)
(begin operation: Pocket_Shape)
(Pocket_Shape)
G0 Z5.0000
G0 X20.0288 Y70.0288
G0 Z3.0000
G1 X20.0288 Y70.0288 Z-0.0000 F300.0000 S0.0
G2 X20.0239 Y69.9671 Z0.0000 I-0.0288 J-0.0288 F300.0000 S0.0
G2 X19.9761 Y70.0329 Z-0.0000 I-0.0239 J0.0329 F300.0000 S0.0
G2 X20.0288 Y70.0288 Z-0.0000 I0.0239 J-0.0329 F300.0000 S0.0
G1 X20.0288 Y70.0288 Z-12.0000 F300.0000 S0.0
G2 X20.0239 Y69.9671 Z-12.0000 I-0.0288 J-0.0288 F300.0000 S0.0
G2 X19.9761 Y70.0329 Z-12.0000 I-0.0239 J0.0329 F300.0000 S0.0
G2 X20.0288 Y70.0288 Z-12.0000 I0.0239 J-0.0329 F300.0000 S0.0
G0 Z5.0000
G0 X20.0288 Y30.0288
G0 Z3.0000
G1 X20.0288 Y30.0288 Z0.0000 F300.0000 S0.0
G2 X20.0239 Y29.9671 Z0.0000 I-0.0288 J-0.0288 F300.0000 S0.0
G2 X19.9761 Y30.0329 Z0.0000 I-0.0239 J0.0329 F300.0000 S0.0
G2 X20.0288 Y30.0288 Z0.0000 I0.0239 J-0.0329 F300.0000 S0.0
G1 X20.0288 Y30.0288 Z-12.0000 F300.0000 S0.0
G2 X20.0239 Y29.9671 Z-12.0000 I-0.0288 J-0.0288 F300.0000 S0.0
G2 X19.9761 Y30.0329 Z-12.0000 I-0.0239 J0.0329 F300.0000 S0.0
G2 X20.0288 Y30.0288 Z-12.0000 I0.0239 J-0.0329 F300.0000 S0.0
G0 Z5.0000
G0 X50.0288 Y60.0288
G0 Z3.0000
G1 X50.0288 Y60.0288 Z0.0000 F300.0000 S0.0
G2 X50.0239 Y59.9671 Z-0.0000 I-0.0288 J-0.0288 F300.0000 S0.0
G2 X49.9761 Y60.0329 Z0.0000 I-0.0239 J0.0329 F300.0000 S0.0
G2 X50.0288 Y60.0288 Z0.0000 I0.0239 J-0.0329 F300.0000 S0.0
G1 X50.0288 Y60.0288 Z-12.0000 F300.0000 S0.0
G2 X50.0239 Y59.9671 Z-12.0000 I-0.0288 J-0.0288 F300.0000 S0.0
G2 X49.9761 Y60.0329 Z-12.0000 I-0.0239 J0.0329 F300.0000 S0.0
G2 X50.0288 Y60.0288 Z-12.0000 I0.0239 J-0.0329 F300.0000 S0.0
G0 Z5.0000
(finish operation: Pocket_Shape)
(begin postamble)
M05
G17 G90
M2
