(Exported by FreeCAD)
(Post Processor: smoothie_post)
(Output Time:2021-02-07 23:44:35.417489)
(begin preamble)
G17 G90
(begin operation: T3: Fraise 6mm)
(T3: Fraise 6mm)
M6 T3.0
M3 S0.0
(finish operation: T3: Fraise 6mm)
(begin operation: Pocket_Shape)
(Pocket_Shape)
G0 Z5.0000
G0 X30.0005 Y390.0005
G0 Z3.0000
G1 X30.0004 Y390.0006 Z-5.0000 F180.0000 S0.0
G1 X30.0004 Y390.0006 Z-11.0000 F180.0000 S0.0
G1 X30.0004 Y390.0006 Z-17.0000 F180.0000 S0.0
G1 X30.0004 Y390.0006 Z-23.0000 F180.0000 S0.0
G1 X30.0004 Y390.0006 Z-27.0000 F180.0000 S0.0
G0 Z5.0000
G0 X30.0005 Y300.0005
G0 Z3.0000
G1 X30.0004 Y300.0006 Z-5.0000 F180.0000 S0.0
G1 X30.0004 Y300.0006 Z-11.0000 F180.0000 S0.0
G1 X30.0004 Y300.0006 Z-17.0000 F180.0000 S0.0
G1 X30.0004 Y300.0006 Z-23.0000 F180.0000 S0.0
G1 X30.0004 Y300.0006 Z-27.0000 F180.0000 S0.0
G0 Z5.0000
G0 X30.0005 Y210.0005
G0 Z3.0000
G1 X30.0004 Y210.0006 Z-5.0000 F180.0000 S0.0
G1 X30.0004 Y210.0006 Z-11.0000 F180.0000 S0.0
G1 X30.0004 Y210.0006 Z-17.0000 F180.0000 S0.0
G1 X30.0004 Y210.0006 Z-23.0000 F180.0000 S0.0
G1 X30.0004 Y210.0006 Z-27.0000 F180.0000 S0.0
G0 Z5.0000
G0 X30.0005 Y120.0005
G0 Z3.0000
G1 X30.0006 Y119.9996 Z-5.0000 F180.0000 S0.0
G1 X30.0006 Y119.9996 Z-11.0000 F180.0000 S0.0
G1 X30.0006 Y119.9996 Z-17.0000 F180.0000 S0.0
G1 X30.0006 Y119.9996 Z-23.0000 F180.0000 S0.0
G1 X30.0006 Y119.9996 Z-27.0000 F180.0000 S0.0
G0 Z5.0000
G0 X30.0005 Y30.0005
G0 Z3.0000
G1 X30.0004 Y30.0006 Z-5.0000 F180.0000 S0.0
G1 X30.0004 Y30.0006 Z-11.0000 F180.0000 S0.0
G1 X30.0004 Y30.0006 Z-17.0000 F180.0000 S0.0
G1 X30.0004 Y30.0006 Z-23.0000 F180.0000 S0.0
G1 X30.0004 Y30.0006 Z-27.0000 F180.0000 S0.0
G0 Z5.0000
(finish operation: Pocket_Shape)
(begin postamble)
G28
M05
G17 G90
M2
