(Exported by FreeCAD)
(Post Processor: smoothie_post)
(Output Time:2021-05-11 22:12:29.075170)
(begin preamble)
G17 G90
G21
(begin operation: Fixture)
G54
(finish operation: Fixture)
(begin operation: TC: Default Tool)
(TC: Default Tool)
M6 T1.0
M3 S0.0
(finish operation: TC: Default Tool)
(begin operation: Pocket_Shape)
(Pocket_Shape)
G0 Z5.0000
G0 X11.0928 Y20.8923
G0 Z3.0000
G1 X11.0928 Y20.8923 Z-1.4000 S0.0
G2 X10.0354 Y18.3396 Z-1.4000 I-1.0574 J-1.0574 S0.0
G2 X10.0354 Y21.3303 Z-1.4000 I0.0000 J1.4954 S0.0
G2 X11.0928 Y20.8923 Z-1.4000 I0.0000 J-1.4954 S0.0
G0 Z5.0000
G0 X11.0928 Y20.8923 Z5.0000
G0 X11.0928 Y20.8923 Z3.0000
G1 X11.0928 Y20.8923 Z-1.4000 S0.0
G2 X11.2451 Y18.9560 Z-1.4000 I-1.0574 J-1.0574 S0.0
G2 X9.1564 Y18.6252 Z-1.4000 I-1.2098 J0.8790 S0.0
G2 X8.8256 Y20.7139 Z-1.4000 I0.8790 J1.2098 S0.0
G2 X11.0928 Y20.8923 Z-1.4000 I1.2098 J-0.8790 S0.0
G0 Z5.0000
G0 Z5.0000
G0 X11.0928 Y20.8923
G0 X10.1873 Y31.2608
G0 X10.1873 Y31.2608 Z3.0000
G1 X10.1873 Y31.2608 Z-1.4000 S0.0
G2 X8.2896 Y33.0000 Z-1.4000 I-0.1519 J1.7392 S0.0
G2 X10.0354 Y34.7458 Z-1.4000 I1.7458 J0.0000 S0.0
G2 X11.7812 Y33.0000 Z-1.4000 I0.0000 J-1.7458 S0.0
G2 X10.1873 Y31.2608 Z-1.4000 I-1.7458 J-0.0000 S0.0
G0 Z5.0000
G0 X8.2920 Y32.9680 Z5.0000
G0 X8.2920 Y32.9680 Z3.0000
G1 X8.2920 Y32.9680 Z-1.4000 S0.0
G3 X10.0008 Y31.2591 Z-1.4000 I1.7339 J0.0251 S0.0
G1 X8.2920 Y32.9680 Z-1.4000 S0.0
G2 X11.3151 Y34.1874 Z-1.4000 I1.7437 J0.0342 S0.0
G0 Z5.0000
G0 Z5.0000
G0 X11.3151 Y34.1874
G0 X20.6580 Y30.2375
G0 X20.6580 Y30.2375 Z3.0000
G1 X20.6580 Y30.2375 Z-1.4000 S0.0
G2 X22.0354 Y31.1505 Z-1.4000 I1.3773 J-0.5823 S0.0
G2 X22.0354 Y28.1598 Z-1.4000 I0.0000 J-1.4954 S0.0
G2 X20.6580 Y30.2375 Z-1.4000 I0.0000 J1.4954 S0.0
G0 Z5.0000
G0 X20.6580 Z5.0000
G0 X20.6580 Z3.0000
G1 X20.6580 Y30.2375 Z-1.4000 S0.0
G2 X20.8256 Y30.5341 Z-1.4000 I1.3773 J-0.5823 S0.0
G2 X23.2451 Y28.7762 Z-1.4000 I1.2098 J-0.8790 S0.0
G2 X20.6580 Y30.2375 Z-1.4000 I-1.2098 J0.8790 S0.0
G0 Z5.0000
G0 Z5.0000
G0 X20.6580 Y30.2375
G0 X28.0881 Y21.1619
G0 X28.0881 Y21.1619 Z3.0000
G1 X28.0881 Y21.1619 Z-1.4000 S0.0
G2 X29.0354 Y21.5002 Z-1.4000 I0.9473 J-1.1571 S0.0
G2 X29.0354 Y18.5095 Z-1.4000 I-0.0000 J-1.4954 S0.0
G2 X28.0881 Y21.1619 Z-1.4000 I0.0000 J1.4954 S0.0
G0 Z5.0000
G0 X28.0881 Y21.1619 Z5.0000
G0 X28.0881 Y21.1619 Z3.0000
G1 X28.0881 Y21.1619 Z-1.4000 S0.0
G2 X30.2451 Y19.1259 Z-1.4000 I0.9473 J-1.1571 S0.0
G2 X28.1564 Y18.7951 Z-1.4000 I-1.2098 J0.8790 S0.0
G2 X27.8256 Y20.8838 Z-1.4000 I0.8790 J1.2098 S0.0
G2 X28.0881 Y21.1619 Z-1.4000 I1.2098 J-0.8790 S0.0
G0 Z5.0000
G0 Z5.0000
G0 X28.0881 Y21.1619
G0 X22.7818 Y11.9509
G0 X22.7818 Y11.9509 Z3.0000
G1 X22.7818 Y11.9509 Z-1.4000 S0.0
G2 X22.0354 Y9.1598 Z-1.4000 I-0.7464 J-1.2957 S0.0
G2 X22.0354 Y12.1505 Z-1.4000 I0.0000 J1.4954 S0.0
G2 X22.7818 Y11.9509 Z-1.4000 I0.0000 J-1.4954 S0.0
G0 Z5.0000
G0 X22.7818 Y11.9509 Z5.0000
G0 X22.7818 Y11.9509 Z3.0000
G1 X22.7818 Y11.9509 Z-1.4000 S0.0
G2 X23.2451 Y9.7762 Z-1.4000 I-0.7464 J-1.2957 S0.0
G2 X21.1564 Y9.4454 Z-1.4000 I-1.2098 J0.8790 S0.0
G2 X20.8256 Y11.5341 Z-1.4000 I0.8790 J1.2098 S0.0
G2 X22.7818 Y11.9509 Z-1.4000 I1.2098 J-0.8790 S0.0
G0 Z5.0000
G0 Z5.0000
G0 X22.7818 Y11.9509
G0 X32.1614 Y31.2058
G0 X32.1614 Y31.2058 Z3.0000
G1 X32.1614 Y31.2058 Z-1.4000 S0.0
G2 X31.0396 Y33.0000 Z-1.4000 I0.8740 J1.7942 S0.0
G2 X35.0312 Y33.0000 Z-1.4000 I1.9958 J-0.0000 S0.0
G2 X32.1614 Y31.2058 Z-1.4000 I-1.9958 J0.0000 S0.0
G0 Z5.0000
G0 X31.1091 Y33.5042 Z5.0000
G0 X31.1091 Y33.5042 Z3.0000
G1 X31.1091 Y33.5042 Z-1.4000 S0.0
G3 X33.5402 Y31.0730 Z-1.4000 I1.9207 J-0.5105 S0.0
G1 X31.1091 Y33.5042 Z-1.4000 S0.0
G2 X34.4984 Y34.3575 Z-1.4000 I1.9276 J-0.4986 S0.0
G0 Z5.0000
G0 Z5.0000
(finish operation: Pocket_Shape)
(begin operation: Profile001)
(Profile001)
(Compensated Tool Path. Diameter: 3.0)
G0 Z5.0000
G0 X40.1868 Y39.6989
G0 Z3.0000
G1 X40.1868 Y39.6989 Z-1.4000 S0.0
G2 X42.1362 Y35.0825 Z-1.4000 I-4.7102 J-4.7087 S0.0
G1 X42.1389 Y4.5675 Z-1.4000 S0.0
G2 X36.1695 Y-1.4968 Z-1.4000 I-6.0693 J0.0042 S0.0
G1 X4.8710 Y-1.5000 Z-1.4000 S0.0
G2 X-1.4973 Y4.7804 Z-1.4000 I0.0038 J6.3727 S0.0
G1 X-1.5000 Y34.4192 Z-1.4000 S0.0
G2 X5.6470 Y41.6480 Z-1.4000 I7.2325 J-0.0032 S0.0
G1 X35.4805 Y41.6503 Z-1.4000 S0.0
G2 X40.1868 Y39.6989 Z-1.4000 I-0.0038 J-6.6601 S0.0
G0 Z5.0000
G0 Z5.0000
(finish operation: Profile001)
(begin postamble)
M05
G17 G90
M2
