(Exported by FreeCAD)
(Post Processor: smoothie_post)
(Output Time:2021-04-25 22:09:10.356080)
(begin preamble)
G17 G90
G21
(begin operation: Fixture)
G54
(finish operation: Fixture)
(begin operation: TC: Default Tool)
(TC: Default Tool)
M6 T1.0
M3 S0.0
(finish operation: TC: Default Tool)
(begin operation: Pocket_Shape)
(Pocket_Shape)
G0 Z5.0000
G0 X8.0574 Y11.0574
G0 Z3.0000
G1 X8.0574 Y11.0574 Z-1.4000 S0.0
G2 X8.4954 Y10.0000 Z-1.4000 I-1.0574 J-1.0574 S0.0
G2 X5.5046 Y10.0000 Z-1.4000 I-1.4954 J0.0000 S0.0
G2 X8.0574 Y11.0574 Z-1.4000 I1.4954 J0.0000 S0.0
G0 Z5.0000
G0 X8.0574 Y11.0574 Z5.0000
G0 X8.0574 Y11.0574 Z3.0000
G1 X8.0574 Y11.0574 Z-1.4000 S0.0
G2 X6.1210 Y8.7902 Z-1.4000 I-1.0574 J-1.0574 S0.0
G2 X7.8790 Y11.2098 Z-1.4000 I0.8790 J1.2098 S0.0
G2 X8.0574 Y11.0574 Z-1.4000 I-0.8790 J-1.2098 S0.0
G0 Z5.0000
G0 Z5.0000
G0 X8.0574 Y11.0574
G0 X18.7230 Y19.0438
G0 X18.7230 Y19.0438 Z3.0000
G1 X18.7230 Y19.0438 Z-1.4000 S0.0
G2 X18.4046 Y20.0000 Z-1.4000 I1.2770 J0.9562 S0.0
G2 X21.5954 Y20.0000 Z-1.4000 I1.5954 J0.0000 S0.0
G2 X18.7230 Y19.0438 Z-1.4000 I-1.5954 J0.0000 S0.0
G0 Z5.0000
G0 X18.4752 Y19.5383 Z5.0000
G0 X18.4752 Y19.5383 Z3.0000
G1 X18.4752 Y19.5383 Z-1.4000 S0.0
G3 X19.5383 Y18.4752 Z-1.4000 I1.5118 J0.4486 S0.0
G1 X18.4752 Y19.5383 Z-1.4000 S0.0
G2 X21.1281 Y21.1281 Z-1.4000 I1.5250 J0.4636 S0.0
G0 Z5.0000
G0 Z5.0000
G0 X21.1281 Y21.1281
G0 X28.2682 Y20.2202
G0 X28.2682 Y20.2202 Z3.0000
G1 X28.2682 Y20.2202 Z-1.4000 S0.0
G2 X31.7458 Y20.0000 Z-1.4000 I1.7318 J-0.2202 S0.0
G2 X28.2542 Y20.0000 Z-1.4000 I-1.7458 J0.0000 S0.0
G2 X28.2682 Y20.2202 Z-1.4000 I1.7458 J-0.0000 S0.0
G0 Z5.0000
G0 X28.2566 Y19.9680 Z5.0000
G0 X28.2566 Y19.9680 Z3.0000
G1 X28.2566 Y19.9680 Z-1.4000 S0.0
G3 X29.9655 Y18.2591 Z-1.4000 I1.7339 J0.0251 S0.0
G1 X28.2566 Y19.9680 Z-1.4000 S0.0
G2 X31.2798 Y21.1874 Z-1.4000 I1.7437 J0.0342 S0.0
G0 Z5.0000
G0 Z5.0000
G0 X31.2798 Y21.1874
G0 X30.1984 Y11.7345
G0 X30.1984 Y11.7345 Z3.0000
G1 X30.1984 Y11.7345 Z-1.4000 S0.0
G2 X31.7458 Y10.0000 Z-1.4000 I-0.1984 J-1.7345 S0.0
G2 X28.2542 Y10.0000 Z-1.4000 I-1.7458 J0.0000 S0.0
G2 X30.1984 Y11.7345 Z-1.4000 I1.7458 J-0.0000 S0.0
G0 Z5.0000
G0 X31.2798 Y11.1874 Z5.0000
G0 X31.2798 Y11.1874 Z3.0000
G1 X31.2798 Y11.1874 Z-1.4000 S0.0
G3 X28.2566 Y9.9680 Z-1.4000 I-1.2794 J-1.1852 S0.0
G1 X29.9655 Y8.2591 Z-1.4000 S0.0
G2 X28.2566 Y9.9680 Z-1.4000 I0.0251 J1.7339 S0.0
G0 Z5.0000
G0 Z5.0000
G0 X28.2566 Y9.9680
G0 X8.1141 Y28.0025
G0 X8.1141 Y28.0025 Z3.0000
G1 X8.1141 Y28.0025 Z-1.4000 S0.0
G2 X5.5046 Y29.0000 Z-1.4000 I-1.1141 J0.9975 S0.0
G2 X8.4954 Y29.0000 Z-1.4000 I1.4954 J0.0000 S0.0
G2 X8.1141 Y28.0025 Z-1.4000 I-1.4954 J0.0000 S0.0
G0 Z5.0000
G0 X8.1141 Y28.0025 Z5.0000
G0 X8.1141 Y28.0025 Z3.0000
G1 X8.1141 Y28.0025 Z-1.4000 S0.0
G2 X6.1210 Y27.7902 Z-1.4000 I-1.1141 J0.9975 S0.0
G2 X7.8790 Y30.2098 Z-1.4000 I0.8790 J1.2098 S0.0
G2 X8.1141 Y28.0025 Z-1.4000 I-0.8790 J-1.2098 S0.0
G0 Z5.0000
G0 Z5.0000
(finish operation: Pocket_Shape)
(begin operation: DressupTag)
G0 Z5.0000
G0 X41.0607 Y41.0607 Z5.0000
G0 X41.0607 Y41.0607 Z3.0000
G1 X41.0607 Y41.0607 Z-1.4000 S0.0
G2 X41.5000 Y40.0000 Z-1.4000 I-1.0607 J-1.0607 S0.0
G1 X41.5000 Y23.4930 Z-1.4000 S0.0
G1 X41.5000 Y22.7930 Z-0.7000 S0.0
G1 X41.5000 Y17.2070 Z-0.7000 S0.0
G1 X41.5000 Y16.5070 Z-1.4000 S0.0
G1 X41.5000 Y0.0000 Z-1.4000 S0.0
G2 X40.0000 Y-1.5000 Z-1.4000 I-1.5000 J0.0000 S0.0
G1 X23.4930 Y-1.5000 Z-1.4000 S0.0
G1 X22.7930 Y-1.5000 Z-0.7000 S0.0
G1 X17.2070 Y-1.5000 Z-0.7000 S0.0
G1 X16.5070 Y-1.5000 Z-1.4000 S0.0
G1 X0.0000 Y-1.5000 Z-1.4000 S0.0
G2 X-1.5000 Y-0.0000 Z-1.4000 I0.0000 J1.5000 S0.0
G1 X-1.5000 Y16.5070 Z-1.4000 S0.0
G1 X-1.5000 Y17.2070 Z-0.7000 S0.0
G1 X-1.5000 Y22.7930 Z-0.7000 S0.0
G1 X-1.5000 Y23.4930 Z-1.4000 S0.0
G1 X-1.5000 Y40.0000 Z-1.4000 S0.0
G2 X0.0000 Y41.5000 Z-1.4000 I1.5000 J-0.0000 S0.0
G1 X16.5070 Y41.5000 Z-1.4000 S0.0
G1 X17.2070 Y41.5000 Z-0.7000 S0.0
G1 X22.7930 Y41.5000 Z-0.7000 S0.0
G1 X23.4930 Y41.5000 Z-1.4000 S0.0
G1 X40.0000 Y41.5000 Z-1.4000 S0.0
G2 X41.0607 Y41.0607 Z-1.4000 I-0.0000 J-1.5000 S0.0
G0 X41.0607 Y41.0607 Z5.0000
(finish operation: DressupTag)
(begin postamble)
M05
G17 G90
M2
