(Exported by FreeCAD)
(Post Processor: smoothie_post)
(Output Time:2021-04-02 16:36:43.773551)
(begin preamble)
G17 G90
G21
(begin operation: Fixture)
G54
(finish operation: Fixture)
(begin operation: TC: Default Tool)
(TC: Default Tool)
M6 T1.0
M3 S0.0
(finish operation: TC: Default Tool)
(begin operation: Engrave)
(Engrave)
G0 Z5.0000
G0 Z5.0000
G0 X16.0173 Y40.2788
G0 Z3.0000
G1 X16.0173 Y40.2788 Z-5.0000 F0.0000 S0.0
G1 X16.6334 Y40.2537 Z-5.0000 F0.0000 S0.0
G1 X17.1995 Y40.1783 Z-5.0000 F0.0000 S0.0
G1 X17.7156 Y40.0527 Z-5.0000 F0.0000 S0.0
G1 X18.1817 Y39.8768 Z-5.0000 F0.0000 S0.0
G1 X18.5978 Y39.6507 Z-5.0000 F0.0000 S0.0
G1 X18.9640 Y39.3743 Z-5.0000 F0.0000 S0.0
G1 X19.2802 Y39.0477 Z-5.0000 F0.0000 S0.0
G1 X19.5464 Y38.6708 Z-5.0000 F0.0000 S0.0
G1 X19.8937 Y37.9735 Z-5.0000 F0.0000 S0.0
G1 X20.1638 Y37.1678 Z-5.0000 F0.0000 S0.0
G1 X20.3568 Y36.2538 Z-5.0000 F0.0000 S0.0
G1 X20.4726 Y35.2314 Z-5.0000 F0.0000 S0.0
G1 X20.5112 Y34.1008 Z-5.0000 F0.0000 S0.0
G1 X20.5281 Y24.1058 Z-5.0000 F0.0000 S0.0
G1 X20.4987 Y22.9925 Z-5.0000 F0.0000 S0.0
G1 X20.4106 Y21.9882 Z-5.0000 F0.0000 S0.0
G1 X20.2636 Y21.0930 Z-5.0000 F0.0000 S0.0
G1 X20.0579 Y20.3068 Z-5.0000 F0.0000 S0.0
G1 X19.7935 Y19.6298 Z-5.0000 F0.0000 S0.0
G1 X19.4702 Y19.0618 Z-5.0000 F0.0000 S0.0
G1 X19.1410 Y18.6554 Z-5.0000 F0.0000 S0.0
G1 X18.7531 Y18.3115 Z-5.0000 F0.0000 S0.0
G1 X18.3064 Y18.0302 Z-5.0000 F0.0000 S0.0
G1 X17.8011 Y17.8114 Z-5.0000 F0.0000 S0.0
G1 X17.2370 Y17.6550 Z-5.0000 F0.0000 S0.0
G1 X16.6142 Y17.5613 Z-5.0000 F0.0000 S0.0
G1 X15.9326 Y17.5300 Z-5.0000 F0.0000 S0.0
G1 X11.8196 Y17.5300 Z-5.0000 F0.0000 S0.0
G1 X11.8196 Y40.2788 Z-5.0000 F0.0000 S0.0
G1 X16.0173 Y40.2788 Z-5.0000 F0.0000 S0.0
G0 Z5.0000
G0 Z5.0000
G0 X17.3968 Y37.1559
G0 Z3.0000
G1 X17.3968 Y37.1559 Z-5.0000 F0.0000 S0.0
G1 X17.5493 Y36.8151 Z-5.0000 F0.0000 S0.0
G1 X17.6742 Y36.4074 Z-5.0000 F0.0000 S0.0
G1 X17.7712 Y35.9330 Z-5.0000 F0.0000 S0.0
G1 X17.8406 Y35.3918 Z-5.0000 F0.0000 S0.0
G1 X17.8822 Y34.7839 Z-5.0000 F0.0000 S0.0
G1 X17.8961 Y34.1092 Z-5.0000 F0.0000 S0.0
G1 X17.8961 Y23.7081 Z-5.0000 F0.0000 S0.0
G1 X17.8847 Y23.0693 Z-5.0000 F0.0000 S0.0
G1 X17.8505 Y22.4881 Z-5.0000 F0.0000 S0.0
G1 X17.7936 Y21.9647 Z-5.0000 F0.0000 S0.0
G1 X17.7139 Y21.4989 Z-5.0000 F0.0000 S0.0
G1 X17.6114 Y21.0908 Z-5.0000 F0.0000 S0.0
G1 X17.4861 Y20.7403 Z-5.0000 F0.0000 S0.0
G1 X17.3380 Y20.4476 Z-5.0000 F0.0000 S0.0
G1 X17.1672 Y20.2125 Z-5.0000 F0.0000 S0.0
G1 X16.9736 Y20.0351 Z-5.0000 F0.0000 S0.0
G1 X16.7877 Y19.9254 Z-5.0000 F0.0000 S0.0
G1 X16.5755 Y19.8401 Z-5.0000 F0.0000 S0.0
G1 X16.3368 Y19.7792 Z-5.0000 F0.0000 S0.0
G1 X16.0718 Y19.7426 Z-5.0000 F0.0000 S0.0
G1 X15.7803 Y19.7304 Z-5.0000 F0.0000 S0.0
G1 X14.4347 Y19.7304 Z-5.0000 F0.0000 S0.0
G1 X14.4347 Y38.0784 Z-5.0000 F0.0000 S0.0
G1 X15.7803 Y38.0784 Z-5.0000 F0.0000 S0.0
G1 X16.0518 Y38.0640 Z-5.0000 F0.0000 S0.0
G1 X16.3034 Y38.0208 Z-5.0000 F0.0000 S0.0
G1 X16.5352 Y37.9487 Z-5.0000 F0.0000 S0.0
G1 X16.7472 Y37.8478 Z-5.0000 F0.0000 S0.0
G1 X16.9393 Y37.7181 Z-5.0000 F0.0000 S0.0
G1 X17.1116 Y37.5595 Z-5.0000 F0.0000 S0.0
G1 X17.2641 Y37.3721 Z-5.0000 F0.0000 S0.0
G1 X17.3968 Y37.1559 Z-5.0000 F0.0000 S0.0
G0 Z5.0000
(finish operation: Engrave)
(begin operation: Engrave001)
(Engrave001)
G0 Z5.0000
G0 Z5.0000
G0 X16.0173 Y40.2788
G0 Z3.0000
G1 X16.0173 Y40.2788 Z-5.0000 F0.0000 S0.0
G1 X16.6334 Y40.2537 Z-5.0000 F0.0000 S0.0
G1 X17.1995 Y40.1783 Z-5.0000 F0.0000 S0.0
G1 X17.7156 Y40.0527 Z-5.0000 F0.0000 S0.0
G1 X18.1817 Y39.8768 Z-5.0000 F0.0000 S0.0
G1 X18.5978 Y39.6507 Z-5.0000 F0.0000 S0.0
G1 X18.9640 Y39.3743 Z-5.0000 F0.0000 S0.0
G1 X19.2802 Y39.0477 Z-5.0000 F0.0000 S0.0
G1 X19.5464 Y38.6708 Z-5.0000 F0.0000 S0.0
G1 X19.8937 Y37.9735 Z-5.0000 F0.0000 S0.0
G1 X20.1638 Y37.1678 Z-5.0000 F0.0000 S0.0
G1 X20.3568 Y36.2538 Z-5.0000 F0.0000 S0.0
G1 X20.4726 Y35.2314 Z-5.0000 F0.0000 S0.0
G1 X20.5112 Y34.1008 Z-5.0000 F0.0000 S0.0
G1 X20.5281 Y24.1058 Z-5.0000 F0.0000 S0.0
G1 X20.4987 Y22.9925 Z-5.0000 F0.0000 S0.0
G1 X20.4106 Y21.9882 Z-5.0000 F0.0000 S0.0
G1 X20.2636 Y21.0930 Z-5.0000 F0.0000 S0.0
G1 X20.0579 Y20.3068 Z-5.0000 F0.0000 S0.0
G1 X19.7935 Y19.6298 Z-5.0000 F0.0000 S0.0
G1 X19.4702 Y19.0618 Z-5.0000 F0.0000 S0.0
G1 X19.1410 Y18.6554 Z-5.0000 F0.0000 S0.0
G1 X18.7531 Y18.3115 Z-5.0000 F0.0000 S0.0
G1 X18.3064 Y18.0302 Z-5.0000 F0.0000 S0.0
G1 X17.8011 Y17.8114 Z-5.0000 F0.0000 S0.0
G1 X17.2370 Y17.6550 Z-5.0000 F0.0000 S0.0
G1 X16.6142 Y17.5613 Z-5.0000 F0.0000 S0.0
G1 X15.9326 Y17.5300 Z-5.0000 F0.0000 S0.0
G1 X11.8196 Y17.5300 Z-5.0000 F0.0000 S0.0
G1 X11.8196 Y40.2788 Z-5.0000 F0.0000 S0.0
G1 X16.0173 Y40.2788 Z-5.0000 F0.0000 S0.0
G0 Z5.0000
G0 Z5.0000
G0 X17.3968 Y37.1559
G0 Z3.0000
G1 X17.3968 Y37.1559 Z-5.0000 F0.0000 S0.0
G1 X17.5493 Y36.8151 Z-5.0000 F0.0000 S0.0
G1 X17.6742 Y36.4074 Z-5.0000 F0.0000 S0.0
G1 X17.7712 Y35.9330 Z-5.0000 F0.0000 S0.0
G1 X17.8406 Y35.3918 Z-5.0000 F0.0000 S0.0
G1 X17.8822 Y34.7839 Z-5.0000 F0.0000 S0.0
G1 X17.8961 Y34.1092 Z-5.0000 F0.0000 S0.0
G1 X17.8961 Y23.7081 Z-5.0000 F0.0000 S0.0
G1 X17.8847 Y23.0693 Z-5.0000 F0.0000 S0.0
G1 X17.8505 Y22.4881 Z-5.0000 F0.0000 S0.0
G1 X17.7936 Y21.9647 Z-5.0000 F0.0000 S0.0
G1 X17.7139 Y21.4989 Z-5.0000 F0.0000 S0.0
G1 X17.6114 Y21.0908 Z-5.0000 F0.0000 S0.0
G1 X17.4861 Y20.7403 Z-5.0000 F0.0000 S0.0
G1 X17.3380 Y20.4476 Z-5.0000 F0.0000 S0.0
G1 X17.1672 Y20.2125 Z-5.0000 F0.0000 S0.0
G1 X16.9736 Y20.0351 Z-5.0000 F0.0000 S0.0
G1 X16.7877 Y19.9254 Z-5.0000 F0.0000 S0.0
G1 X16.5755 Y19.8401 Z-5.0000 F0.0000 S0.0
G1 X16.3368 Y19.7792 Z-5.0000 F0.0000 S0.0
G1 X16.0718 Y19.7426 Z-5.0000 F0.0000 S0.0
G1 X15.7803 Y19.7304 Z-5.0000 F0.0000 S0.0
G1 X14.4347 Y19.7304 Z-5.0000 F0.0000 S0.0
G1 X14.4347 Y38.0784 Z-5.0000 F0.0000 S0.0
G1 X15.7803 Y38.0784 Z-5.0000 F0.0000 S0.0
G1 X16.0518 Y38.0640 Z-5.0000 F0.0000 S0.0
G1 X16.3034 Y38.0208 Z-5.0000 F0.0000 S0.0
G1 X16.5352 Y37.9487 Z-5.0000 F0.0000 S0.0
G1 X16.7472 Y37.8478 Z-5.0000 F0.0000 S0.0
G1 X16.9393 Y37.7181 Z-5.0000 F0.0000 S0.0
G1 X17.1116 Y37.5595 Z-5.0000 F0.0000 S0.0
G1 X17.2641 Y37.3721 Z-5.0000 F0.0000 S0.0
G1 X17.3968 Y37.1559 Z-5.0000 F0.0000 S0.0
G0 Z5.0000
G0 Z5.0000
G0 X24.7850 Y35.9119
G0 Z3.0000
G1 X24.7850 Y35.9119 Z-5.0000 F0.0000 S0.0
G1 X25.1504 Y36.2532 Z-5.0000 F0.0000 S0.0
G1 X25.5693 Y36.5325 Z-5.0000 F0.0000 S0.0
G1 X26.0418 Y36.7497 Z-5.0000 F0.0000 S0.0
G1 X26.5679 Y36.9049 Z-5.0000 F0.0000 S0.0
G1 X27.1477 Y36.9980 Z-5.0000 F0.0000 S0.0
G1 X27.7810 Y37.0290 Z-5.0000 F0.0000 S0.0
G1 X28.3334 Y37.0044 Z-5.0000 F0.0000 S0.0
G1 X28.8433 Y36.9308 Z-5.0000 F0.0000 S0.0
G1 X29.3104 Y36.8081 Z-5.0000 F0.0000 S0.0
G1 X29.7349 Y36.6363 Z-5.0000 F0.0000 S0.0
G1 X30.1168 Y36.4154 Z-5.0000 F0.0000 S0.0
G1 X30.4560 Y36.1454 Z-5.0000 F0.0000 S0.0
G1 X30.7525 Y35.8264 Z-5.0000 F0.0000 S0.0
G1 X31.0064 Y35.4582 Z-5.0000 F0.0000 S0.0
G1 X31.2177 Y35.0410 Z-5.0000 F0.0000 S0.0
G1 X31.3863 Y34.5747 Z-5.0000 F0.0000 S0.0
G1 X31.5640 Y33.8241 Z-5.0000 F0.0000 S0.0
G1 X31.6909 Y32.9519 Z-5.0000 F0.0000 S0.0
G1 X31.7671 Y31.9580 Z-5.0000 F0.0000 S0.0
G1 X31.7925 Y30.8425 Z-5.0000 F0.0000 S0.0
G1 X31.7925 Y27.2795 Z-5.0000 F0.0000 S0.0
G1 X26.1053 Y27.2795 Z-5.0000 F0.0000 S0.0
G1 X26.1053 Y23.4542 Z-5.0000 F0.0000 S0.0
G1 X26.1114 Y22.8594 Z-5.0000 F0.0000 S0.0
G1 X26.1296 Y22.3233 Z-5.0000 F0.0000 S0.0
G1 X26.1600 Y21.8459 Z-5.0000 F0.0000 S0.0
G1 X26.2026 Y21.4273 Z-5.0000 F0.0000 S0.0
G1 X26.2574 Y21.0673 Z-5.0000 F0.0000 S0.0
G1 X26.3243 Y20.7661 Z-5.0000 F0.0000 S0.0
G1 X26.4033 Y20.5236 Z-5.0000 F0.0000 S0.0
G1 X26.4946 Y20.3397 Z-5.0000 F0.0000 S0.0
G1 X26.6174 Y20.1781 Z-5.0000 F0.0000 S0.0
G1 X26.7585 Y20.0413 Z-5.0000 F0.0000 S0.0
G1 X26.9179 Y19.9294 Z-5.0000 F0.0000 S0.0
G1 X27.0956 Y19.8423 Z-5.0000 F0.0000 S0.0
G1 X27.2917 Y19.7801 Z-5.0000 F0.0000 S0.0
G1 X27.5060 Y19.7428 Z-5.0000 F0.0000 S0.0
G1 X27.7387 Y19.7304 Z-5.0000 F0.0000 S0.0
G1 X27.9216 Y19.7392 Z-5.0000 F0.0000 S0.0
G1 X28.0906 Y19.7655 Z-5.0000 F0.0000 S0.0
G1 X28.2455 Y19.8094 Z-5.0000 F0.0000 S0.0
G1 X28.3865 Y19.8708 Z-5.0000 F0.0000 S0.0
G1 X28.5134 Y19.9498 Z-5.0000 F0.0000 S0.0
G1 X28.6263 Y20.0464 Z-5.0000 F0.0000 S0.0
G1 X28.7253 Y20.1605 Z-5.0000 F0.0000 S0.0
G1 X28.8102 Y20.2921 Z-5.0000 F0.0000 S0.0
G1 X28.8812 Y20.4413 Z-5.0000 F0.0000 S0.0
G1 X29.0420 Y20.9340 Z-5.0000 F0.0000 S0.0
G1 X29.1407 Y21.4531 Z-5.0000 F0.0000 S0.0
G1 X29.1774 Y21.9985 Z-5.0000 F0.0000 S0.0
G1 X29.1868 Y22.5279 Z-5.0000 F0.0000 S0.0
G1 X29.1924 Y22.9990 Z-5.0000 F0.0000 S0.0
G1 X29.1943 Y23.4119 Z-5.0000 F0.0000 S0.0
G1 X29.1943 Y24.9606 Z-5.0000 F0.0000 S0.0
G1 X31.7417 Y24.9606 Z-5.0000 F0.0000 S0.0
G1 X31.7417 Y24.1397 Z-5.0000 F0.0000 S0.0
G1 X31.7300 Y23.1695 Z-5.0000 F0.0000 S0.0
G1 X31.6947 Y22.3013 Z-5.0000 F0.0000 S0.0
G1 X31.6359 Y21.5352 Z-5.0000 F0.0000 S0.0
G1 X31.5536 Y20.8710 Z-5.0000 F0.0000 S0.0
G1 X31.4478 Y20.3090 Z-5.0000 F0.0000 S0.0
G1 X31.3186 Y19.8489 Z-5.0000 F0.0000 S0.0
G1 X31.1317 Y19.3851 Z-5.0000 F0.0000 S0.0
G1 X30.9096 Y18.9755 Z-5.0000 F0.0000 S0.0
G1 X30.6523 Y18.6200 Z-5.0000 F0.0000 S0.0
G1 X30.3599 Y18.3188 Z-5.0000 F0.0000 S0.0
G1 X30.0322 Y18.0716 Z-5.0000 F0.0000 S0.0
G1 X29.5746 Y17.8347 Z-5.0000 F0.0000 S0.0
G1 X29.0653 Y17.6654 Z-5.0000 F0.0000 S0.0
G1 X28.5040 Y17.5639 Z-5.0000 F0.0000 S0.0
G1 X27.8910 Y17.5300 Z-5.0000 F0.0000 S0.0
G1 X27.2838 Y17.5501 Z-5.0000 F0.0000 S0.0
G1 X26.7400 Y17.6104 Z-5.0000 F0.0000 S0.0
G1 X26.2597 Y17.7109 Z-5.0000 F0.0000 S0.0
G1 X25.8429 Y17.8516 Z-5.0000 F0.0000 S0.0
G1 X25.4811 Y18.0293 Z-5.0000 F0.0000 S0.0
G1 X25.1574 Y18.2324 Z-5.0000 F0.0000 S0.0
G1 X24.8718 Y18.4609 Z-5.0000 F0.0000 S0.0
G1 X24.6242 Y18.7148 Z-5.0000 F0.0000 S0.0
G1 X24.4489 Y18.9535 Z-5.0000 F0.0000 S0.0
G1 X24.2817 Y19.2429 Z-5.0000 F0.0000 S0.0
G1 X24.1225 Y19.5831 Z-5.0000 F0.0000 S0.0
G1 X23.9716 Y19.9741 Z-5.0000 F0.0000 S0.0
G1 X23.8287 Y20.4159 Z-5.0000 F0.0000 S0.0
G1 X23.7068 Y20.9400 Z-5.0000 F0.0000 S0.0
G1 X23.6121 Y21.5777 Z-5.0000 F0.0000 S0.0
G1 X23.5443 Y22.3293 Z-5.0000 F0.0000 S0.0
G1 X23.5037 Y23.1945 Z-5.0000 F0.0000 S0.0
G1 X23.4902 Y24.1735 Z-5.0000 F0.0000 S0.0
G1 X23.4902 Y30.9017 Z-5.0000 F0.0000 S0.0
G1 X23.5166 Y31.8869 Z-5.0000 F0.0000 S0.0
G1 X23.5959 Y32.7822 Z-5.0000 F0.0000 S0.0
G1 X23.7280 Y33.5878 Z-5.0000 F0.0000 S0.0
G1 X23.9130 Y34.3035 Z-5.0000 F0.0000 S0.0
G1 X24.1508 Y34.9294 Z-5.0000 F0.0000 S0.0
G1 X24.4415 Y35.4656 Z-5.0000 F0.0000 S0.0
G1 X24.7850 Y35.9119 Z-5.0000 F0.0000 S0.0
G0 Z5.0000
G0 Z5.0000
G0 X29.0420 Y33.7707
G0 Z3.0000
G1 X29.0420 Y33.7707 Z-5.0000 F0.0000 S0.0
G1 X29.0739 Y33.6586 Z-5.0000 F0.0000 S0.0
G1 X29.1022 Y33.5066 Z-5.0000 F0.0000 S0.0
G1 X29.1266 Y33.3146 Z-5.0000 F0.0000 S0.0
G1 X29.1473 Y33.0828 Z-5.0000 F0.0000 S0.0
G1 X29.1642 Y32.8110 Z-5.0000 F0.0000 S0.0
G1 X29.1774 Y32.4993 Z-5.0000 F0.0000 S0.0
G1 X29.1868 Y32.1478 Z-5.0000 F0.0000 S0.0
G1 X29.1924 Y31.7563 Z-5.0000 F0.0000 S0.0
G1 X29.1943 Y31.3249 Z-5.0000 F0.0000 S0.0
G1 X29.1943 Y28.9044 Z-5.0000 F0.0000 S0.0
G1 X26.0968 Y28.9044 Z-5.0000 F0.0000 S0.0
G1 X26.0968 Y31.2402 Z-5.0000 F0.0000 S0.0
G1 X26.1159 Y32.0331 Z-5.0000 F0.0000 S0.0
G1 X26.1730 Y32.7361 Z-5.0000 F0.0000 S0.0
G1 X26.2682 Y33.3491 Z-5.0000 F0.0000 S0.0
G1 X26.4015 Y33.8722 Z-5.0000 F0.0000 S0.0
G1 X26.4708 Y34.0540 Z-5.0000 F0.0000 S0.0
G1 X26.5569 Y34.2165 Z-5.0000 F0.0000 S0.0
G1 X26.6597 Y34.3600 Z-5.0000 F0.0000 S0.0
G1 X26.7793 Y34.4843 Z-5.0000 F0.0000 S0.0
G1 X26.9156 Y34.5895 Z-5.0000 F0.0000 S0.0
G1 X27.0687 Y34.6756 Z-5.0000 F0.0000 S0.0
G1 X27.2386 Y34.7425 Z-5.0000 F0.0000 S0.0
G1 X27.4252 Y34.7903 Z-5.0000 F0.0000 S0.0
G1 X27.6286 Y34.8190 Z-5.0000 F0.0000 S0.0
G1 X27.8487 Y34.8286 Z-5.0000 F0.0000 S0.0
G1 X28.0105 Y34.8220 Z-5.0000 F0.0000 S0.0
G1 X28.1575 Y34.8023 Z-5.0000 F0.0000 S0.0
G1 X28.2896 Y34.7695 Z-5.0000 F0.0000 S0.0
G1 X28.4069 Y34.7236 Z-5.0000 F0.0000 S0.0
G1 X28.5093 Y34.6645 Z-5.0000 F0.0000 S0.0
G1 X28.5969 Y34.5923 Z-5.0000 F0.0000 S0.0
G1 X28.6696 Y34.5070 Z-5.0000 F0.0000 S0.0
G1 X28.8125 Y34.2860 Z-5.0000 F0.0000 S0.0
G1 X28.9367 Y34.0406 Z-5.0000 F0.0000 S0.0
G1 X29.0420 Y33.7707 Z-5.0000 F0.0000 S0.0
G0 Z5.0000
G0 Z5.0000
G0 X40.6957 Y35.4379
G0 Z3.0000
G1 X40.6957 Y35.4379 Z-5.0000 F0.0000 S0.0
G1 X40.6957 Y37.0290 Z-5.0000 F0.0000 S0.0
G1 X43.2938 Y37.0290 Z-5.0000 F0.0000 S0.0
G1 X43.2938 Y19.1380 Z-5.0000 F0.0000 S0.0
G1 X43.2622 Y18.3851 Z-5.0000 F0.0000 S0.0
G1 X43.1672 Y17.6949 Z-5.0000 F0.0000 S0.0
G1 X43.0089 Y17.0674 Z-5.0000 F0.0000 S0.0
G1 X42.7873 Y16.5025 Z-5.0000 F0.0000 S0.0
G1 X42.5024 Y16.0004 Z-5.0000 F0.0000 S0.0
G1 X42.1541 Y15.5609 Z-5.0000 F0.0000 S0.0
G1 X41.7426 Y15.1842 Z-5.0000 F0.0000 S0.0
G1 X41.2677 Y14.8701 Z-5.0000 F0.0000 S0.0
G1 X40.7295 Y14.6187 Z-5.0000 F0.0000 S0.0
G1 X40.1061 Y14.4306 Z-5.0000 F0.0000 S0.0
G1 X39.4206 Y14.3178 Z-5.0000 F0.0000 S0.0
G1 X38.6730 Y14.2802 Z-5.0000 F0.0000 S0.0
G1 X37.7708 Y14.3320 Z-5.0000 F0.0000 S0.0
G1 X36.9330 Y14.4873 Z-5.0000 F0.0000 S0.0
G1 X36.1594 Y14.7463 Z-5.0000 F0.0000 S0.0
G1 X35.4502 Y15.1089 Z-5.0000 F0.0000 S0.0
G1 X34.8053 Y15.5750 Z-5.0000 F0.0000 S0.0
G1 X35.7448 Y17.4200 Z-5.0000 F0.0000 S0.0
G1 X36.4451 Y17.0090 Z-5.0000 F0.0000 S0.0
G1 X37.1666 Y16.7154 Z-5.0000 F0.0000 S0.0
G1 X37.9092 Y16.5393 Z-5.0000 F0.0000 S0.0
G1 X38.6730 Y16.4806 Z-5.0000 F0.0000 S0.0
G1 X38.9569 Y16.4942 Z-5.0000 F0.0000 S0.0
G1 X39.2188 Y16.5352 Z-5.0000 F0.0000 S0.0
G1 X39.4585 Y16.6034 Z-5.0000 F0.0000 S0.0
G1 X39.6761 Y16.6989 Z-5.0000 F0.0000 S0.0
G1 X39.8716 Y16.8217 Z-5.0000 F0.0000 S0.0
G1 X40.0450 Y16.9718 Z-5.0000 F0.0000 S0.0
G1 X40.1963 Y17.1492 Z-5.0000 F0.0000 S0.0
G1 X40.3761 Y17.4315 Z-5.0000 F0.0000 S0.0
G1 X40.5159 Y17.7504 Z-5.0000 F0.0000 S0.0
G1 X40.6158 Y18.1058 Z-5.0000 F0.0000 S0.0
G1 X40.6757 Y18.4978 Z-5.0000 F0.0000 S0.0
G1 X40.6957 Y18.9264 Z-5.0000 F0.0000 S0.0
G1 X40.6957 Y20.7883 Z-5.0000 F0.0000 S0.0
G1 X40.5464 Y20.4356 Z-5.0000 F0.0000 S0.0
G1 X40.3761 Y20.1288 Z-5.0000 F0.0000 S0.0
G1 X40.1848 Y19.8682 Z-5.0000 F0.0000 S0.0
G1 X39.9726 Y19.6536 Z-5.0000 F0.0000 S0.0
G1 X39.7393 Y19.4850 Z-5.0000 F0.0000 S0.0
G1 X39.4029 Y19.3258 Z-5.0000 F0.0000 S0.0
G1 X39.0284 Y19.2120 Z-5.0000 F0.0000 S0.0
G1 X38.6159 Y19.1438 Z-5.0000 F0.0000 S0.0
G1 X38.1652 Y19.1211 Z-5.0000 F0.0000 S0.0
G1 X37.7568 Y19.1414 Z-5.0000 F0.0000 S0.0
G1 X37.3778 Y19.2026 Z-5.0000 F0.0000 S0.0
G1 X37.0283 Y19.3044 Z-5.0000 F0.0000 S0.0
G1 X36.7083 Y19.4470 Z-5.0000 F0.0000 S0.0
G1 X36.4177 Y19.6304 Z-5.0000 F0.0000 S0.0
G1 X36.1566 Y19.8545 Z-5.0000 F0.0000 S0.0
G1 X35.9250 Y20.1194 Z-5.0000 F0.0000 S0.0
G1 X35.7228 Y20.4250 Z-5.0000 F0.0000 S0.0
G1 X35.5501 Y20.7714 Z-5.0000 F0.0000 S0.0
G1 X35.2391 Y21.6674 Z-5.0000 F0.0000 S0.0
G1 X35.0169 Y22.7052 Z-5.0000 F0.0000 S0.0
G1 X34.8836 Y23.8847 Z-5.0000 F0.0000 S0.0
G1 X34.8392 Y25.2060 Z-5.0000 F0.0000 S0.0
G1 X34.8392 Y30.7917 Z-5.0000 F0.0000 S0.0
G1 X34.8601 Y31.7144 Z-5.0000 F0.0000 S0.0
G1 X34.9227 Y32.5632 Z-5.0000 F0.0000 S0.0
G1 X35.0271 Y33.3383 Z-5.0000 F0.0000 S0.0
G1 X35.1733 Y34.0395 Z-5.0000 F0.0000 S0.0
G1 X35.3613 Y34.6669 Z-5.0000 F0.0000 S0.0
G1 X35.5910 Y35.2205 Z-5.0000 F0.0000 S0.0
G1 X35.8624 Y35.7003 Z-5.0000 F0.0000 S0.0
G1 X36.1757 Y36.1063 Z-5.0000 F0.0000 S0.0
G1 X36.5307 Y36.4385 Z-5.0000 F0.0000 S0.0
G1 X36.9274 Y36.6968 Z-5.0000 F0.0000 S0.0
G1 X37.3660 Y36.8814 Z-5.0000 F0.0000 S0.0
G1 X37.8463 Y36.9921 Z-5.0000 F0.0000 S0.0
G1 X38.3683 Y37.0290 Z-5.0000 F0.0000 S0.0
G1 X38.7145 Y37.0131 Z-5.0000 F0.0000 S0.0
G1 X39.0355 Y36.9653 Z-5.0000 F0.0000 S0.0
G1 X39.3313 Y36.8858 Z-5.0000 F0.0000 S0.0
G1 X39.6019 Y36.7744 Z-5.0000 F0.0000 S0.0
G1 X39.8472 Y36.6312 Z-5.0000 F0.0000 S0.0
G1 X40.0674 Y36.4562 Z-5.0000 F0.0000 S0.0
G1 X40.2623 Y36.2494 Z-5.0000 F0.0000 S0.0
G1 X40.4320 Y36.0107 Z-5.0000 F0.0000 S0.0
G1 X40.5764 Y35.7402 Z-5.0000 F0.0000 S0.0
G1 X40.6957 Y35.4379 Z-5.0000 F0.0000 S0.0
G0 Z5.0000
G0 Z5.0000
G0 X40.3571 Y33.9653
G0 Z3.0000
G1 X40.3571 Y33.9653 Z-5.0000 F0.0000 S0.0
G1 X40.4790 Y33.5818 Z-5.0000 F0.0000 S0.0
G1 X40.5738 Y33.1150 Z-5.0000 F0.0000 S0.0
G1 X40.6415 Y32.5649 Z-5.0000 F0.0000 S0.0
G1 X40.6821 Y31.9315 Z-5.0000 F0.0000 S0.0
G1 X40.6957 Y31.2148 Z-5.0000 F0.0000 S0.0
G1 X40.6957 Y25.2314 Z-5.0000 F0.0000 S0.0
G1 X40.6843 Y24.6019 Z-5.0000 F0.0000 S0.0
G1 X40.6576 Y24.0299 Z-5.0000 F0.0000 S0.0
G1 X40.6157 Y23.5153 Z-5.0000 F0.0000 S0.0
G1 X40.5586 Y23.0582 Z-5.0000 F0.0000 S0.0
G1 X40.4862 Y22.6585 Z-5.0000 F0.0000 S0.0
G1 X40.3985 Y22.3164 Z-5.0000 F0.0000 S0.0
G1 X40.2956 Y22.0316 Z-5.0000 F0.0000 S0.0
G1 X40.1774 Y21.8044 Z-5.0000 F0.0000 S0.0
G1 X40.0440 Y21.6346 Z-5.0000 F0.0000 S0.0
G1 X39.9361 Y21.5389 Z-5.0000 F0.0000 S0.0
G1 X39.8155 Y21.4606 Z-5.0000 F0.0000 S0.0
G1 X39.6822 Y21.3998 Z-5.0000 F0.0000 S0.0
G1 X39.5362 Y21.3563 Z-5.0000 F0.0000 S0.0
G1 X39.3775 Y21.3302 Z-5.0000 F0.0000 S0.0
G1 X39.2062 Y21.3215 Z-5.0000 F0.0000 S0.0
G1 X38.9884 Y21.3328 Z-5.0000 F0.0000 S0.0
G1 X38.7866 Y21.3666 Z-5.0000 F0.0000 S0.0
G1 X38.6006 Y21.4230 Z-5.0000 F0.0000 S0.0
G1 X38.4305 Y21.5020 Z-5.0000 F0.0000 S0.0
G1 X38.2763 Y21.6036 Z-5.0000 F0.0000 S0.0
G1 X38.1379 Y21.7277 Z-5.0000 F0.0000 S0.0
G1 X38.0155 Y21.8744 Z-5.0000 F0.0000 S0.0
G1 X37.9089 Y22.0437 Z-5.0000 F0.0000 S0.0
G1 X37.8182 Y22.2355 Z-5.0000 F0.0000 S0.0
G1 X37.7070 Y22.5719 Z-5.0000 F0.0000 S0.0
G1 X37.6160 Y22.9718 Z-5.0000 F0.0000 S0.0
G1 X37.5453 Y23.4351 Z-5.0000 F0.0000 S0.0
G1 X37.4947 Y23.9620 Z-5.0000 F0.0000 S0.0
G1 X37.4644 Y24.5523 Z-5.0000 F0.0000 S0.0
G1 X37.4543 Y25.2060 Z-5.0000 F0.0000 S0.0
G1 X37.4543 Y31.2487 Z-5.0000 F0.0000 S0.0
G1 X37.4646 Y31.9558 Z-5.0000 F0.0000 S0.0
G1 X37.4957 Y32.5765 Z-5.0000 F0.0000 S0.0
G1 X37.5474 Y33.1106 Z-5.0000 F0.0000 S0.0
G1 X37.6130 Y33.4634 Z-5.0000 F0.0000 S0.0
G1 X37.7082 Y33.7855 Z-5.0000 F0.0000 S0.0
G1 X37.8330 Y34.0769 Z-5.0000 F0.0000 S0.0
G1 X37.9875 Y34.3377 Z-5.0000 F0.0000 S0.0
G1 X38.0966 Y34.4679 Z-5.0000 F0.0000 S0.0
G1 X38.2258 Y34.5781 Z-5.0000 F0.0000 S0.0
G1 X38.3751 Y34.6683 Z-5.0000 F0.0000 S0.0
G1 X38.5443 Y34.7384 Z-5.0000 F0.0000 S0.0
G1 X38.7336 Y34.7885 Z-5.0000 F0.0000 S0.0
G1 X38.9429 Y34.8186 Z-5.0000 F0.0000 S0.0
G1 X39.1723 Y34.8286 Z-5.0000 F0.0000 S0.0
G1 X39.3541 Y34.8179 Z-5.0000 F0.0000 S0.0
G1 X39.5234 Y34.7859 Z-5.0000 F0.0000 S0.0
G1 X39.6801 Y34.7327 Z-5.0000 F0.0000 S0.0
G1 X39.8243 Y34.6581 Z-5.0000 F0.0000 S0.0
G1 X39.9559 Y34.5621 Z-5.0000 F0.0000 S0.0
G1 X40.0750 Y34.4449 Z-5.0000 F0.0000 S0.0
G1 X40.1816 Y34.3064 Z-5.0000 F0.0000 S0.0
G1 X40.2756 Y34.1465 Z-5.0000 F0.0000 S0.0
G1 X40.3571 Y33.9653 Z-5.0000 F0.0000 S0.0
G0 Z5.0000
G0 Z5.0000
G0 X48.0755 Y35.9119
G0 Z3.0000
G1 X48.0755 Y35.9119 Z-5.0000 F0.0000 S0.0
G1 X48.4408 Y36.2532 Z-5.0000 F0.0000 S0.0
G1 X48.8597 Y36.5325 Z-5.0000 F0.0000 S0.0
G1 X49.3323 Y36.7497 Z-5.0000 F0.0000 S0.0
G1 X49.8584 Y36.9049 Z-5.0000 F0.0000 S0.0
G1 X50.4381 Y36.9980 Z-5.0000 F0.0000 S0.0
G1 X51.0714 Y37.0290 Z-5.0000 F0.0000 S0.0
G1 X51.6239 Y37.0044 Z-5.0000 F0.0000 S0.0
G1 X52.1337 Y36.9308 Z-5.0000 F0.0000 S0.0
G1 X52.6009 Y36.8081 Z-5.0000 F0.0000 S0.0
G1 X53.0254 Y36.6363 Z-5.0000 F0.0000 S0.0
G1 X53.4072 Y36.4154 Z-5.0000 F0.0000 S0.0
G1 X53.7464 Y36.1454 Z-5.0000 F0.0000 S0.0
G1 X54.0430 Y35.8264 Z-5.0000 F0.0000 S0.0
G1 X54.2969 Y35.4582 Z-5.0000 F0.0000 S0.0
G1 X54.5081 Y35.0410 Z-5.0000 F0.0000 S0.0
G1 X54.6767 Y34.5747 Z-5.0000 F0.0000 S0.0
G1 X54.8544 Y33.8241 Z-5.0000 F0.0000 S0.0
G1 X54.9814 Y32.9519 Z-5.0000 F0.0000 S0.0
G1 X55.0575 Y31.9580 Z-5.0000 F0.0000 S0.0
G1 X55.0829 Y30.8425 Z-5.0000 F0.0000 S0.0
G1 X55.0829 Y27.2795 Z-5.0000 F0.0000 S0.0
G1 X49.3957 Y27.2795 Z-5.0000 F0.0000 S0.0
G1 X49.3957 Y23.4542 Z-5.0000 F0.0000 S0.0
G1 X49.4018 Y22.8594 Z-5.0000 F0.0000 S0.0
G1 X49.4201 Y22.3233 Z-5.0000 F0.0000 S0.0
G1 X49.4505 Y21.8459 Z-5.0000 F0.0000 S0.0
G1 X49.4931 Y21.4273 Z-5.0000 F0.0000 S0.0
G1 X49.5478 Y21.0673 Z-5.0000 F0.0000 S0.0
G1 X49.6147 Y20.7661 Z-5.0000 F0.0000 S0.0
G1 X49.6938 Y20.5236 Z-5.0000 F0.0000 S0.0
G1 X49.7850 Y20.3397 Z-5.0000 F0.0000 S0.0
G1 X49.9078 Y20.1781 Z-5.0000 F0.0000 S0.0
G1 X50.0489 Y20.0413 Z-5.0000 F0.0000 S0.0
G1 X50.2084 Y19.9294 Z-5.0000 F0.0000 S0.0
G1 X50.3861 Y19.8423 Z-5.0000 F0.0000 S0.0
G1 X50.5821 Y19.7801 Z-5.0000 F0.0000 S0.0
G1 X50.7965 Y19.7428 Z-5.0000 F0.0000 S0.0
G1 X51.0291 Y19.7304 Z-5.0000 F0.0000 S0.0
G1 X51.2121 Y19.7392 Z-5.0000 F0.0000 S0.0
G1 X51.3810 Y19.7655 Z-5.0000 F0.0000 S0.0
G1 X51.5360 Y19.8094 Z-5.0000 F0.0000 S0.0
G1 X51.6769 Y19.8708 Z-5.0000 F0.0000 S0.0
G1 X51.8039 Y19.9498 Z-5.0000 F0.0000 S0.0
G1 X51.9168 Y20.0464 Z-5.0000 F0.0000 S0.0
G1 X52.0157 Y20.1605 Z-5.0000 F0.0000 S0.0
G1 X52.1007 Y20.2921 Z-5.0000 F0.0000 S0.0
G1 X52.1716 Y20.4413 Z-5.0000 F0.0000 S0.0
G1 X52.3324 Y20.9340 Z-5.0000 F0.0000 S0.0
G1 X52.4312 Y21.4531 Z-5.0000 F0.0000 S0.0
G1 X52.4678 Y21.9985 Z-5.0000 F0.0000 S0.0
G1 X52.4772 Y22.5279 Z-5.0000 F0.0000 S0.0
G1 X52.4829 Y22.9990 Z-5.0000 F0.0000 S0.0
G1 X52.4848 Y23.4119 Z-5.0000 F0.0000 S0.0
G1 X52.4848 Y24.9606 Z-5.0000 F0.0000 S0.0
G1 X55.0322 Y24.9606 Z-5.0000 F0.0000 S0.0
G1 X55.0322 Y24.1397 Z-5.0000 F0.0000 S0.0
G1 X55.0204 Y23.1695 Z-5.0000 F0.0000 S0.0
G1 X54.9851 Y22.3013 Z-5.0000 F0.0000 S0.0
G1 X54.9264 Y21.5352 Z-5.0000 F0.0000 S0.0
G1 X54.8441 Y20.8710 Z-5.0000 F0.0000 S0.0
G1 X54.7383 Y20.3090 Z-5.0000 F0.0000 S0.0
G1 X54.6090 Y19.8489 Z-5.0000 F0.0000 S0.0
G1 X54.4221 Y19.3851 Z-5.0000 F0.0000 S0.0
G1 X54.2001 Y18.9755 Z-5.0000 F0.0000 S0.0
G1 X53.9428 Y18.6200 Z-5.0000 F0.0000 S0.0
G1 X53.6503 Y18.3188 Z-5.0000 F0.0000 S0.0
G1 X53.3226 Y18.0716 Z-5.0000 F0.0000 S0.0
G1 X52.8651 Y17.8347 Z-5.0000 F0.0000 S0.0
G1 X52.3557 Y17.6654 Z-5.0000 F0.0000 S0.0
G1 X51.7945 Y17.5639 Z-5.0000 F0.0000 S0.0
G1 X51.1814 Y17.5300 Z-5.0000 F0.0000 S0.0
G1 X50.5742 Y17.5501 Z-5.0000 F0.0000 S0.0
G1 X50.0305 Y17.6104 Z-5.0000 F0.0000 S0.0
G1 X49.5502 Y17.7109 Z-5.0000 F0.0000 S0.0
G1 X49.1334 Y17.8516 Z-5.0000 F0.0000 S0.0
G1 X48.7716 Y18.0293 Z-5.0000 F0.0000 S0.0
G1 X48.4479 Y18.2324 Z-5.0000 F0.0000 S0.0
G1 X48.1622 Y18.4609 Z-5.0000 F0.0000 S0.0
G1 X47.9147 Y18.7148 Z-5.0000 F0.0000 S0.0
G1 X47.7393 Y18.9535 Z-5.0000 F0.0000 S0.0
G1 X47.5721 Y19.2429 Z-5.0000 F0.0000 S0.0
G1 X47.4130 Y19.5831 Z-5.0000 F0.0000 S0.0
G1 X47.2620 Y19.9741 Z-5.0000 F0.0000 S0.0
G1 X47.1192 Y20.4159 Z-5.0000 F0.0000 S0.0
G1 X46.9973 Y20.9400 Z-5.0000 F0.0000 S0.0
G1 X46.9025 Y21.5777 Z-5.0000 F0.0000 S0.0
G1 X46.8348 Y22.3293 Z-5.0000 F0.0000 S0.0
G1 X46.7942 Y23.1945 Z-5.0000 F0.0000 S0.0
G1 X46.7806 Y24.1735 Z-5.0000 F0.0000 S0.0
G1 X46.7806 Y30.9017 Z-5.0000 F0.0000 S0.0
G1 X46.8071 Y31.8869 Z-5.0000 F0.0000 S0.0
G1 X46.8863 Y32.7822 Z-5.0000 F0.0000 S0.0
G1 X47.0185 Y33.5878 Z-5.0000 F0.0000 S0.0
G1 X47.2034 Y34.3035 Z-5.0000 F0.0000 S0.0
G1 X47.4413 Y34.9294 Z-5.0000 F0.0000 S0.0
G1 X47.7320 Y35.4656 Z-5.0000 F0.0000 S0.0
G1 X48.0755 Y35.9119 Z-5.0000 F0.0000 S0.0
G0 Z5.0000
G0 Z5.0000
G0 X52.3324 Y33.7707
G0 Z3.0000
G1 X52.3324 Y33.7707 Z-5.0000 F0.0000 S0.0
G1 X52.3644 Y33.6586 Z-5.0000 F0.0000 S0.0
G1 X52.3926 Y33.5066 Z-5.0000 F0.0000 S0.0
G1 X52.4171 Y33.3146 Z-5.0000 F0.0000 S0.0
G1 X52.4377 Y33.0828 Z-5.0000 F0.0000 S0.0
G1 X52.4547 Y32.8110 Z-5.0000 F0.0000 S0.0
G1 X52.4678 Y32.4993 Z-5.0000 F0.0000 S0.0
G1 X52.4772 Y32.1478 Z-5.0000 F0.0000 S0.0
G1 X52.4829 Y31.7563 Z-5.0000 F0.0000 S0.0
G1 X52.4848 Y31.3249 Z-5.0000 F0.0000 S0.0
G1 X52.4848 Y28.9044 Z-5.0000 F0.0000 S0.0
G1 X49.3873 Y28.9044 Z-5.0000 F0.0000 S0.0
G1 X49.3873 Y31.2402 Z-5.0000 F0.0000 S0.0
G1 X49.4063 Y32.0331 Z-5.0000 F0.0000 S0.0
G1 X49.4634 Y32.7361 Z-5.0000 F0.0000 S0.0
G1 X49.5586 Y33.3491 Z-5.0000 F0.0000 S0.0
G1 X49.6919 Y33.8722 Z-5.0000 F0.0000 S0.0
G1 X49.7613 Y34.0540 Z-5.0000 F0.0000 S0.0
G1 X49.8473 Y34.2165 Z-5.0000 F0.0000 S0.0
G1 X49.9502 Y34.3600 Z-5.0000 F0.0000 S0.0
G1 X50.0697 Y34.4843 Z-5.0000 F0.0000 S0.0
G1 X50.2061 Y34.5895 Z-5.0000 F0.0000 S0.0
G1 X50.3592 Y34.6756 Z-5.0000 F0.0000 S0.0
G1 X50.5290 Y34.7425 Z-5.0000 F0.0000 S0.0
G1 X50.7156 Y34.7903 Z-5.0000 F0.0000 S0.0
G1 X50.9190 Y34.8190 Z-5.0000 F0.0000 S0.0
G1 X51.1391 Y34.8286 Z-5.0000 F0.0000 S0.0
G1 X51.3010 Y34.8220 Z-5.0000 F0.0000 S0.0
G1 X51.4480 Y34.8023 Z-5.0000 F0.0000 S0.0
G1 X51.5801 Y34.7695 Z-5.0000 F0.0000 S0.0
G1 X51.6974 Y34.7236 Z-5.0000 F0.0000 S0.0
G1 X51.7998 Y34.6645 Z-5.0000 F0.0000 S0.0
G1 X51.8873 Y34.5923 Z-5.0000 F0.0000 S0.0
G1 X51.9601 Y34.5070 Z-5.0000 F0.0000 S0.0
G1 X52.1030 Y34.2860 Z-5.0000 F0.0000 S0.0
G1 X52.2271 Y34.0406 Z-5.0000 F0.0000 S0.0
G1 X52.3324 Y33.7707 Z-5.0000 F0.0000 S0.0
G0 Z5.0000
G0 Z5.0000
G0 X62.1073 Y36.4112
G0 Z3.0000
G1 X62.1073 Y36.4112 Z-5.0000 F0.0000 S0.0
G1 X62.4357 Y36.6336 Z-5.0000 F0.0000 S0.0
G1 X62.7911 Y36.8066 Z-5.0000 F0.0000 S0.0
G1 X63.1737 Y36.9301 Z-5.0000 F0.0000 S0.0
G1 X63.5833 Y37.0043 Z-5.0000 F0.0000 S0.0
G1 X64.0200 Y37.0290 Z-5.0000 F0.0000 S0.0
G1 X64.4494 Y37.0062 Z-5.0000 F0.0000 S0.0
G1 X64.8462 Y36.9379 Z-5.0000 F0.0000 S0.0
G1 X65.2104 Y36.8240 Z-5.0000 F0.0000 S0.0
G1 X65.5421 Y36.6645 Z-5.0000 F0.0000 S0.0
G1 X65.8411 Y36.4596 Z-5.0000 F0.0000 S0.0
G1 X66.1075 Y36.2090 Z-5.0000 F0.0000 S0.0
G1 X66.3414 Y35.9129 Z-5.0000 F0.0000 S0.0
G1 X66.5426 Y35.5712 Z-5.0000 F0.0000 S0.0
G1 X66.7112 Y35.1840 Z-5.0000 F0.0000 S0.0
G1 X66.9741 Y35.5855 Z-5.0000 F0.0000 S0.0
G1 X67.2804 Y35.9436 Z-5.0000 F0.0000 S0.0
G1 X67.6300 Y36.2583 Z-5.0000 F0.0000 S0.0
G1 X68.0230 Y36.5297 Z-5.0000 F0.0000 S0.0
G1 X68.4568 Y36.7481 Z-5.0000 F0.0000 S0.0
G1 X68.9201 Y36.9042 Z-5.0000 F0.0000 S0.0
G1 X69.4131 Y36.9978 Z-5.0000 F0.0000 S0.0
G1 X69.9357 Y37.0290 Z-5.0000 F0.0000 S0.0
G1 X70.3537 Y37.0067 Z-5.0000 F0.0000 S0.0
G1 X70.7419 Y36.9399 Z-5.0000 F0.0000 S0.0
G1 X71.1005 Y36.8285 Z-5.0000 F0.0000 S0.0
G1 X71.4293 Y36.6725 Z-5.0000 F0.0000 S0.0
G1 X71.7285 Y36.4720 Z-5.0000 F0.0000 S0.0
G1 X71.9979 Y36.2269 Z-5.0000 F0.0000 S0.0
G1 X72.2376 Y35.9372 Z-5.0000 F0.0000 S0.0
G1 X72.5210 Y35.4596 Z-5.0000 F0.0000 S0.0
G1 X72.7414 Y34.9000 Z-5.0000 F0.0000 S0.0
G1 X72.8988 Y34.2585 Z-5.0000 F0.0000 S0.0
G1 X72.9932 Y33.5351 Z-5.0000 F0.0000 S0.0
G1 X73.0247 Y32.7297 Z-5.0000 F0.0000 S0.0
G1 X73.0247 Y17.5300 Z-5.0000 F0.0000 S0.0
G1 X70.4181 Y17.5300 Z-5.0000 F0.0000 S0.0
G1 X70.4181 Y32.8651 Z-5.0000 F0.0000 S0.0
G1 X70.4091 Y33.1556 Z-5.0000 F0.0000 S0.0
G1 X70.3820 Y33.4228 Z-5.0000 F0.0000 S0.0
G1 X70.3370 Y33.6668 Z-5.0000 F0.0000 S0.0
G1 X70.2739 Y33.8875 Z-5.0000 F0.0000 S0.0
G1 X70.1927 Y34.0850 Z-5.0000 F0.0000 S0.0
G1 X70.0936 Y34.2593 Z-5.0000 F0.0000 S0.0
G1 X69.9764 Y34.4103 Z-5.0000 F0.0000 S0.0
G1 X69.8412 Y34.5381 Z-5.0000 F0.0000 S0.0
G1 X69.6879 Y34.6427 Z-5.0000 F0.0000 S0.0
G1 X69.5167 Y34.7240 Z-5.0000 F0.0000 S0.0
G1 X69.3274 Y34.7821 Z-5.0000 F0.0000 S0.0
G1 X69.1201 Y34.8170 Z-5.0000 F0.0000 S0.0
G1 X68.8947 Y34.8286 Z-5.0000 F0.0000 S0.0
G1 X68.6181 Y34.8158 Z-5.0000 F0.0000 S0.0
G1 X68.3637 Y34.7773 Z-5.0000 F0.0000 S0.0
G1 X68.1315 Y34.7133 Z-5.0000 F0.0000 S0.0
G1 X67.9215 Y34.6236 Z-5.0000 F0.0000 S0.0
G1 X67.7337 Y34.5083 Z-5.0000 F0.0000 S0.0
G1 X67.5681 Y34.3673 Z-5.0000 F0.0000 S0.0
G1 X67.4248 Y34.2008 Z-5.0000 F0.0000 S0.0
G1 X67.3037 Y34.0086 Z-5.0000 F0.0000 S0.0
G1 X67.2047 Y33.7908 Z-5.0000 F0.0000 S0.0
G1 X67.1280 Y33.5474 Z-5.0000 F0.0000 S0.0
G1 X67.0736 Y33.2783 Z-5.0000 F0.0000 S0.0
G1 X67.0413 Y32.9836 Z-5.0000 F0.0000 S0.0
G1 X67.0413 Y17.5300 Z-5.0000 F0.0000 S0.0
G1 X64.4262 Y17.5300 Z-5.0000 F0.0000 S0.0
G1 X64.4262 Y32.8821 Z-5.0000 F0.0000 S0.0
G1 X64.4173 Y33.1700 Z-5.0000 F0.0000 S0.0
G1 X64.3907 Y33.4349 Z-5.0000 F0.0000 S0.0
G1 X64.3464 Y33.6768 Z-5.0000 F0.0000 S0.0
G1 X64.2844 Y33.8956 Z-5.0000 F0.0000 S0.0
G1 X64.2046 Y34.0914 Z-5.0000 F0.0000 S0.0
G1 X64.1071 Y34.2642 Z-5.0000 F0.0000 S0.0
G1 X63.9919 Y34.4139 Z-5.0000 F0.0000 S0.0
G1 X63.8589 Y34.5406 Z-5.0000 F0.0000 S0.0
G1 X63.7082 Y34.6443 Z-5.0000 F0.0000 S0.0
G1 X63.5398 Y34.7249 Z-5.0000 F0.0000 S0.0
G1 X63.3537 Y34.7825 Z-5.0000 F0.0000 S0.0
G1 X63.1498 Y34.8171 Z-5.0000 F0.0000 S0.0
G1 X62.9282 Y34.8286 Z-5.0000 F0.0000 S0.0
G1 X62.6759 Y34.8163 Z-5.0000 F0.0000 S0.0
G1 X62.4412 Y34.7795 Z-5.0000 F0.0000 S0.0
G1 X62.2241 Y34.7182 Z-5.0000 F0.0000 S0.0
G1 X62.0246 Y34.6324 Z-5.0000 F0.0000 S0.0
G1 X61.8427 Y34.5220 Z-5.0000 F0.0000 S0.0
G1 X61.6785 Y34.3871 Z-5.0000 F0.0000 S0.0
G1 X61.5318 Y34.2277 Z-5.0000 F0.0000 S0.0
G1 X61.3582 Y33.9697 Z-5.0000 F0.0000 S0.0
G1 X61.2231 Y33.6766 Z-5.0000 F0.0000 S0.0
G1 X61.1266 Y33.3482 Z-5.0000 F0.0000 S0.0
G1 X61.0687 Y32.9846 Z-5.0000 F0.0000 S0.0
G1 X61.0494 Y32.5859 Z-5.0000 F0.0000 S0.0
G1 X61.0494 Y17.5300 Z-5.0000 F0.0000 S0.0
G1 X58.4513 Y17.5300 Z-5.0000 F0.0000 S0.0
G1 X58.4513 Y37.0290 Z-5.0000 F0.0000 S0.0
G1 X61.0494 Y37.0290 Z-5.0000 F0.0000 S0.0
G1 X61.0494 Y34.8540 Z-5.0000 F0.0000 S0.0
G1 X61.1784 Y35.2196 Z-5.0000 F0.0000 S0.0
G1 X61.3487 Y35.5581 Z-5.0000 F0.0000 S0.0
G1 X61.5603 Y35.8695 Z-5.0000 F0.0000 S0.0
G1 X61.8131 Y36.1539 Z-5.0000 F0.0000 S0.0
G1 X62.1073 Y36.4112 Z-5.0000 F0.0000 S0.0
G0 Z5.0000
G0 Z5.0000
G0 X77.8656 Y35.9119
G0 Z3.0000
G1 X77.8656 Y35.9119 Z-5.0000 F0.0000 S0.0
G1 X78.2309 Y36.2532 Z-5.0000 F0.0000 S0.0
G1 X78.6499 Y36.5325 Z-5.0000 F0.0000 S0.0
G1 X79.1224 Y36.7497 Z-5.0000 F0.0000 S0.0
G1 X79.6485 Y36.9049 Z-5.0000 F0.0000 S0.0
G1 X80.2282 Y36.9980 Z-5.0000 F0.0000 S0.0
G1 X80.8615 Y37.0290 Z-5.0000 F0.0000 S0.0
G1 X81.4140 Y37.0044 Z-5.0000 F0.0000 S0.0
G1 X81.9238 Y36.9308 Z-5.0000 F0.0000 S0.0
G1 X82.3910 Y36.8081 Z-5.0000 F0.0000 S0.0
G1 X82.8155 Y36.6363 Z-5.0000 F0.0000 S0.0
G1 X83.1974 Y36.4154 Z-5.0000 F0.0000 S0.0
G1 X83.5366 Y36.1454 Z-5.0000 F0.0000 S0.0
G1 X83.8331 Y35.8264 Z-5.0000 F0.0000 S0.0
G1 X84.0870 Y35.4582 Z-5.0000 F0.0000 S0.0
G1 X84.2982 Y35.0410 Z-5.0000 F0.0000 S0.0
G1 X84.4668 Y34.5747 Z-5.0000 F0.0000 S0.0
G1 X84.6445 Y33.8241 Z-5.0000 F0.0000 S0.0
G1 X84.7715 Y32.9519 Z-5.0000 F0.0000 S0.0
G1 X84.8477 Y31.9580 Z-5.0000 F0.0000 S0.0
G1 X84.8731 Y30.8425 Z-5.0000 F0.0000 S0.0
G1 X84.8731 Y27.2795 Z-5.0000 F0.0000 S0.0
G1 X79.1858 Y27.2795 Z-5.0000 F0.0000 S0.0
G1 X79.1858 Y23.4542 Z-5.0000 F0.0000 S0.0
G1 X79.1919 Y22.8594 Z-5.0000 F0.0000 S0.0
G1 X79.2102 Y22.3233 Z-5.0000 F0.0000 S0.0
G1 X79.2406 Y21.8459 Z-5.0000 F0.0000 S0.0
G1 X79.2832 Y21.4273 Z-5.0000 F0.0000 S0.0
G1 X79.3379 Y21.0673 Z-5.0000 F0.0000 S0.0
G1 X79.4048 Y20.7661 Z-5.0000 F0.0000 S0.0
G1 X79.4839 Y20.5236 Z-5.0000 F0.0000 S0.0
G1 X79.5752 Y20.3397 Z-5.0000 F0.0000 S0.0
G1 X79.6980 Y20.1781 Z-5.0000 F0.0000 S0.0
G1 X79.8391 Y20.0413 Z-5.0000 F0.0000 S0.0
G1 X79.9985 Y19.9294 Z-5.0000 F0.0000 S0.0
G1 X80.1762 Y19.8423 Z-5.0000 F0.0000 S0.0
G1 X80.3722 Y19.7801 Z-5.0000 F0.0000 S0.0
G1 X80.5866 Y19.7428 Z-5.0000 F0.0000 S0.0
G1 X80.8192 Y19.7304 Z-5.0000 F0.0000 S0.0
G1 X81.0022 Y19.7392 Z-5.0000 F0.0000 S0.0
G1 X81.1711 Y19.7655 Z-5.0000 F0.0000 S0.0
G1 X81.3261 Y19.8094 Z-5.0000 F0.0000 S0.0
G1 X81.4670 Y19.8708 Z-5.0000 F0.0000 S0.0
G1 X81.5940 Y19.9498 Z-5.0000 F0.0000 S0.0
G1 X81.7069 Y20.0464 Z-5.0000 F0.0000 S0.0
G1 X81.8059 Y20.1605 Z-5.0000 F0.0000 S0.0
G1 X81.8908 Y20.2921 Z-5.0000 F0.0000 S0.0
G1 X81.9617 Y20.4413 Z-5.0000 F0.0000 S0.0
G1 X82.1225 Y20.9340 Z-5.0000 F0.0000 S0.0
G1 X82.2213 Y21.4531 Z-5.0000 F0.0000 S0.0
G1 X82.2580 Y21.9985 Z-5.0000 F0.0000 S0.0
G1 X82.2674 Y22.5279 Z-5.0000 F0.0000 S0.0
G1 X82.2730 Y22.9990 Z-5.0000 F0.0000 S0.0
G1 X82.2749 Y23.4119 Z-5.0000 F0.0000 S0.0
G1 X82.2749 Y24.9606 Z-5.0000 F0.0000 S0.0
G1 X84.8223 Y24.9606 Z-5.0000 F0.0000 S0.0
G1 X84.8223 Y24.1397 Z-5.0000 F0.0000 S0.0
G1 X84.8105 Y23.1695 Z-5.0000 F0.0000 S0.0
G1 X84.7753 Y22.3013 Z-5.0000 F0.0000 S0.0
G1 X84.7165 Y21.5352 Z-5.0000 F0.0000 S0.0
G1 X84.6342 Y20.8710 Z-5.0000 F0.0000 S0.0
G1 X84.5284 Y20.3090 Z-5.0000 F0.0000 S0.0
G1 X84.3991 Y19.8489 Z-5.0000 F0.0000 S0.0
G1 X84.2123 Y19.3851 Z-5.0000 F0.0000 S0.0
G1 X83.9902 Y18.9755 Z-5.0000 F0.0000 S0.0
G1 X83.7329 Y18.6200 Z-5.0000 F0.0000 S0.0
G1 X83.4404 Y18.3188 Z-5.0000 F0.0000 S0.0
G1 X83.1127 Y18.0716 Z-5.0000 F0.0000 S0.0
G1 X82.6552 Y17.8347 Z-5.0000 F0.0000 S0.0
G1 X82.1458 Y17.6654 Z-5.0000 F0.0000 S0.0
G1 X81.5846 Y17.5639 Z-5.0000 F0.0000 S0.0
G1 X80.9716 Y17.5300 Z-5.0000 F0.0000 S0.0
G1 X80.3643 Y17.5501 Z-5.0000 F0.0000 S0.0
G1 X79.8206 Y17.6104 Z-5.0000 F0.0000 S0.0
G1 X79.3403 Y17.7109 Z-5.0000 F0.0000 S0.0
G1 X78.9235 Y17.8516 Z-5.0000 F0.0000 S0.0
G1 X78.5617 Y18.0293 Z-5.0000 F0.0000 S0.0
G1 X78.2380 Y18.2324 Z-5.0000 F0.0000 S0.0
G1 X77.9524 Y18.4609 Z-5.0000 F0.0000 S0.0
G1 X77.7048 Y18.7148 Z-5.0000 F0.0000 S0.0
G1 X77.5295 Y18.9535 Z-5.0000 F0.0000 S0.0
G1 X77.3622 Y19.2429 Z-5.0000 F0.0000 S0.0
G1 X77.2031 Y19.5831 Z-5.0000 F0.0000 S0.0
G1 X77.0521 Y19.9741 Z-5.0000 F0.0000 S0.0
G1 X76.9093 Y20.4159 Z-5.0000 F0.0000 S0.0
G1 X76.7874 Y20.9400 Z-5.0000 F0.0000 S0.0
G1 X76.6926 Y21.5777 Z-5.0000 F0.0000 S0.0
G1 X76.6249 Y22.3293 Z-5.0000 F0.0000 S0.0
G1 X76.5843 Y23.1945 Z-5.0000 F0.0000 S0.0
G1 X76.5708 Y24.1735 Z-5.0000 F0.0000 S0.0
G1 X76.5708 Y30.9017 Z-5.0000 F0.0000 S0.0
G1 X76.5972 Y31.8869 Z-5.0000 F0.0000 S0.0
G1 X76.6765 Y32.7822 Z-5.0000 F0.0000 S0.0
G1 X76.8086 Y33.5878 Z-5.0000 F0.0000 S0.0
G1 X76.9936 Y34.3035 Z-5.0000 F0.0000 S0.0
G1 X77.2314 Y34.9294 Z-5.0000 F0.0000 S0.0
G1 X77.5221 Y35.4656 Z-5.0000 F0.0000 S0.0
G1 X77.8656 Y35.9119 Z-5.0000 F0.0000 S0.0
G0 Z5.0000
G0 Z5.0000
G0 X82.1225 Y33.7707
G0 Z3.0000
G1 X82.1225 Y33.7707 Z-5.0000 F0.0000 S0.0
G1 X82.1545 Y33.6586 Z-5.0000 F0.0000 S0.0
G1 X82.1827 Y33.5066 Z-5.0000 F0.0000 S0.0
G1 X82.2072 Y33.3146 Z-5.0000 F0.0000 S0.0
G1 X82.2279 Y33.0828 Z-5.0000 F0.0000 S0.0
G1 X82.2448 Y32.8110 Z-5.0000 F0.0000 S0.0
G1 X82.2580 Y32.4993 Z-5.0000 F0.0000 S0.0
G1 X82.2674 Y32.1478 Z-5.0000 F0.0000 S0.0
G1 X82.2730 Y31.7563 Z-5.0000 F0.0000 S0.0
G1 X82.2749 Y31.3249 Z-5.0000 F0.0000 S0.0
G1 X82.2749 Y28.9044 Z-5.0000 F0.0000 S0.0
G1 X79.1774 Y28.9044 Z-5.0000 F0.0000 S0.0
G1 X79.1774 Y31.2402 Z-5.0000 F0.0000 S0.0
G1 X79.1964 Y32.0331 Z-5.0000 F0.0000 S0.0
G1 X79.2536 Y32.7361 Z-5.0000 F0.0000 S0.0
G1 X79.3488 Y33.3491 Z-5.0000 F0.0000 S0.0
G1 X79.4821 Y33.8722 Z-5.0000 F0.0000 S0.0
G1 X79.5514 Y34.0540 Z-5.0000 F0.0000 S0.0
G1 X79.6374 Y34.2165 Z-5.0000 F0.0000 S0.0
G1 X79.7403 Y34.3600 Z-5.0000 F0.0000 S0.0
G1 X79.8599 Y34.4843 Z-5.0000 F0.0000 S0.0
G1 X79.9962 Y34.5895 Z-5.0000 F0.0000 S0.0
G1 X80.1493 Y34.6756 Z-5.0000 F0.0000 S0.0
G1 X80.3191 Y34.7425 Z-5.0000 F0.0000 S0.0
G1 X80.5058 Y34.7903 Z-5.0000 F0.0000 S0.0
G1 X80.7091 Y34.8190 Z-5.0000 F0.0000 S0.0
G1 X80.9292 Y34.8286 Z-5.0000 F0.0000 S0.0
G1 X81.0911 Y34.8220 Z-5.0000 F0.0000 S0.0
G1 X81.2381 Y34.8023 Z-5.0000 F0.0000 S0.0
G1 X81.3702 Y34.7695 Z-5.0000 F0.0000 S0.0
G1 X81.4875 Y34.7236 Z-5.0000 F0.0000 S0.0
G1 X81.5899 Y34.6645 Z-5.0000 F0.0000 S0.0
G1 X81.6775 Y34.5923 Z-5.0000 F0.0000 S0.0
G1 X81.7502 Y34.5070 Z-5.0000 F0.0000 S0.0
G1 X81.8931 Y34.2860 Z-5.0000 F0.0000 S0.0
G1 X82.0172 Y34.0406 Z-5.0000 F0.0000 S0.0
G1 X82.1225 Y33.7707 Z-5.0000 F0.0000 S0.0
G0 Z5.0000
G0 Z5.0000
G0 X94.1401 Y35.3871
G0 Z3.0000
G1 X94.1401 Y35.3871 Z-5.0000 F0.0000 S0.0
G1 X94.1317 Y34.8286 Z-5.0000 F0.0000 S0.0
G1 X93.5807 Y34.8029 Z-5.0000 F0.0000 S0.0
G1 X93.0701 Y34.7260 Z-5.0000 F0.0000 S0.0
G1 X92.6000 Y34.5977 Z-5.0000 F0.0000 S0.0
G1 X92.1704 Y34.4181 Z-5.0000 F0.0000 S0.0
G1 X91.7812 Y34.1872 Z-5.0000 F0.0000 S0.0
G1 X91.4325 Y33.9050 Z-5.0000 F0.0000 S0.0
G1 X91.1242 Y33.5715 Z-5.0000 F0.0000 S0.0
G1 X90.8565 Y33.1867 Z-5.0000 F0.0000 S0.0
G1 X90.8565 Y17.5300 Z-5.0000 F0.0000 S0.0
G1 X88.2414 Y17.5300 Z-5.0000 F0.0000 S0.0
G1 X88.2414 Y37.0290 Z-5.0000 F0.0000 S0.0
G1 X90.8565 Y37.0290 Z-5.0000 F0.0000 S0.0
G1 X90.8565 Y34.6509 Z-5.0000 F0.0000 S0.0
G1 X91.0085 Y35.0838 Z-5.0000 F0.0000 S0.0
G1 X91.2004 Y35.4755 Z-5.0000 F0.0000 S0.0
G1 X91.4323 Y35.8259 Z-5.0000 F0.0000 S0.0
G1 X91.7041 Y36.1349 Z-5.0000 F0.0000 S0.0
G1 X92.0159 Y36.4027 Z-5.0000 F0.0000 S0.0
G1 X92.3643 Y36.6282 Z-5.0000 F0.0000 S0.0
G1 X92.7458 Y36.8035 Z-5.0000 F0.0000 S0.0
G1 X93.1605 Y36.9288 Z-5.0000 F0.0000 S0.0
G1 X93.6083 Y37.0039 Z-5.0000 F0.0000 S0.0
G1 X94.0894 Y37.0290 Z-5.0000 F0.0000 S0.0
G1 X94.0969 Y37.0193 Z-5.0000 F0.0000 S0.0
G1 X94.1038 Y36.9901 Z-5.0000 F0.0000 S0.0
G1 X94.1101 Y36.9415 Z-5.0000 F0.0000 S0.0
G1 X94.1158 Y36.8735 Z-5.0000 F0.0000 S0.0
G1 X94.1209 Y36.7861 Z-5.0000 F0.0000 S0.0
G1 X94.1254 Y36.6792 Z-5.0000 F0.0000 S0.0
G1 X94.1293 Y36.5529 Z-5.0000 F0.0000 S0.0
G1 X94.1326 Y36.4072 Z-5.0000 F0.0000 S0.0
G1 X94.1353 Y36.2421 Z-5.0000 F0.0000 S0.0
G1 X94.1374 Y36.0575 Z-5.0000 F0.0000 S0.0
G1 X94.1389 Y35.8535 Z-5.0000 F0.0000 S0.0
G1 X94.1398 Y35.6300 Z-5.0000 F0.0000 S0.0
G1 X94.1401 Y35.3871 Z-5.0000 F0.0000 S0.0
G0 Z5.0000
G0 Z5.0000
G0 X115.6195 Y40.2788
G0 Z3.0000
G1 X115.6195 Y40.2788 Z-5.0000 F0.0000 S0.0
G1 X115.6195 Y17.5300 Z-5.0000 F0.0000 S0.0
G1 X113.2837 Y17.5300 Z-5.0000 F0.0000 S0.0
G1 X113.2837 Y26.5940 Z-5.0000 F0.0000 S0.0
G1 X113.5037 Y35.0486 Z-5.0000 F0.0000 S0.0
G1 X110.4655 Y17.5300 Z-5.0000 F0.0000 S0.0
G1 X108.0958 Y17.5300 Z-5.0000 F0.0000 S0.0
G1 X104.9306 Y35.0486 Z-5.0000 F0.0000 S0.0
G1 X105.1506 Y26.5940 Z-5.0000 F0.0000 S0.0
G1 X105.1506 Y17.5300 Z-5.0000 F0.0000 S0.0
G1 X102.8233 Y17.5300 Z-5.0000 F0.0000 S0.0
G1 X102.8233 Y40.2788 Z-5.0000 F0.0000 S0.0
G1 X106.0985 Y40.2788 Z-5.0000 F0.0000 S0.0
G1 X109.2976 Y21.5500 Z-5.0000 F0.0000 S0.0
G1 X112.3358 Y40.2788 Z-5.0000 F0.0000 S0.0
G1 X115.6195 Y40.2788 Z-5.0000 F0.0000 S0.0
G0 Z5.0000
G0 Z5.0000
G0 X120.1642 Y35.8865
G0 Z3.0000
G1 X120.1642 Y35.8865 Z-5.0000 F0.0000 S0.0
G1 X120.5504 Y36.2356 Z-5.0000 F0.0000 S0.0
G1 X120.9870 Y36.5212 Z-5.0000 F0.0000 S0.0
G1 X121.4738 Y36.7434 Z-5.0000 F0.0000 S0.0
G1 X122.0110 Y36.9020 Z-5.0000 F0.0000 S0.0
G1 X122.5985 Y36.9972 Z-5.0000 F0.0000 S0.0
G1 X123.2363 Y37.0290 Z-5.0000 F0.0000 S0.0
G1 X123.7843 Y37.0089 Z-5.0000 F0.0000 S0.0
G1 X124.2871 Y36.9488 Z-5.0000 F0.0000 S0.0
G1 X124.7446 Y36.8487 Z-5.0000 F0.0000 S0.0
G1 X125.1569 Y36.7084 Z-5.0000 F0.0000 S0.0
G1 X125.5239 Y36.5281 Z-5.0000 F0.0000 S0.0
G1 X125.8457 Y36.3077 Z-5.0000 F0.0000 S0.0
G1 X126.1222 Y36.0473 Z-5.0000 F0.0000 S0.0
G1 X126.4020 Y35.6899 Z-5.0000 F0.0000 S0.0
G1 X126.6432 Y35.2668 Z-5.0000 F0.0000 S0.0
G1 X126.8458 Y34.7778 Z-5.0000 F0.0000 S0.0
G1 X127.0099 Y34.2230 Z-5.0000 F0.0000 S0.0
G1 X127.1354 Y33.6024 Z-5.0000 F0.0000 S0.0
G1 X127.2224 Y32.9159 Z-5.0000 F0.0000 S0.0
G1 X127.2741 Y32.2539 Z-5.0000 F0.0000 S0.0
G1 X127.3052 Y31.4979 Z-5.0000 F0.0000 S0.0
G1 X127.3155 Y30.6478 Z-5.0000 F0.0000 S0.0
G1 X127.3155 Y17.5300 Z-5.0000 F0.0000 S0.0
G1 X124.7004 Y17.5300 Z-5.0000 F0.0000 S0.0
G1 X124.7004 Y19.3834 Z-5.0000 F0.0000 S0.0
G1 X124.5999 Y19.1075 Z-5.0000 F0.0000 S0.0
G1 X124.4607 Y18.8418 Z-5.0000 F0.0000 S0.0
G1 X124.2830 Y18.5862 Z-5.0000 F0.0000 S0.0
G1 X124.0667 Y18.3408 Z-5.0000 F0.0000 S0.0
G1 X123.8118 Y18.1055 Z-5.0000 F0.0000 S0.0
G1 X123.5244 Y17.8983 Z-5.0000 F0.0000 S0.0
G1 X123.2106 Y17.7372 Z-5.0000 F0.0000 S0.0
G1 X122.8703 Y17.6221 Z-5.0000 F0.0000 S0.0
G1 X122.5037 Y17.5530 Z-5.0000 F0.0000 S0.0
G1 X122.1107 Y17.5300 Z-5.0000 F0.0000 S0.0
G1 X121.6311 Y17.5600 Z-5.0000 F0.0000 S0.0
G1 X121.1895 Y17.6502 Z-5.0000 F0.0000 S0.0
G1 X120.7859 Y17.8004 Z-5.0000 F0.0000 S0.0
G1 X120.4205 Y18.0107 Z-5.0000 F0.0000 S0.0
G1 X120.0931 Y18.2812 Z-5.0000 F0.0000 S0.0
G1 X119.8037 Y18.6117 Z-5.0000 F0.0000 S0.0
G1 X119.5524 Y19.0023 Z-5.0000 F0.0000 S0.0
G1 X119.3392 Y19.4530 Z-5.0000 F0.0000 S0.0
G1 X119.1640 Y19.9638 Z-5.0000 F0.0000 S0.0
G1 X119.0269 Y20.5347 Z-5.0000 F0.0000 S0.0
G1 X118.9279 Y21.1656 Z-5.0000 F0.0000 S0.0
G1 X118.8669 Y21.8567 Z-5.0000 F0.0000 S0.0
G1 X118.8439 Y22.6079 Z-5.0000 F0.0000 S0.0
G1 X118.8439 Y24.4697 Z-5.0000 F0.0000 S0.0
G1 X118.8798 Y25.1075 Z-5.0000 F0.0000 S0.0
G1 X118.9875 Y25.7074 Z-5.0000 F0.0000 S0.0
G1 X119.1669 Y26.2693 Z-5.0000 F0.0000 S0.0
G1 X119.4181 Y26.7934 Z-5.0000 F0.0000 S0.0
G1 X119.7410 Y27.2795 Z-5.0000 F0.0000 S0.0
G1 X120.0145 Y27.5765 Z-5.0000 F0.0000 S0.0
G1 X120.3863 Y27.8835 Z-5.0000 F0.0000 S0.0
G1 X120.8566 Y28.2006 Z-5.0000 F0.0000 S0.0
G1 X121.4252 Y28.5278 Z-5.0000 F0.0000 S0.0
G1 X122.0922 Y28.8650 Z-5.0000 F0.0000 S0.0
G1 X122.8576 Y29.2123 Z-5.0000 F0.0000 S0.0
G1 X123.7213 Y29.5696 Z-5.0000 F0.0000 S0.0
G1 X124.6835 Y29.9369 Z-5.0000 F0.0000 S0.0
G1 X124.6835 Y31.4010 Z-5.0000 F0.0000 S0.0
G1 X124.6791 Y31.9204 Z-5.0000 F0.0000 S0.0
G1 X124.6659 Y32.3915 Z-5.0000 F0.0000 S0.0
G1 X124.6440 Y32.8144 Z-5.0000 F0.0000 S0.0
G1 X124.6133 Y33.1889 Z-5.0000 F0.0000 S0.0
G1 X124.5738 Y33.5152 Z-5.0000 F0.0000 S0.0
G1 X124.5255 Y33.7933 Z-5.0000 F0.0000 S0.0
G1 X124.4685 Y34.0230 Z-5.0000 F0.0000 S0.0
G1 X124.4026 Y34.2045 Z-5.0000 F0.0000 S0.0
G1 X124.3280 Y34.3377 Z-5.0000 F0.0000 S0.0
G1 X124.2163 Y34.4679 Z-5.0000 F0.0000 S0.0
G1 X124.0842 Y34.5781 Z-5.0000 F0.0000 S0.0
G1 X123.9316 Y34.6683 Z-5.0000 F0.0000 S0.0
G1 X123.7588 Y34.7384 Z-5.0000 F0.0000 S0.0
G1 X123.5655 Y34.7885 Z-5.0000 F0.0000 S0.0
G1 X123.3518 Y34.8186 Z-5.0000 F0.0000 S0.0
G1 X123.1178 Y34.8286 Z-5.0000 F0.0000 S0.0
G1 X122.9348 Y34.8194 Z-5.0000 F0.0000 S0.0
G1 X122.7655 Y34.7918 Z-5.0000 F0.0000 S0.0
G1 X122.6100 Y34.7458 Z-5.0000 F0.0000 S0.0
G1 X122.4683 Y34.6815 Z-5.0000 F0.0000 S0.0
G1 X122.3405 Y34.5987 Z-5.0000 F0.0000 S0.0
G1 X122.2264 Y34.4976 Z-5.0000 F0.0000 S0.0
G1 X122.1261 Y34.3780 Z-5.0000 F0.0000 S0.0
G1 X122.0395 Y34.2401 Z-5.0000 F0.0000 S0.0
G1 X121.9668 Y34.0838 Z-5.0000 F0.0000 S0.0
G1 X121.8789 Y33.8024 Z-5.0000 F0.0000 S0.0
G1 X121.8070 Y33.4547 Z-5.0000 F0.0000 S0.0
G1 X121.7510 Y33.0407 Z-5.0000 F0.0000 S0.0
G1 X121.7111 Y32.5605 Z-5.0000 F0.0000 S0.0
G1 X121.6871 Y32.0139 Z-5.0000 F0.0000 S0.0
G1 X121.6791 Y31.4010 Z-5.0000 F0.0000 S0.0
G1 X121.6791 Y30.7409 Z-5.0000 F0.0000 S0.0
G1 X119.0894 Y30.7409 Z-5.0000 F0.0000 S0.0
G1 X119.0894 Y31.2910 Z-5.0000 F0.0000 S0.0
G1 X119.1113 Y32.2304 Z-5.0000 F0.0000 S0.0
G1 X119.1771 Y33.0755 Z-5.0000 F0.0000 S0.0
G1 X119.2868 Y33.8263 Z-5.0000 F0.0000 S0.0
G1 X119.4403 Y34.4828 Z-5.0000 F0.0000 S0.0
G1 X119.6377 Y35.0450 Z-5.0000 F0.0000 S0.0
G1 X119.8790 Y35.5129 Z-5.0000 F0.0000 S0.0
G1 X120.1642 Y35.8865 Z-5.0000 F0.0000 S0.0
G0 Z5.0000
G0 Z5.0000
G0 X122.5508 Y27.1356
G0 Z3.0000
G1 X122.5508 Y27.1356 Z-5.0000 F0.0000 S0.0
G1 X122.7581 Y27.2771 Z-5.0000 F0.0000 S0.0
G1 X123.0247 Y27.4365 Z-5.0000 F0.0000 S0.0
G1 X123.3505 Y27.6138 Z-5.0000 F0.0000 S0.0
G1 X123.7356 Y27.8089 Z-5.0000 F0.0000 S0.0
G1 X124.1799 Y28.0219 Z-5.0000 F0.0000 S0.0
G1 X124.6835 Y28.2527 Z-5.0000 F0.0000 S0.0
G1 X124.6835 Y21.0337 Z-5.0000 F0.0000 S0.0
G1 X124.5703 Y20.7968 Z-5.0000 F0.0000 S0.0
G1 X124.4169 Y20.5683 Z-5.0000 F0.0000 S0.0
G1 X124.2233 Y20.3482 Z-5.0000 F0.0000 S0.0
G1 X123.9895 Y20.1366 Z-5.0000 F0.0000 S0.0
G1 X123.7783 Y19.9904 Z-5.0000 F0.0000 S0.0
G1 X123.5508 Y19.8766 Z-5.0000 F0.0000 S0.0
G1 X123.3070 Y19.7954 Z-5.0000 F0.0000 S0.0
G1 X123.0471 Y19.7467 Z-5.0000 F0.0000 S0.0
G1 X122.7708 Y19.7304 Z-5.0000 F0.0000 S0.0
G1 X122.6180 Y19.7388 Z-5.0000 F0.0000 S0.0
G1 X122.4753 Y19.7638 Z-5.0000 F0.0000 S0.0
G1 X122.3430 Y19.8056 Z-5.0000 F0.0000 S0.0
G1 X122.2208 Y19.8641 Z-5.0000 F0.0000 S0.0
G1 X122.1089 Y19.9394 Z-5.0000 F0.0000 S0.0
G1 X122.0073 Y20.0313 Z-5.0000 F0.0000 S0.0
G1 X121.9158 Y20.1400 Z-5.0000 F0.0000 S0.0
G1 X121.8347 Y20.2654 Z-5.0000 F0.0000 S0.0
G1 X121.7637 Y20.4075 Z-5.0000 F0.0000 S0.0
G1 X121.6758 Y20.6604 Z-5.0000 F0.0000 S0.0
G1 X121.6039 Y20.9679 Z-5.0000 F0.0000 S0.0
G1 X121.5479 Y21.3299 Z-5.0000 F0.0000 S0.0
G1 X121.5079 Y21.7465 Z-5.0000 F0.0000 S0.0
G1 X121.4840 Y22.2176 Z-5.0000 F0.0000 S0.0
G1 X121.4760 Y22.7433 Z-5.0000 F0.0000 S0.0
G1 X121.4760 Y24.4951 Z-5.0000 F0.0000 S0.0
G1 X121.4835 Y24.8769 Z-5.0000 F0.0000 S0.0
G1 X121.5061 Y25.2211 Z-5.0000 F0.0000 S0.0
G1 X121.5437 Y25.5276 Z-5.0000 F0.0000 S0.0
G1 X121.5963 Y25.7966 Z-5.0000 F0.0000 S0.0
G1 X121.6640 Y26.0279 Z-5.0000 F0.0000 S0.0
G1 X121.7468 Y26.2216 Z-5.0000 F0.0000 S0.0
G1 X121.8986 Y26.4755 Z-5.0000 F0.0000 S0.0
G1 X122.0832 Y26.7125 Z-5.0000 F0.0000 S0.0
G1 X122.3006 Y26.9325 Z-5.0000 F0.0000 S0.0
G1 X122.5508 Y27.1356 Z-5.0000 F0.0000 S0.0
G0 Z5.0000
G0 Z5.0000
G0 X134.0860 Y40.2788
G0 Z3.0000
G1 X134.0860 Y40.2788 Z-5.0000 F0.0000 S0.0
G1 X134.0860 Y37.0290 Z-5.0000 F0.0000 S0.0
G1 X136.1425 Y37.0290 Z-5.0000 F0.0000 S0.0
G1 X136.1425 Y34.8286 Z-5.0000 F0.0000 S0.0
G1 X134.0860 Y34.8286 Z-5.0000 F0.0000 S0.0
G1 X134.0860 Y20.8391 Z-5.0000 F0.0000 S0.0
G1 X134.0902 Y20.6822 Z-5.0000 F0.0000 S0.0
G1 X134.1027 Y20.5390 Z-5.0000 F0.0000 S0.0
G1 X134.1236 Y20.4093 Z-5.0000 F0.0000 S0.0
G1 X134.1529 Y20.2933 Z-5.0000 F0.0000 S0.0
G1 X134.1905 Y20.1908 Z-5.0000 F0.0000 S0.0
G1 X134.2364 Y20.1018 Z-5.0000 F0.0000 S0.0
G1 X134.2908 Y20.0265 Z-5.0000 F0.0000 S0.0
G1 X134.3535 Y19.9648 Z-5.0000 F0.0000 S0.0
G1 X134.4245 Y19.9166 Z-5.0000 F0.0000 S0.0
G1 X134.5277 Y19.8730 Z-5.0000 F0.0000 S0.0
G1 X134.6636 Y19.8351 Z-5.0000 F0.0000 S0.0
G1 X134.8323 Y19.8031 Z-5.0000 F0.0000 S0.0
G1 X135.0339 Y19.7770 Z-5.0000 F0.0000 S0.0
G1 X135.2682 Y19.7566 Z-5.0000 F0.0000 S0.0
G1 X135.5353 Y19.7420 Z-5.0000 F0.0000 S0.0
G1 X135.8352 Y19.7333 Z-5.0000 F0.0000 S0.0
G1 X136.1679 Y19.7304 Z-5.0000 F0.0000 S0.0
G1 X136.1679 Y17.5300 Z-5.0000 F0.0000 S0.0
G1 X134.3822 Y17.5300 Z-5.0000 F0.0000 S0.0
G1 X133.9511 Y17.5403 Z-5.0000 F0.0000 S0.0
G1 X133.5592 Y17.5713 Z-5.0000 F0.0000 S0.0
G1 X133.2064 Y17.6228 Z-5.0000 F0.0000 S0.0
G1 X132.8927 Y17.6950 Z-5.0000 F0.0000 S0.0
G1 X132.6182 Y17.7879 Z-5.0000 F0.0000 S0.0
G1 X132.3828 Y17.9013 Z-5.0000 F0.0000 S0.0
G1 X132.1865 Y18.0354 Z-5.0000 F0.0000 S0.0
G1 X132.0295 Y18.1901 Z-5.0000 F0.0000 S0.0
G1 X131.8640 Y18.4405 Z-5.0000 F0.0000 S0.0
G1 X131.7285 Y18.7459 Z-5.0000 F0.0000 S0.0
G1 X131.6232 Y19.1063 Z-5.0000 F0.0000 S0.0
G1 X131.5480 Y19.5216 Z-5.0000 F0.0000 S0.0
G1 X131.5029 Y19.9921 Z-5.0000 F0.0000 S0.0
G1 X131.4878 Y20.5175 Z-5.0000 F0.0000 S0.0
G1 X131.4878 Y34.8286 Z-5.0000 F0.0000 S0.0
G1 X129.7444 Y34.8286 Z-5.0000 F0.0000 S0.0
G1 X129.7444 Y37.0290 Z-5.0000 F0.0000 S0.0
G1 X131.4878 Y37.0290 Z-5.0000 F0.0000 S0.0
G1 X131.4878 Y40.2788 Z-5.0000 F0.0000 S0.0
G1 X134.0860 Y40.2788 Z-5.0000 F0.0000 S0.0
G0 Z5.0000
(finish operation: Engrave001)
(begin postamble)
M05
G17 G90
M2
