(Exported by FreeCAD)
(Post Processor: smoothie_post)
(Output Time:2021-02-04 16:19:42.033980)
(begin preamble)
G17 G90
G21
(begin operation: Fixture)
G54
(finish operation: Fixture)
(begin operation: TC: 6mm_drill)
(TC: 6mm_drill)
M6 T9.0
M3 S0.0
(finish operation: TC: 6mm_drill)
(begin operation: Drilling)
(Drilling)
(Begin Drilling)
G0 Z5.0000
G90
G99
G81 X20.0000 Y20.0000 Z-26.0000 F300.0000 R1.0000
G80
G0 Z3.0000
G81 X20.0000 Y80.0000 Z-26.0000 F300.0000 R1.0000
G80
G0 Z3.0000
G81 X20.0000 Y140.0000 Z-26.0000 F300.0000 R1.0000
G80
G0 Z3.0000
G81 X20.0000 Y200.0000 Z-26.0000 F300.0000 R1.0000
G80
G0 Z3.0000
G81 X20.0000 Y260.0000 Z-26.0000 F300.0000 R1.0000
G80
G0 Z3.0000
G81 X20.0000 Y320.0000 Z-26.0000 F300.0000 R1.0000
G80
G0 Z3.0000
G81 X20.0000 Y380.0000 Z-26.0000 F300.0000 R1.0000
G80
G0 Z3.0000
G81 X80.0000 Y380.0000 Z-26.0000 F300.0000 R1.0000
G80
G0 Z3.0000
G81 X80.0000 Y320.0000 Z-26.0000 F300.0000 R1.0000
G80
G0 Z3.0000
G81 X80.0000 Y260.0000 Z-26.0000 F300.0000 R1.0000
G80
G0 Z3.0000
G81 X80.0000 Y200.0000 Z-26.0000 F300.0000 R1.0000
G80
G0 Z3.0000
G81 X80.0000 Y140.0000 Z-26.0000 F300.0000 R1.0000
G80
G0 Z3.0000
G81 X80.0000 Y80.0000 Z-26.0000 F300.0000 R1.0000
G80
G0 Z3.0000
G81 X80.0000 Y20.0000 Z-26.0000 F300.0000 R1.0000
G80
G0 Z3.0000
G81 X140.0000 Y20.0000 Z-26.0000 F300.0000 R1.0000
G80
G0 Z3.0000
G81 X140.0000 Y80.0000 Z-26.0000 F300.0000 R1.0000
G80
G0 Z3.0000
G81 X140.0000 Y140.0000 Z-26.0000 F300.0000 R1.0000
G80
G0 Z3.0000
G81 X140.0000 Y200.0000 Z-26.0000 F300.0000 R1.0000
G80
G0 Z3.0000
G81 X140.0000 Y260.0000 Z-26.0000 F300.0000 R1.0000
G80
G0 Z3.0000
G81 X140.0000 Y320.0000 Z-26.0000 F300.0000 R1.0000
G80
G0 Z3.0000
G81 X140.0000 Y380.0000 Z-26.0000 F300.0000 R1.0000
G80
G0 Z3.0000
G81 X200.0000 Y380.0000 Z-26.0000 F300.0000 R1.0000
G80
G0 Z3.0000
G81 X200.0000 Y320.0000 Z-26.0000 F300.0000 R1.0000
G80
G0 Z3.0000
G81 X200.0000 Y260.0000 Z-26.0000 F300.0000 R1.0000
G80
G0 Z3.0000
G81 X200.0000 Y200.0000 Z-26.0000 F300.0000 R1.0000
G80
G0 Z3.0000
G81 X200.0000 Y140.0000 Z-26.0000 F300.0000 R1.0000
G80
G0 Z3.0000
G81 X200.0000 Y80.0000 Z-26.0000 F300.0000 R1.0000
G80
G0 Z3.0000
G81 X200.0000 Y20.0000 Z-26.0000 F300.0000 R1.0000
G80
G0 Z3.0000
G81 X260.0000 Y20.0000 Z-26.0000 F300.0000 R1.0000
G80
G0 Z3.0000
G81 X260.0000 Y80.0000 Z-26.0000 F300.0000 R1.0000
G80
G0 Z3.0000
G81 X260.0000 Y140.0000 Z-26.0000 F300.0000 R1.0000
G80
G0 Z3.0000
G81 X260.0000 Y200.0000 Z-26.0000 F300.0000 R1.0000
G80
G0 Z3.0000
G81 X260.0000 Y260.0000 Z-26.0000 F300.0000 R1.0000
G80
G0 Z3.0000
G81 X260.0000 Y320.0000 Z-26.0000 F300.0000 R1.0000
G80
G0 Z3.0000
G81 X260.0000 Y380.0000 Z-26.0000 F300.0000 R1.0000
G80
G0 Z3.0000
G81 X320.0000 Y380.0000 Z-26.0000 F300.0000 R1.0000
G80
G0 Z3.0000
G81 X320.0000 Y320.0000 Z-26.0000 F300.0000 R1.0000
G80
G0 Z3.0000
G81 X320.0000 Y260.0000 Z-26.0000 F300.0000 R1.0000
G80
G0 Z3.0000
G81 X320.0000 Y200.0000 Z-26.0000 F300.0000 R1.0000
G80
G0 Z3.0000
G81 X320.0000 Y140.0000 Z-26.0000 F300.0000 R1.0000
G80
G0 Z3.0000
G81 X320.0000 Y80.0000 Z-26.0000 F300.0000 R1.0000
G80
G0 Z3.0000
G81 X320.0000 Y20.0000 Z-26.0000 F300.0000 R1.0000
G80
G0 Z3.0000
G81 X380.0000 Y20.0000 Z-26.0000 F300.0000 R1.0000
G80
G0 Z3.0000
G81 X380.0000 Y80.0000 Z-26.0000 F300.0000 R1.0000
G80
G0 Z3.0000
G81 X380.0000 Y140.0000 Z-26.0000 F300.0000 R1.0000
G80
G0 Z3.0000
G81 X380.0000 Y200.0000 Z-26.0000 F300.0000 R1.0000
G80
G0 Z3.0000
G81 X380.0000 Y260.0000 Z-26.0000 F300.0000 R1.0000
G80
G0 Z3.0000
G81 X380.0000 Y320.0000 Z-26.0000 F300.0000 R1.0000
G80
G0 Z3.0000
G81 X380.0000 Y380.0000 Z-26.0000 F300.0000 R1.0000
G80
G0 Z3.0000
G0 Z5.0000
(finish operation: Drilling)
(begin postamble)
M05
G17 G90
M2
