(Exported by FreeCAD)
(Post Processor: smoothie_post)
(Output Time:2021-04-03 09:26:31.287324)
(begin preamble)
G90
G21
(begin operation: Fixture)
G54
(finish operation: Fixture)
(begin operation: TC: 5mm Endmill)
(TC: 5mm Endmill)
(finish operation: TC: 5mm Endmill)
(begin operation: DressupTag)
G0 Z5.0000
G0 X1.8787 Y1.8787 Z5.0000
G0 X1.8787 Y1.8787 Z3.0000
G1 X1.8787 Y1.8787 Z-2.0000 S0.0
G2 X1.0000 Y4.0000 Z-2.0000 I2.1213 J2.1213 S0.0
G1 X1.0000 Y26.1529 Z-2.0000 S0.0
G2 X3.7885 Y29.1455 Z-2.0000 I3.0000 J0.0000 S0.0
G1 X111.9898 Y36.7909 Z-2.0000 S0.0
G2 X177.6842 Y37.4146 Z-2.0000 I32.8766 J-2.7860 S0.0
G2 X144.9382 Y1.0010 Z-2.0000 I-32.8220 J-3.4146 S0.0
G1 X4.0000 Y1.0000 Z-2.0000 S0.0
G2 X1.8787 Y1.8787 Z-2.0000 I0.0000 J3.0000 S0.0
G1 X1.8787 Y1.8787 Z-4.0000 S0.0
G2 X1.0000 Y4.0000 Z-4.0000 I2.1213 J2.1213 S0.0
G1 X1.0000 Y26.1529 Z-4.0000 S0.0
G2 X3.7885 Y29.1455 Z-4.0000 I3.0000 J0.0000 S0.0
G1 X111.9898 Y36.7909 Z-4.0000 S0.0
G2 X177.6842 Y37.4146 Z-4.0000 I32.8766 J-2.7860 S0.0
G2 X144.9382 Y1.0010 Z-4.0000 I-32.8220 J-3.4146 S0.0
G1 X4.0000 Y1.0000 Z-4.0000 S0.0
G2 X1.8787 Y1.8787 Z-4.0000 I0.0000 J3.0000 S0.0
G1 X1.8787 Y1.8787 Z-6.0000 S0.0
G2 X1.0000 Y4.0000 Z-6.0000 I2.1213 J2.1213 S0.0
G1 X1.0000 Y26.1529 Z-6.0000 S0.0
G2 X3.7885 Y29.1455 Z-6.0000 I3.0000 J0.0000 S0.0
G1 X50.9066 Y32.4748 Z-6.0000 S0.0
G1 X52.4028 Y32.5805 Z-4.5000 S0.0
G1 X63.3755 Y33.3559 Z-4.5000 S0.0
G1 X64.8718 Y33.4616 Z-6.0000 S0.0
G1 X111.9898 Y36.7909 Z-6.0000 S0.0
G2 X137.6000 Y66.1893 Z-6.0000 I32.8766 J-2.7860 S0.0
G1 X139.0769 Y66.4874 Z-4.5000 S0.0
G2 X150.0382 Y66.5915 Z-4.5000 I5.7895 J-32.4825 S0.0
G1 X151.5204 Y66.3214 Z-6.0000 S0.0
G2 X177.6842 Y37.4146 Z-6.0000 I-6.6540 J-32.3165 S0.0
G2 X144.9382 Y1.0010 Z-6.0000 I-32.8220 J-3.4146 S0.0
G1 X116.7037 Y1.0008 Z-6.0000 S0.0
G1 X115.2037 Y1.0008 Z-4.5000 S0.0
G1 X104.2037 Y1.0007 Z-4.5000 S0.0
G1 X102.7037 Y1.0007 Z-6.0000 S0.0
G1 X46.2346 Y1.0003 Z-6.0000 S0.0
G1 X44.7346 Y1.0003 Z-4.5000 S0.0
G1 X33.7346 Y1.0002 Z-4.5000 S0.0
G1 X32.2346 Y1.0002 Z-6.0000 S0.0
G1 X4.0000 Y1.0000 Z-6.0000 S0.0
G2 X1.8787 Y1.8787 Z-6.0000 I0.0000 J3.0000 S0.0
G1 X1.8787 Y1.8787 Z-8.0000 S0.0
G2 X1.0000 Y4.0000 Z-8.0000 I2.1213 J2.1213 S0.0
G1 X1.0000 Y26.1529 Z-8.0000 S0.0
G2 X3.7885 Y29.1455 Z-8.0000 I3.0000 J0.0000 S0.0
G1 X48.9115 Y32.3338 Z-8.0000 S0.0
G1 X52.4028 Y32.5805 Z-4.5000 S0.0
G1 X63.3755 Y33.3559 Z-4.5000 S0.0
G1 X66.8668 Y33.6025 Z-8.0000 S0.0
G1 X111.9898 Y36.7909 Z-8.0000 S0.0
G2 X135.6493 Y65.6858 Z-8.0000 I32.8766 J-2.7860 S0.0
G1 X137.3563 Y66.1333 Z-6.2487 S0.0
G1 X139.0769 Y66.4874 Z-4.5000 S0.0
G2 X150.0382 Y66.5915 Z-4.5000 I5.7895 J-32.4825 S0.0
G1 X151.5628 Y66.3127 Z-6.0430 S0.0
G1 X153.4803 Y65.8551 Z-8.0000 S0.0
G2 X177.6842 Y37.4146 Z-8.0000 I-8.6139 J-31.8502 S0.0
G2 X144.9382 Y1.0010 Z-8.0000 I-32.8220 J-3.4146 S0.0
G1 X118.7037 Y1.0008 Z-8.0000 S0.0
G1 X115.2037 Y1.0008 Z-4.5000 S0.0
G1 X104.2037 Y1.0007 Z-4.5000 S0.0
G1 X100.7037 Y1.0007 Z-8.0000 S0.0
G1 X48.2346 Y1.0003 Z-8.0000 S0.0
G1 X44.7346 Y1.0003 Z-4.5000 S0.0
G1 X33.7346 Y1.0002 Z-4.5000 S0.0
G1 X30.2346 Y1.0002 Z-8.0000 S0.0
G1 X4.0000 Y1.0000 Z-8.0000 S0.0
G2 X1.8787 Y1.8787 Z-8.0000 I0.0000 J3.0000 S0.0
G1 X1.8787 Y1.8787 Z-9.0000 S0.0
G2 X1.0000 Y4.0000 Z-9.0000 I2.1213 J2.1213 S0.0
G1 X1.0000 Y26.1529 Z-9.0000 S0.0
G2 X3.7885 Y29.1455 Z-9.0000 I3.0000 J0.0000 S0.0
G1 X47.9140 Y32.2634 Z-9.0000 S0.0
G1 X52.4028 Y32.5805 Z-4.5000 S0.0
G1 X63.3755 Y33.3559 Z-4.5000 S0.0
G1 X67.8643 Y33.6730 Z-9.0000 S0.0
G1 X111.9898 Y36.7909 Z-9.0000 S0.0
G2 X134.6835 Y65.3887 Z-9.0000 I32.8766 J-2.7860 S0.0
G1 X135.7689 Y65.7204 Z-7.8767 S0.0
G1 X136.8651 Y66.0145 Z-6.7507 S0.0
G1 X137.9677 Y66.2701 Z-5.6255 S0.0
G1 X139.0769 Y66.4874 Z-4.5000 S0.0
G2 X150.0382 Y66.5915 Z-4.5000 I5.7895 J-32.4825 S0.0
G1 X151.5628 Y66.3127 Z-6.0430 S0.0
G1 X153.0728 Y65.9625 Z-7.5822 S0.0
G1 X153.7639 Y65.7770 Z-8.2912 S0.0
G1 X154.4516 Y65.5764 Z-9.0000 S0.0
G2 X177.6842 Y37.4146 Z-9.0000 I-9.5852 J-31.5715 S0.0
G2 X144.9382 Y1.0010 Z-9.0000 I-32.8220 J-3.4146 S0.0
G1 X119.7037 Y1.0008 Z-9.0000 S0.0
G1 X115.2037 Y1.0008 Z-4.5000 S0.0
G1 X104.2037 Y1.0007 Z-4.5000 S0.0
G1 X99.7037 Y1.0007 Z-9.0000 S0.0
G1 X49.2346 Y1.0003 Z-9.0000 S0.0
G1 X44.7346 Y1.0003 Z-4.5000 S0.0
G1 X33.7346 Y1.0002 Z-4.5000 S0.0
G1 X29.2346 Y1.0002 Z-9.0000 S0.0
G1 X4.0000 Y1.0000 Z-9.0000 S0.0
G2 X1.8787 Y1.8787 Z-9.0000 I0.0000 J3.0000 S0.0
G0 X1.8787 Y1.8787 Z5.0000
(finish operation: DressupTag)
(begin postamble)
G90
