(Exported by FreeCAD)
(Post Processor: smoothie_post)
(Output Time:2021-04-13 11:56:55.499961)
(begin preamble)
G17 G90
G21
(begin operation: Fixture)
G54
(finish operation: Fixture)
(begin operation: TC: Default Tool)
(TC: Default Tool)
M6 T1.0
M3 S0.0
(finish operation: TC: Default Tool)
(begin operation: DressupTag)
G0 Z5.0000
G0 X16.0405 Y19.1253 Z5.0000
G0 X16.0405 Y19.1253 Z3.0000
G1 X16.0405 Y19.1253 Z-3.0000 S0.0
G3 X28.0229 Y15.6342 Z-3.0000 I9.9595 J11.8747 S0.0
G3 X41.3658 Y33.0229 Z-3.0000 I-2.0229 J15.3658 S0.0
G3 X23.9771 Y46.3658 Z-3.0000 I-15.3658 J-2.0229 S0.0
G3 X16.0405 Y19.1253 Z-3.0000 I2.0229 J-15.3658 S0.0
G1 X16.0405 Y19.1253 Z-6.0000 S0.0
G3 X28.0229 Y15.6342 Z-6.0000 I9.9595 J11.8747 S0.0
G3 X41.3658 Y33.0229 Z-6.0000 I-2.0229 J15.3658 S0.0
G3 X23.9771 Y46.3658 Z-6.0000 I-15.3658 J-2.0229 S0.0
G3 X16.0405 Y19.1253 Z-6.0000 I2.0229 J-15.3658 S0.0
G1 X16.0405 Y19.1253 Z-9.0000 S0.0
G3 X28.0229 Y15.6342 Z-9.0000 I9.9595 J11.8747 S0.0
G3 X41.3658 Y33.0229 Z-9.0000 I-2.0229 J15.3658 S0.0
G3 X23.9771 Y46.3658 Z-9.0000 I-15.3658 J-2.0229 S0.0
G3 X16.0405 Y19.1253 Z-9.0000 I2.0229 J-15.3658 S0.0
G1 X16.0405 Y19.1253 Z-12.0000 S0.0
G3 X28.0229 Y15.6342 Z-12.0000 I9.9595 J11.8747 S0.0
G3 X41.3658 Y33.0229 Z-12.0000 I-2.0229 J15.3658 S0.0
G3 X23.9771 Y46.3658 Z-12.0000 I-15.3658 J-2.0229 S0.0
G3 X16.0405 Y19.1253 Z-12.0000 I2.0229 J-15.3658 S0.0
G1 X16.0405 Y19.1253 Z-15.0000 S0.0
G3 X28.0229 Y15.6342 Z-15.0000 I9.9595 J11.8747 S0.0
G3 X37.8043 Y20.9572 Z-15.0000 I-2.0229 J15.3658 S0.0
G1 X38.2957 Y21.5652 Z-14.2105 S0.0
G1 X38.7558 Y22.1971 Z-15.0000 S0.0
G3 X41.3658 Y33.0229 Z-15.0000 I-12.7558 J8.8029 S0.0
G3 X36.0428 Y42.8043 Z-15.0000 I-15.3658 J-2.0229 S0.0
G1 X35.4348 Y43.2957 Z-14.2105 S0.0
G1 X34.8029 Y43.7558 Z-15.0000 S0.0
G3 X23.9771 Y46.3658 Z-15.0000 I-8.8029 J-12.7558 S0.0
G3 X16.5142 Y43.2564 Z-15.0000 I2.0229 J-15.3658 S0.0
G1 X15.9082 Y42.7625 Z-14.2105 S0.0
G1 X15.3280 Y42.2387 Z-15.0000 S0.0
G3 X10.9616 Y27.2520 Z-15.0000 I10.6720 J-11.2387 S0.0
G1 X11.1697 Y26.4985 Z-14.2105 S0.0
G1 X11.4156 Y25.7565 Z-15.0000 S0.0
G3 X16.0405 Y19.1253 Z-15.0000 I14.5844 J5.2435 S0.0
G1 X16.0405 Y19.1253 Z-18.0000 S0.0
G3 X28.0229 Y15.6342 Z-18.0000 I9.9595 J11.8747 S0.0
G3 X35.6681 Y18.8869 Z-18.0000 I-2.0229 J15.3658 S0.0
G1 X37.0745 Y20.1577 Z-16.0926 S0.0
G1 X38.2957 Y21.5652 Z-14.2105 S0.0
G1 X39.3459 Y23.1205 Z-16.1059 S0.0
G1 X40.2027 Y24.7964 Z-18.0000 S0.0
G3 X41.3658 Y33.0229 Z-18.0000 I-14.2027 J6.2036 S0.0
G3 X38.1131 Y40.6681 Z-18.0000 I-15.3658 J-2.0229 S0.0
G1 X36.8423 Y42.0745 Z-16.0926 S0.0
G1 X35.4348 Y43.2957 Z-14.2105 S0.0
G1 X33.8795 Y44.3459 Z-16.1059 S0.0
G1 X32.2036 Y45.2027 Z-18.0000 S0.0
G3 X23.9771 Y46.3658 Z-18.0000 I-6.2036 J-14.2027 S0.0
G3 X19.0306 Y44.8430 Z-18.0000 I2.0229 J-15.3658 S0.0
G1 X17.3929 Y43.8887 Z-16.0926 S0.0
G1 X15.9082 Y42.7625 Z-14.2105 S0.0
G1 X14.5605 Y41.4565 Z-16.1059 S0.0
G1 X13.3773 Y39.9927 Z-18.0000 S0.0
G3 X10.5226 Y30.1943 Z-18.0000 I12.6227 J-8.9927 S0.0
G1 X10.7367 Y28.3110 Z-16.0926 S0.0
G1 X11.1697 Y26.4985 Z-14.2105 S0.0
G1 X12.4223 Y23.5269 Z-17.4676 S0.0
G1 X12.6861 Y23.0666 Z-18.0000 S0.0
G3 X16.0405 Y19.1253 Z-18.0000 I13.3139 J7.9334 S0.0
G1 X16.0405 Y19.1253 Z-19.0000 S0.0
G3 X28.0229 Y15.6342 Z-19.0000 I9.9595 J11.8747 S0.0
G3 X34.8673 Y18.2889 Z-19.0000 I-2.0229 J15.3658 S0.0
G1 X36.7118 Y19.7992 Z-16.6065 S0.0
G1 X38.2957 Y21.5652 Z-14.2105 S0.0
G1 X39.5916 Y23.5523 Z-16.6066 S0.0
G1 X40.5730 Y25.7247 Z-19.0000 S0.0
G3 X41.3658 Y33.0229 Z-19.0000 I-14.5730 J5.2753 S0.0
G3 X38.7111 Y39.8673 Z-19.0000 I-15.3658 J-2.0229 S0.0
G1 X37.2026 Y41.7099 Z-16.6090 S0.0
G1 X35.4348 Y43.2957 Z-14.2105 S0.0
G1 X33.4477 Y44.5916 Z-16.6066 S0.0
G1 X31.2753 Y45.5730 Z-19.0000 S0.0
G3 X23.9771 Y46.3658 Z-19.0000 I-5.2753 J-14.5730 S0.0
G3 X19.9373 Y45.2634 Z-19.0000 I2.0229 J-15.3658 S0.0
G1 X17.7982 Y44.1503 Z-16.5787 S0.0
G1 X15.9082 Y42.7625 Z-14.2105 S0.0
G1 X15.9360 Y42.7862 Z-14.1736 S0.0
G1 X15.2476 Y42.1618 Z-15.1123 S0.0
G1 X14.5748 Y41.4721 Z-16.0846 S0.0
G1 X13.9450 Y40.7404 Z-17.0570 S0.0
G1 X13.3606 Y39.9692 Z-18.0289 S0.0
G1 X12.8240 Y39.1604 Z-19.0000 S0.0
G3 X10.5028 Y31.1935 Z-19.0000 I13.1760 J-8.1604 S0.0
G1 X10.6565 Y28.8146 Z-16.6065 S0.0
G1 X11.1697 Y26.4985 Z-14.2105 S0.0
G1 X12.4223 Y23.5269 Z-17.4676 S0.0
G1 X13.2251 Y22.2250 Z-19.0000 S0.0
G3 X16.0405 Y19.1253 Z-19.0000 I12.7749 J8.7750 S0.0
G0 X16.0405 Y19.1253 Z5.0000
(finish operation: DressupTag)
(begin operation: DressupTag001)
G0 Z5.0000
G0 X61.6495 Y25.1465 Z5.0000
G0 X61.6495 Y25.1465 Z3.0000
G1 X61.6495 Y25.1465 Z-3.0000 S0.0
G3 X78.0229 Y15.6342 Z-3.0000 I14.3505 J5.8535 S0.0
G3 X91.3658 Y33.0229 Z-3.0000 I-2.0229 J15.3658 S0.0
G3 X73.9771 Y46.3658 Z-3.0000 I-15.3658 J-2.0229 S0.0
G3 X61.6495 Y25.1465 Z-3.0000 I2.0229 J-15.3658 S0.0
G1 X61.6495 Y25.1465 Z-6.0000 S0.0
G3 X78.0229 Y15.6342 Z-6.0000 I14.3505 J5.8535 S0.0
G3 X91.3658 Y33.0229 Z-6.0000 I-2.0229 J15.3658 S0.0
G3 X73.9771 Y46.3658 Z-6.0000 I-15.3658 J-2.0229 S0.0
G3 X61.6495 Y25.1465 Z-6.0000 I2.0229 J-15.3658 S0.0
G1 X61.6495 Y25.1465 Z-9.0000 S0.0
G3 X78.0229 Y15.6342 Z-9.0000 I14.3505 J5.8535 S0.0
G3 X91.3658 Y33.0229 Z-9.0000 I-2.0229 J15.3658 S0.0
G3 X73.9771 Y46.3658 Z-9.0000 I-15.3658 J-2.0229 S0.0
G3 X61.6495 Y25.1465 Z-9.0000 I2.0229 J-15.3658 S0.0
G1 X61.6495 Y25.1465 Z-12.0000 S0.0
G3 X78.0229 Y15.6342 Z-12.0000 I14.3505 J5.8535 S0.0
G3 X91.3658 Y33.0229 Z-12.0000 I-2.0229 J15.3658 S0.0
G3 X73.9771 Y46.3658 Z-12.0000 I-15.3658 J-2.0229 S0.0
G3 X61.6495 Y25.1465 Z-12.0000 I2.0229 J-15.3658 S0.0
G1 X61.6495 Y25.1465 Z-15.0000 S0.0
G3 X67.8624 Y17.8099 Z-15.0000 I14.3505 J5.8535 S0.0
G1 X68.2146 Y17.5990 Z-14.5854 S0.0
G1 X68.5722 Y17.3975 Z-15.0000 S0.0
G3 X78.0229 Y15.6342 Z-15.0000 I7.4278 J13.6025 S0.0
G3 X88.0415 Y21.2429 Z-15.0000 I-2.0229 J15.3658 S0.0
G1 X88.2957 Y21.5652 Z-14.5854 S0.0
G1 X88.5412 Y21.8941 Z-15.0000 S0.0
G3 X91.3658 Y33.0229 Z-15.0000 I-12.5412 J9.1059 S0.0
G3 X85.7571 Y43.0415 Z-15.0000 I-15.3658 J-2.0229 S0.0
G1 X85.4348 Y43.2957 Z-14.5854 S0.0
G1 X85.1059 Y43.5412 Z-15.0000 S0.0
G3 X73.9771 Y46.3658 Z-15.0000 I-9.1059 J-12.5412 S0.0
G3 X62.8099 Y39.1376 Z-15.0000 I2.0229 J-15.3658 S0.0
G1 X62.5990 Y38.7854 Z-14.5854 S0.0
G1 X62.3975 Y38.4278 Z-15.0000 S0.0
G3 X61.6495 Y25.1465 Z-15.0000 I13.6025 J-7.4278 S0.0
G1 X61.6495 Y25.1465 Z-18.0000 S0.0
G3 X65.4940 Y19.6060 Z-18.0000 I14.3505 J5.8535 S0.0
G1 X68.2146 Y17.5990 Z-14.5854 S0.0
G1 X71.3056 Y16.2297 Z-18.0000 S0.0
G3 X78.0229 Y15.6342 Z-18.0000 I4.6944 J14.7703 S0.0
G3 X85.9574 Y19.1235 Z-18.0000 I-2.0229 J15.3658 S0.0
G1 X88.2957 Y21.5652 Z-14.5854 S0.0
G1 X90.0490 Y24.4558 Z-18.0000 S0.0
G3 X91.3658 Y33.0229 Z-18.0000 I-14.0490 J6.5442 S0.0
G3 X87.8765 Y40.9574 Z-18.0000 I-15.3658 J-2.0229 S0.0
G1 X85.4348 Y43.2957 Z-14.5854 S0.0
G1 X82.5442 Y45.0490 Z-18.0000 S0.0
G3 X73.9771 Y46.3658 Z-18.0000 I-6.5442 J-14.0490 S0.0
G3 X64.6060 Y41.5060 Z-18.0000 I2.0229 J-15.3658 S0.0
G1 X62.5990 Y38.7854 Z-14.5854 S0.0
G1 X61.2297 Y35.6944 Z-18.0000 S0.0
G3 X61.6495 Y25.1465 Z-18.0000 I14.7703 J-4.6944 S0.0
G1 X61.6495 Y25.1465 Z-19.0000 S0.0
G3 X64.7826 Y20.3056 Z-19.0000 I14.3505 J5.8535 S0.0
G1 X66.4069 Y18.8274 Z-16.7928 S0.0
G1 X68.2146 Y17.5990 Z-14.5854 S0.0
G1 X70.1779 Y16.6367 Z-16.7938 S0.0
G1 X72.2657 Y15.9582 Z-19.0000 S0.0
G3 X78.0229 Y15.6342 Z-19.0000 I3.7343 J15.0418 S0.0
G3 X85.1725 Y18.5074 Z-19.0000 I-2.0229 J15.3658 S0.0
G1 X86.8463 Y19.9294 Z-16.7928 S0.0
G1 X88.2957 Y21.5652 Z-14.5854 S0.0
G1 X89.5011 Y23.3894 Z-16.7938 S0.0
G1 X90.4410 Y25.3734 Z-19.0000 S0.0
G3 X91.3658 Y33.0229 Z-19.0000 I-14.4410 J5.6266 S0.0
G3 X88.4926 Y40.1725 Z-19.0000 I-15.3658 J-2.0229 S0.0
G1 X87.0706 Y41.8463 Z-16.7928 S0.0
G1 X85.4348 Y43.2957 Z-14.5854 S0.0
G1 X83.6106 Y44.5011 Z-16.7938 S0.0
G1 X81.6266 Y45.4410 Z-19.0000 S0.0
G3 X73.9771 Y46.3658 Z-19.0000 I-5.6266 J-14.4410 S0.0
G3 X65.3056 Y42.2174 Z-19.0000 I2.0229 J-15.3658 S0.0
G1 X63.8274 Y40.5931 Z-16.7928 S0.0
G1 X62.5990 Y38.7854 Z-14.5854 S0.0
G1 X61.6367 Y36.8221 Z-16.7938 S0.0
G1 X60.9582 Y34.7343 Z-19.0000 S0.0
G3 X61.6495 Y25.1465 Z-19.0000 I15.0418 J-3.7343 S0.0
G0 X61.6495 Y25.1465 Z5.0000
(finish operation: DressupTag001)
(begin postamble)
M05
G17 G90
M2
