(Exported by FreeCAD)
(Post Processor: smoothie_post)
(Output Time:2021-04-13 11:13:47.802648)
(begin preamble)
G17 G90
G21
(begin operation: Fixture)
G54
(finish operation: Fixture)
(begin operation: TC: Default Tool)
(TC: Default Tool)
M6 T1.0
M3 S0.0
(finish operation: TC: Default Tool)
(begin operation: DressupTag)
G0 Z5.0000
G0 X46.3457 Y15.9551 Z5.0000
G0 X46.3457 Y15.9551 Z3.0000
G1 X46.3457 Y15.9551 Z-3.0000 S0.0
G3 X63.0229 Y5.6342 Z-3.0000 I14.6543 J5.0449 S0.0
G3 X76.3658 Y23.0229 Z-3.0000 I-2.0229 J15.3658 S0.0
G3 X58.9771 Y36.3658 Z-3.0000 I-15.3658 J-2.0229 S0.0
G3 X46.3457 Y15.9551 Z-3.0000 I2.0229 J-15.3658 S0.0
G1 X46.3457 Y15.9551 Z-6.0000 S0.0
G3 X63.0229 Y5.6342 Z-6.0000 I14.6543 J5.0449 S0.0
G3 X76.3658 Y23.0229 Z-6.0000 I-2.0229 J15.3658 S0.0
G3 X58.9771 Y36.3658 Z-6.0000 I-15.3658 J-2.0229 S0.0
G3 X46.3457 Y15.9551 Z-6.0000 I2.0229 J-15.3658 S0.0
G1 X46.3457 Y15.9551 Z-9.0000 S0.0
G3 X63.0229 Y5.6342 Z-9.0000 I14.6543 J5.0449 S0.0
G3 X76.3658 Y23.0229 Z-9.0000 I-2.0229 J15.3658 S0.0
G3 X58.9771 Y36.3658 Z-9.0000 I-15.3658 J-2.0229 S0.0
G3 X46.3457 Y15.9551 Z-9.0000 I2.0229 J-15.3658 S0.0
G1 X46.3457 Y15.9551 Z-12.0000 S0.0
G3 X50.9446 Y9.2064 Z-12.0000 I14.6543 J5.0449 S0.0
G1 X52.8441 Y7.8211 Z-9.6254 S0.0
G1 X54.9314 Y6.7391 Z-12.0000 S0.0
G3 X63.0229 Y5.6342 Z-12.0000 I6.0686 J14.2609 S0.0
G3 X71.7271 Y9.8139 Z-12.0000 I-2.0229 J15.3658 S0.0
G1 X73.2957 Y11.5652 Z-9.6254 S0.0
G1 X74.5813 Y13.5336 Z-12.0000 S0.0
G3 X76.3658 Y23.0229 Z-12.0000 I-13.5813 J7.4664 S0.0
G3 X72.1861 Y31.7271 Z-12.0000 I-15.3658 J-2.0229 S0.0
G1 X70.4348 Y33.2957 Z-9.6254 S0.0
G1 X68.4664 Y34.5813 Z-12.0000 S0.0
G3 X58.9771 Y36.3658 Z-12.0000 I-7.4664 J-13.5813 S0.0
G3 X49.2064 Y31.0554 Z-12.0000 I2.0229 J-15.3658 S0.0
G1 X47.8211 Y29.1559 Z-9.6254 S0.0
G1 X46.7391 Y27.0686 Z-12.0000 S0.0
G3 X46.3457 Y15.9551 Z-12.0000 I14.2609 J-6.0686 S0.0
G1 X46.3457 Y15.9551 Z-14.0000 S0.0
G3 X49.5157 Y10.5927 Z-14.0000 I14.6543 J5.0449 S0.0
G1 X51.0859 Y9.0873 Z-11.8138 S0.0
G1 X52.8441 Y7.8211 Z-9.6254 S0.0
G1 X54.7617 Y6.8125 Z-11.8138 S0.0
G1 X56.8095 Y6.0789 Z-14.0000 S0.0
G3 X63.0229 Y5.6342 Z-14.0000 I4.1905 J14.9211 S0.0
G3 X70.2047 Y8.5311 Z-14.0000 I-2.0229 J15.3658 S0.0
G1 X71.8626 Y9.9454 Z-11.8097 S0.0
G1 X73.2957 Y11.5652 Z-9.6254 S0.0
G1 X74.4913 Y13.3721 Z-11.8138 S0.0
G1 X75.4264 Y15.3361 Z-14.0000 S0.0
G3 X76.3658 Y23.0229 Z-14.0000 I-14.4264 J5.6639 S0.0
G3 X73.4689 Y30.2047 Z-14.0000 I-15.3658 J-2.0229 S0.0
G1 X72.0546 Y31.8626 Z-11.8097 S0.0
G1 X70.4348 Y33.2957 Z-9.6254 S0.0
G1 X68.6279 Y34.4913 Z-11.8138 S0.0
G1 X66.6639 Y35.4264 Z-14.0000 S0.0
G3 X58.9771 Y36.3658 Z-14.0000 I-5.6639 J-14.4264 S0.0
G3 X50.5927 Y32.4843 Z-14.0000 I2.0229 J-15.3658 S0.0
G1 X49.0873 Y30.9141 Z-11.8138 S0.0
G1 X47.8211 Y29.1559 Z-9.6254 S0.0
G1 X46.8125 Y27.2383 Z-11.8138 S0.0
G1 X46.0789 Y25.1905 Z-14.0000 S0.0
G3 X46.3457 Y15.9551 Z-14.0000 I14.9211 J-4.1905 S0.0
G0 X46.3457 Y15.9551 Z5.0000
(finish operation: DressupTag)
(begin operation: Pocket_Shape)
(Pocket_Shape)
G0 Z5.0000
G0 X27.7158 Y27.7159
G0 Z3.0000
G1 X27.7158 Y27.7159 Z-3.0000 S0.0
G2 X21.0000 Y11.5023 Z-3.0000 I-6.7158 J-6.7159 S0.0
G2 X11.5023 Y21.0000 Z-3.0000 I-0.0000 J9.4977 S0.0
G2 X21.0000 Y30.4977 Z-3.0000 I9.4977 J0.0000 S0.0
G2 X27.7158 Y27.7159 Z-3.0000 I0.0000 J-9.4977 S0.0
G0 Z5.0000
G0 X17.9758 Y29.9999 Z5.0000
G0 X17.9758 Y29.9999 Z3.0000
G1 X17.9758 Y29.9999 Z-3.0000 S0.0
G1 X12.0001 Y24.0242 Z-3.0000 S0.0
G2 X17.9758 Y29.9999 Z-3.0000 I8.9779 J-3.0022 S0.0
G2 X25.7041 Y29.2429 Z-3.0000 I3.0252 J-8.9422 S0.0
G1 X12.7571 Y16.2959 Z-3.0000 S0.0
G3 X17.2329 Y12.2864 Z-3.0000 I8.1661 J4.6127 S0.0
G1 X29.7136 Y24.7671 Z-3.0000 S0.0
G2 X27.7159 Y14.2841 Z-3.0000 I-8.7005 J-3.7738 S0.0
G1 X27.7159 Y14.2841 Z-6.0000 S0.0
G3 X29.7136 Y24.7671 Z-6.0000 I-6.7028 J6.7092 S0.0
G1 X17.2329 Y12.2864 Z-6.0000 S0.0
G2 X12.7571 Y16.2959 Z-6.0000 I3.6904 J8.6223 S0.0
G1 X25.7041 Y29.2429 Z-6.0000 S0.0
G3 X17.9758 Y29.9999 Z-6.0000 I-4.7030 J-8.1852 S0.0
G3 X12.0001 Y24.0242 Z-6.0000 I3.0022 J-8.9779 S0.0
G1 X17.9758 Y29.9999 Z-6.0000 S0.0
G0 Z5.0000
G0 X17.9748 Y30.0030 Z5.0000
G0 X17.9748 Y30.0030 Z3.0000
G1 X17.9748 Y30.0030 Z-6.0000 S0.0
G2 X21.0000 Y30.4977 Z-6.0000 I3.0252 J-9.0030 S0.0
G2 X30.4977 Y21.0000 Z-6.0000 I0.0000 J-9.4977 S0.0
G2 X21.0000 Y11.5023 Z-6.0000 I-9.4977 J0.0000 S0.0
G2 X17.9748 Y30.0030 Z-6.0000 I-0.0000 J9.4977 S0.0
G1 X17.9748 Y30.0030 Z-9.0000 S0.0
G2 X21.0000 Y30.4977 Z-9.0000 I3.0252 J-9.0030 S0.0
G2 X30.4977 Y21.0000 Z-9.0000 I0.0000 J-9.4977 S0.0
G2 X21.0000 Y11.5023 Z-9.0000 I-9.4977 J0.0000 S0.0
G2 X17.9748 Y30.0030 Z-9.0000 I-0.0000 J9.4977 S0.0
G0 Z5.0000
G0 X17.9758 Y29.9999 Z5.0000
G0 X17.9758 Y29.9999 Z3.0000
G1 X17.9758 Y29.9999 Z-9.0000 S0.0
G1 X12.0001 Y24.0242 Z-9.0000 S0.0
G2 X17.9758 Y29.9999 Z-9.0000 I8.9779 J-3.0022 S0.0
G2 X25.7041 Y29.2429 Z-9.0000 I3.0252 J-8.9422 S0.0
G1 X12.7571 Y16.2959 Z-9.0000 S0.0
G3 X17.2329 Y12.2864 Z-9.0000 I8.1661 J4.6127 S0.0
G1 X29.7136 Y24.7671 Z-9.0000 S0.0
G2 X27.7159 Y14.2841 Z-9.0000 I-8.7005 J-3.7738 S0.0
G1 X27.7159 Y14.2841 Z-12.0000 S0.0
G3 X29.7136 Y24.7671 Z-12.0000 I-6.7028 J6.7092 S0.0
G1 X17.2329 Y12.2864 Z-12.0000 S0.0
G2 X12.7571 Y16.2959 Z-12.0000 I3.6904 J8.6223 S0.0
G1 X25.7041 Y29.2429 Z-12.0000 S0.0
G3 X17.9758 Y29.9999 Z-12.0000 I-4.7030 J-8.1852 S0.0
G3 X12.0001 Y24.0242 Z-12.0000 I3.0022 J-8.9779 S0.0
G1 X17.9758 Y29.9999 Z-12.0000 S0.0
G0 Z5.0000
G0 X17.9748 Y30.0030 Z5.0000
G0 X17.9748 Y30.0030 Z3.0000
G1 X17.9748 Y30.0030 Z-12.0000 S0.0
G2 X21.0000 Y30.4977 Z-12.0000 I3.0252 J-9.0030 S0.0
G2 X30.4977 Y21.0000 Z-12.0000 I0.0000 J-9.4977 S0.0
G2 X21.0000 Y11.5023 Z-12.0000 I-9.4977 J0.0000 S0.0
G2 X17.9748 Y30.0030 Z-12.0000 I-0.0000 J9.4977 S0.0
G1 X17.9748 Y30.0030 Z-14.0000 S0.0
G2 X21.0000 Y30.4977 Z-14.0000 I3.0252 J-9.0030 S0.0
G2 X30.4977 Y21.0000 Z-14.0000 I0.0000 J-9.4977 S0.0
G2 X21.0000 Y11.5023 Z-14.0000 I-9.4977 J0.0000 S0.0
G2 X17.9748 Y30.0030 Z-14.0000 I-0.0000 J9.4977 S0.0
G0 Z5.0000
G0 X17.9758 Y29.9999 Z5.0000
G0 X17.9758 Y29.9999 Z3.0000
G1 X17.9758 Y29.9999 Z-14.0000 S0.0
G1 X12.0001 Y24.0242 Z-14.0000 S0.0
G2 X17.9758 Y29.9999 Z-14.0000 I8.9779 J-3.0022 S0.0
G2 X25.7041 Y29.2429 Z-14.0000 I3.0252 J-8.9422 S0.0
G1 X12.7571 Y16.2959 Z-14.0000 S0.0
G3 X17.2329 Y12.2864 Z-14.0000 I8.1661 J4.6127 S0.0
G1 X29.7136 Y24.7671 Z-14.0000 S0.0
G2 X27.7159 Y14.2841 Z-14.0000 I-8.7005 J-3.7738 S0.0
G0 Z5.0000
G0 Z5.0000
(finish operation: Pocket_Shape)
(begin postamble)
M05
G17 G90
M2
