(Exported by FreeCAD)
(Post Processor: smoothie_post)
(Output Time:2021-04-13 13:08:24.355797)
(begin preamble)
G17 G90
G21
(begin operation: Fixture)
G54
(finish operation: Fixture)
(begin operation: TC: Default Tool)
(TC: Default Tool)
M6 T1.0
M3 S0.0
(finish operation: TC: Default Tool)
(begin operation: Pocket_Shape)
(Pocket_Shape)
G0 Z5.0000
G0 X0.0000 Y0.0000
G0 X16.4059 Y16.4059
G0 X16.4059 Y16.4059 Z3.0000
G1 X16.4059 Y16.4059 Z-3.0000 S0.0
G2 X20.7085 Y27.4904 Z-3.0000 I4.5941 J4.5941 S0.0
G2 X21.2915 Y14.5096 Z-3.0000 I0.2915 J-6.4904 S0.0
G2 X16.4059 Y16.4059 Z-3.0000 I-0.2915 J6.4904 S0.0
G0 Z5.0000
G0 X14.6761 Y22.4608 Z5.0000
G0 X14.6761 Y22.4608 Z3.0000
G1 X14.6761 Y22.4608 Z-3.0000 S0.0
G1 X19.5474 Y27.3322 Z-3.0000 S0.0
G3 X14.6761 Y22.4608 Z-3.0000 I1.4388 J-6.3101 S0.0
G3 X16.7740 Y16.0735 Z-3.0000 I6.2818 J-1.4749 S0.0
G1 X25.9293 Y25.2287 Z-3.0000 S0.0
G2 X25.4898 Y16.3040 Z-3.0000 I-4.9247 J-4.2307 S0.0
G1 X25.4898 Y16.3040 Z-6.0000 S0.0
G3 X25.9293 Y25.2287 Z-6.0000 I-4.4853 J4.6940 S0.0
G1 X16.7740 Y16.0735 Z-6.0000 S0.0
G2 X14.6761 Y22.4608 Z-6.0000 I4.1839 J4.9124 S0.0
G2 X19.5474 Y27.3322 Z-6.0000 I6.3101 J-1.4388 S0.0
G1 X14.6761 Y22.4608 Z-6.0000 S0.0
G0 Z5.0000
G0 X14.6697 Y22.4623 Z5.0000
G0 X14.6697 Y22.4623 Z3.0000
G1 X14.6697 Y22.4623 Z-6.0000 S0.0
G2 X20.7085 Y27.4904 Z-6.0000 I6.3303 J-1.4623 S0.0
G2 X21.2915 Y14.5096 Z-6.0000 I0.2915 J-6.4904 S0.0
G2 X14.6697 Y22.4623 Z-6.0000 I-0.2915 J6.4904 S0.0
G1 X14.6697 Y22.4623 Z-8.0000 S0.0
G2 X20.7085 Y27.4904 Z-8.0000 I6.3303 J-1.4623 S0.0
G2 X21.2915 Y14.5096 Z-8.0000 I0.2915 J-6.4904 S0.0
G2 X14.6697 Y22.4623 Z-8.0000 I-0.2915 J6.4904 S0.0
G0 Z5.0000
G0 X14.6761 Y22.4608 Z5.0000
G0 X14.6761 Y22.4608 Z3.0000
G1 X14.6761 Y22.4608 Z-8.0000 S0.0
G1 X19.5474 Y27.3322 Z-8.0000 S0.0
G3 X14.6761 Y22.4608 Z-8.0000 I1.4388 J-6.3101 S0.0
G3 X16.7740 Y16.0735 Z-8.0000 I6.2818 J-1.4749 S0.0
G1 X25.9293 Y25.2287 Z-8.0000 S0.0
G2 X25.4898 Y16.3040 Z-8.0000 I-4.9247 J-4.2307 S0.0
G0 Z5.0000
G0 Z5.0000
G0 X25.4898 Y16.3040
G0 X27.5635 Y14.1351
G0 X27.5635 Y14.1351 Z3.0000
G1 X27.5635 Y14.1351 Z-3.0000 S0.0
G2 X21.0000 Y11.5023 Z-3.0000 I-6.5635 J6.8649 S0.0
G2 X11.5023 Y21.0000 Z-3.0000 I-0.0000 J9.4977 S0.0
G2 X21.0000 Y30.4977 Z-3.0000 I9.4977 J0.0000 S0.0
G2 X27.5635 Y14.1351 Z-3.0000 I0.0000 J-9.4977 S0.0
G0 Z5.0000
G0 X27.7159 Y14.2841 Z5.0000
G0 X27.7159 Y14.2841 Z3.0000
G1 X27.7159 Y14.2841 Z-3.0000 S0.0
G3 X29.7136 Y24.7671 Z-3.0000 I-6.7028 J6.7092 S0.0
G1 X17.2329 Y12.2864 Z-3.0000 S0.0
G2 X12.7571 Y16.2959 Z-3.0000 I3.6904 J8.6223 S0.0
G1 X25.7041 Y29.2429 Z-3.0000 S0.0
G3 X17.9758 Y29.9999 Z-3.0000 I-4.7030 J-8.1852 S0.0
G3 X12.0001 Y24.0242 Z-3.0000 I3.0022 J-8.9779 S0.0
G1 X17.9758 Y29.9999 Z-3.0000 S0.0
G1 X17.9758 Y29.9999 Z-6.0000 S0.0
G1 X12.0001 Y24.0242 Z-6.0000 S0.0
G2 X17.9758 Y29.9999 Z-6.0000 I8.9779 J-3.0022 S0.0
G2 X25.7041 Y29.2429 Z-6.0000 I3.0252 J-8.9422 S0.0
G1 X12.7571 Y16.2959 Z-6.0000 S0.0
G3 X17.2329 Y12.2864 Z-6.0000 I8.1661 J4.6127 S0.0
G1 X29.7136 Y24.7671 Z-6.0000 S0.0
G2 X27.7159 Y14.2841 Z-6.0000 I-8.7005 J-3.7738 S0.0
G0 Z5.0000
G0 Z5.0000
G0 Z3.0000
G1 X27.7159 Y14.2841 Z-6.0000 S0.0
G2 X21.0000 Y11.5023 Z-6.0000 I-6.7159 J6.7159 S0.0
G2 X11.5023 Y21.0000 Z-6.0000 I-0.0000 J9.4977 S0.0
G2 X21.0000 Y30.4977 Z-6.0000 I9.4977 J0.0000 S0.0
G2 X27.7159 Y14.2841 Z-6.0000 I0.0000 J-9.4977 S0.0
G1 X27.7159 Y14.2841 Z-8.0000 S0.0
G2 X21.0000 Y11.5023 Z-8.0000 I-6.7159 J6.7159 S0.0
G2 X11.5023 Y21.0000 Z-8.0000 I-0.0000 J9.4977 S0.0
G2 X21.0000 Y30.4977 Z-8.0000 I9.4977 J0.0000 S0.0
G2 X27.7159 Y14.2841 Z-8.0000 I0.0000 J-9.4977 S0.0
G0 Z5.0000
G0 Z5.0000
G0 Z3.0000
G1 X27.7159 Y14.2841 Z-8.0000 S0.0
G3 X29.7136 Y24.7671 Z-8.0000 I-6.7028 J6.7092 S0.0
G1 X17.2329 Y12.2864 Z-8.0000 S0.0
G2 X12.7571 Y16.2959 Z-8.0000 I3.6904 J8.6223 S0.0
G1 X25.7041 Y29.2429 Z-8.0000 S0.0
G3 X17.9758 Y29.9999 Z-8.0000 I-4.7030 J-8.1852 S0.0
G3 X12.0001 Y24.0242 Z-8.0000 I3.0022 J-8.9779 S0.0
G1 X17.9758 Y29.9999 Z-8.0000 S0.0
G0 Z5.0000
G0 Z5.0000
(finish operation: Pocket_Shape)
(begin operation: Profile)
(Profile)
(Compensated Tool Path. Diameter: 6.0)
G0 Z5.0000
G0 X0.0000 Y0.0000
G0 X20.9712 Y20.9712
G0 X20.9712 Y20.9712 Z3.0000
G1 X20.9712 Y20.9712 Z-3.0000 S0.0
G3 X21.0387 Y21.0126 Z-3.0000 I0.0288 J0.0288 S0.0
G3 X20.9613 Y20.9874 Z-3.0000 I-0.0387 J-0.0126 S0.0
G3 X20.9712 Y20.9712 Z-3.0000 I0.0387 J0.0126 S0.0
G1 X20.9712 Y20.9712 Z-6.0000 S0.0
G3 X21.0387 Y21.0126 Z-6.0000 I0.0288 J0.0288 S0.0
G3 X20.9613 Y20.9874 Z-6.0000 I-0.0387 J-0.0126 S0.0
G3 X20.9712 Y20.9712 Z-6.0000 I0.0387 J0.0126 S0.0
G1 X20.9712 Y20.9712 Z-9.0000 S0.0
G3 X21.0387 Y21.0126 Z-9.0000 I0.0288 J0.0288 S0.0
G3 X20.9613 Y20.9874 Z-9.0000 I-0.0387 J-0.0126 S0.0
G3 X20.9712 Y20.9712 Z-9.0000 I0.0387 J0.0126 S0.0
G1 X20.9712 Y20.9712 Z-12.0000 S0.0
G3 X21.0387 Y21.0126 Z-12.0000 I0.0288 J0.0288 S0.0
G3 X20.9613 Y20.9874 Z-12.0000 I-0.0387 J-0.0126 S0.0
G3 X20.9712 Y20.9712 Z-12.0000 I0.0387 J0.0126 S0.0
G1 X20.9712 Y20.9712 Z-15.0000 S0.0
G3 X21.0387 Y21.0126 Z-15.0000 I0.0288 J0.0288 S0.0
G3 X20.9613 Y20.9874 Z-15.0000 I-0.0387 J-0.0126 S0.0
G3 X20.9712 Y20.9712 Z-15.0000 I0.0387 J0.0126 S0.0
G0 Z5.0000
G0 Z5.0000
(finish operation: Profile)
(begin postamble)
M05
G17 G90
M2
