( Made using CamBam - http://www.cambam.co.uk )
( AxeBR449096 4/11/2021 1:10:33 PM )
( Post processor: eh-Default )
( === ( T0 : 3.0 ) )
( ===  )
( === G21 G90 G64 G40 )
G21 G90
G0 Z4.0
( remove G64, M4 S1000,      )
( Gravure1 )
G64 G17
M3 S1000
G0 X13.3906 Y5.9219
G0 Z1.0
G1 F300.0 Z-2.0
G2 F800.0 X14.2188 Y5.75 I0.0098 J-2.0339
G2 X14.9063 Y5.2969 I-0.6456 J-1.7276
G2 X15.375 Y4.6094 I-1.5822 J-1.5823
G2 X15.5469 Y3.7813 I-1.8618 J-0.8183
G1 Y2.1563
G2 X15.375 Y1.3125 I-2.0725 J-0.0172
G2 X14.9063 Y0.625 I-2.0506 J0.8946
G2 X14.2188 Y0.1719 I-1.4985 J1.5255
G2 X13.3906 Y0.0 I-0.8183 J1.8618
G1 X2.6563
G1 Y5.9219
G1 X12.8594
G3 X13.6563 Y6.0781 I0.0115 J2.0516
G3 X14.3125 Y6.5156 I-0.7669 J1.8612
G3 X14.75 Y7.1563 I-1.453 J1.462
G3 X14.9219 Y7.9531 I-1.7181 J0.7876
G1 Y9.2188
G3 X14.75 Y10.0 I-1.7879 J0.0162
G3 X14.3125 Y10.6563 I-1.8612 J-0.7669
G3 X13.6563 Y11.0938 I-1.4234 J-1.4241
G3 X12.8594 Y11.25 I-0.7853 J-1.8948
G1 X2.6563
G1 Y5.9219
G1 Y11.25
G1 X12.8594
G2 X13.6563 Y11.0938 I0.0115 J-2.0516
G2 X14.3125 Y10.6563 I-0.7669 J-1.8612
G2 X14.75 Y10.0 I-1.4241 J-1.4234
G2 X14.9219 Y9.2188 I-1.6158 J-0.765
G1 Y7.9531
G2 X14.75 Y7.1563 I-1.8902 J-0.0093
G2 X14.3125 Y6.5156 I-1.8909 J0.8216
G2 X13.6563 Y6.0781 I-1.4234 J1.4241
G2 X12.8594 Y5.9219 I-0.7853 J1.8948
G1 X2.6563
G1 Y0.0
G1 X13.3906
G3 X14.2188 Y0.1719 I0.0098 J2.0339
G3 X14.9063 Y0.625 I-0.8114 J1.9792
G3 X15.375 Y1.3125 I-1.5822 J1.5823
G3 X15.5469 Y2.1563 I-1.9006 J0.8265
G1 Y3.7813
G3 X15.375 Y4.6094 I-2.0339 J0.0098
G3 X14.9063 Y5.2969 I-2.0506 J-0.8946
G3 X14.2188 Y5.75 I-1.3331 J-1.2745
G3 X13.3906 Y5.9219 I-0.8183 J-1.8618
G0 Z4.0
G0 X20.2813 Y11.25
G0 Z1.0
G1 F300.0 Z-2.0
G1 F800.0 X30.7656
G2 X31.5 Y11.0625 I-0.0102 J-1.5719
G2 X32.125 Y10.5625 I-0.9567 J-1.8365
G2 X32.5625 Y9.8125 I-1.6685 J-1.4759
G2 X32.7344 Y8.9063 I-2.2077 J-0.8881
G1 Y7.2969
G2 X32.5625 Y6.3906 I-2.3801 J-0.018
G2 X32.125 Y5.6563 I-2.1233 J0.7674
G2 X31.5 Y5.1563 I-1.5815 J1.3362
G2 X30.7656 Y4.9844 I-0.7417 J1.5141
G1 X20.2813
G1 X30.7656
G3 X31.5 Y5.1563 I-0.0072 J1.6858
G3 X32.125 Y5.6563 I-0.9567 J1.8365
G3 X32.5625 Y6.3906 I-1.6855 J1.5016
G3 X32.7344 Y7.2969 I-2.2077 J0.8881
G1 Y8.9063
G3 X32.5625 Y9.8125 I-2.3801 J0.018
G3 X32.125 Y10.5625 I-2.1064 J-0.7261
G3 X31.5 Y11.0625 I-1.5815 J-1.3362
G3 X30.7656 Y11.25 I-0.7446 J-1.3844
G1 X20.2813
G1 Y0.0
G1 Y11.25
G0 Z4.0
G0 X30.9375 Y4.9844
G0 Z1.0
G1 F300.0 Z-2.0
G2 F800.0 X31.8125 Y4.7813 I0.0624 J-1.7175
G2 X32.375 Y4.2656 I-0.7602 J-1.394
G2 X32.6563 Y3.5781 I-1.6754 J-1.0867
G2 X32.7344 Y2.8906 I-3.1618 J-0.7075
G1 Y0.0
G1 Y2.8906
G3 X32.6563 Y3.5781 I-3.245 J-0.0206
G3 X32.375 Y4.2656 I-1.957 J-0.3993
G3 X31.8125 Y4.7813 I-1.3229 J-0.8785
G3 X30.9375 Y4.9844 I-0.8127 J-1.5145
G0 Z4.0
G0 X61.1029 Y11.2656
G0 Z1.0
G1 F300.0 Z-2.0
G1 F800.0 X60.4311
G1 X50.7904 Y3.6406
G1 Y2.7656
G1 X63.3061
G1 X50.7904
G1 Y3.6406
G1 X60.4311 Y11.2656
G1 X61.1029
G1 Y0.0
G1 Y11.2656
G0 Z4.0
G0 X76.9467
G0 Z1.0
G1 F300.0 Z-2.0
G1 F800.0 X76.2748
G1 X66.6342 Y3.6406
G1 Y2.7656
G1 X79.1498
G1 X66.6342
G1 Y3.6406
G1 X76.2748 Y11.2656
G1 X76.9467
G1 Y0.0
G1 Y11.2656
G0 Z4.0
G0 X82.5292 Y9.8849
G0 Z1.0
G1 F300.0 Z-2.0
G2 F800.0 X82.6342 Y10.1875 I1.7027 J-0.4211
G2 X83.0404 Y10.8125 I1.9864 J-0.8466
G2 X83.6498 Y11.2188 I1.3043 J-1.2963
G2 X84.3998 Y11.375 I0.7466 J-1.7053
G1 X92.9154 Y11.3906
G2 X93.6342 Y11.2031 I-0.0026 J-1.4812
G2 X94.2592 Y10.7344 I-1.0727 J-2.0814
G2 X94.6967 Y10.1094 I-1.4919 J-1.5099
G2 X94.8529 Y9.4688 I-1.3325 J-0.6644
G1 Y2.6406
G2 X94.6967 Y1.7188 I-2.9065 J0.0185
G2 X94.1967 Y0.9063 I-1.8717 J0.5917
G2 X93.2592 Y0.3125 I-1.835 J1.8604
G2 X91.7592 Y0.0938 I-1.3845 J4.2412
G1 X85.1029
G2 X83.8998 Y0.3438 I-0.0583 J2.7394
G2 X83.4623 Y0.6094 I1.4777 J2.927
G2 X83.0717 Y1.0313 I1.1832 J1.4874
G2 X82.8061 Y1.6406 I2.5944 J1.4935
G2 X82.7123 Y2.4375 I2.9693 J0.7533
G3 X82.8061 Y1.6406 I3.0651 J-0.0433
G3 X83.0717 Y1.0313 I2.8575 J0.883
G3 X83.4623 Y0.6094 I1.575 J1.0666
G3 X83.8998 Y0.3438 I1.912 J2.6561
G3 X85.1029 Y0.0938 I1.1448 J2.4893
G1 X91.7592
G3 X93.2592 Y0.3125 I0.1155 J4.4603
G3 X94.1967 Y0.9063 I-0.8974 J2.4539
G3 X94.6967 Y1.7188 I-1.3717 J1.4042
G3 X94.8529 Y2.6406 I-2.7507 J0.9404
G1 Y9.4688
G3 X94.6967 Y10.1094 I-1.4884 J-0.0237
G3 X94.2592 Y10.7344 I-1.9295 J-0.885
G3 X93.6342 Y11.2031 I-1.6982 J-1.6132
G3 X92.9154 Y11.3906 I-0.7213 J-1.2934
G1 X84.3998 Y11.375
G3 X83.6498 Y11.2188 I-0.0034 J-1.8617
G3 X83.0404 Y10.8125 I0.6946 J-1.702
G3 X82.6342 Y10.1875 I1.5798 J-1.4714
G3 X82.4779 Y9.4531 I1.5979 J-0.7238
G1 Y7.0781
G3 X82.6498 Y6.3281 I1.7182 J-0.0009
G3 X83.0873 Y5.7188 I2.084 J1.0344
G3 X83.6967 Y5.3125 I1.5227 J1.624
G3 X84.3998 Y5.1563 I0.7083 J1.5273
G1 X92.6029 Y5.1719
G3 X93.3373 Y5.3125 I-0.0373 J2.1826
G3 X94.0717 Y5.7344 I-0.9602 J2.5215
G3 X94.6342 Y6.3438 I-1.4504 J1.9032
G3 X94.8529 Y7.0938 I-1.1512 J0.7427
G2 X94.6342 Y6.3438 I-1.3698 J-0.0074
G2 X94.0717 Y5.7344 I-2.013 J1.2938
G2 X93.3373 Y5.3125 I-1.6946 J2.0998
G2 X92.6029 Y5.1719 I-0.7717 J2.0424
G1 X84.3998 Y5.1563
G2 X83.6967 Y5.3125 I0.0052 J1.6834
G2 X83.0873 Y5.7188 I0.9126 J2.0291
G2 X82.6498 Y6.3281 I1.6471 J1.6443
G2 X82.4779 Y7.0781 I1.5461 J0.749
G1 Y9.4531
G2 X82.5292 Y9.8849 I1.7539 J0.0106
G0 Z4.0
G0 X98.1702 Y8.9162
G0 Z1.0
G1 F300.0 Z-2.0
G2 F800.0 X98.3529 Y9.7188 I2.5465 J-0.1577
G2 X98.8998 Y10.5313 I2.3885 J-1.0174
G2 X99.6967 Y11.0625 I1.7194 J-1.7159
G2 X100.6967 Y11.2656 I0.9848 J-2.285
G1 X108.3529
G2 X109.3373 Y11.0625 I0.0221 J-2.3798
G2 X110.1498 Y10.5313 I-0.8749 J-2.225
G2 X110.6811 Y9.7188 I-1.6936 J-1.6873
G2 X110.8842 Y8.7344 I-2.1769 J-0.9623
G1 Y2.5156
G2 X110.6811 Y1.5313 I-2.4498 J-0.0076
G2 X110.1498 Y0.7344 I-2.247 J0.9225
G2 X109.3373 Y0.1875 I-1.8296 J1.8413
G2 X108.3529 Y0.0 I-0.9603 J2.3638
G1 X100.6967
G2 X99.6967 Y0.1875 I-0.0172 J2.6685
G2 X98.8998 Y0.7344 I1.0752 J2.4207
G2 X98.3529 Y1.5313 I1.8735 J1.8718
G2 X98.1654 Y2.5156 I2.4387 J0.9746
G1 Y8.7344
G2 X98.1702 Y8.9162 I2.5512 J0.0241
G2 X98.3529 Y9.7188 I2.5465 J-0.1577
G2 X98.8998 Y10.5313 I2.3885 J-1.0174
G2 X99.6967 Y11.0625 I1.7194 J-1.7159
G2 X100.6967 Y11.2656 I0.9848 J-2.285
G1 X108.3529
G2 X109.3373 Y11.0625 I0.0221 J-2.3798
G2 X110.1498 Y10.5313 I-0.8749 J-2.225
G2 X110.6811 Y9.7188 I-1.6936 J-1.6873
G2 X110.8842 Y8.7344 I-2.1769 J-0.9623
G1 Y2.5156
G2 X110.6811 Y1.5313 I-2.4498 J-0.0076
G2 X110.1498 Y0.7344 I-2.247 J0.9225
G2 X109.3373 Y0.1875 I-1.8296 J1.8413
G2 X108.3529 Y0.0 I-0.9603 J2.3638
G1 X100.6967
G2 X99.6967 Y0.1875 I-0.0172 J2.6685
G2 X98.8998 Y0.7344 I1.0752 J2.4207
G2 X98.3529 Y1.5313 I1.8735 J1.8718
G2 X98.1654 Y2.5156 I2.4387 J0.9746
G1 Y8.7344
G2 X98.1702 Y8.9162 I2.5512 J0.0241
G0 Z4.0
G0 X114.4467 Y2.4375
G0 Z1.0
G1 F300.0 Z-2.0
G3 F800.0 X114.5404 Y1.6406 I3.0651 J-0.0433
G3 X114.8061 Y1.0313 I2.8575 J0.883
G3 X115.1967 Y0.6094 I1.575 J1.0666
G3 X115.6342 Y0.3438 I1.912 J2.6561
G3 X116.8373 Y0.0938 I1.1448 J2.4893
G1 X123.4936
G3 X124.9936 Y0.3125 I0.1155 J4.4603
G3 X125.9311 Y0.9063 I-0.8974 J2.4539
G3 X126.4311 Y1.7188 I-1.3717 J1.4042
G3 X126.5873 Y2.6406 I-2.7507 J0.9404
G1 Y9.4688
G3 X126.4311 Y10.1094 I-1.4884 J-0.0237
G3 X125.9936 Y10.7344 I-1.9295 J-0.885
G3 X125.3686 Y11.2031 I-1.6982 J-1.6132
G3 X124.6498 Y11.3906 I-0.7213 J-1.2934
G1 X116.1342 Y11.375
G3 X115.3842 Y11.2188 I-0.0034 J-1.8617
G3 X114.7748 Y10.8125 I0.6946 J-1.702
G3 X114.3686 Y10.1875 I1.5798 J-1.4714
G3 X114.2123 Y9.4531 I1.5979 J-0.7238
G1 Y7.0781
G3 X114.3842 Y6.3281 I1.7182 J-0.0009
G3 X114.8217 Y5.7188 I2.084 J1.0344
G3 X115.4311 Y5.3125 I1.5227 J1.624
G3 X116.1342 Y5.1563 I0.7083 J1.5273
G1 X124.3373 Y5.1719
G3 X125.0717 Y5.3125 I-0.0373 J2.1826
G3 X125.8061 Y5.7344 I-0.9602 J2.5215
G3 X126.3686 Y6.3438 I-1.4504 J1.9032
G3 X126.5873 Y7.0938 I-1.1512 J0.7427
G2 X126.3686 Y6.3438 I-1.3698 J-0.0074
G2 X125.8061 Y5.7344 I-2.013 J1.2938
G2 X125.0717 Y5.3125 I-1.6946 J2.0998
G2 X124.3373 Y5.1719 I-0.7717 J2.0424
G1 X116.1342 Y5.1563
G2 X115.4311 Y5.3125 I0.0052 J1.6834
G2 X114.8217 Y5.7188 I0.9126 J2.0291
G2 X114.3842 Y6.3281 I1.6471 J1.6443
G2 X114.2123 Y7.0781 I1.5461 J0.749
G1 Y9.4531
G2 X114.3686 Y10.1875 I1.7539 J0.0106
G2 X114.7748 Y10.8125 I1.9864 J-0.8466
G2 X115.3842 Y11.2188 I1.3043 J-1.2963
G2 X116.1342 Y11.375 I0.7466 J-1.7053
G1 X124.6498 Y11.3906
G2 X125.3686 Y11.2031 I-0.0026 J-1.4812
G2 X125.9936 Y10.7344 I-1.0727 J-2.0814
G2 X126.4311 Y10.1094 I-1.4919 J-1.5099
G2 X126.5873 Y9.4688 I-1.3325 J-0.6644
G1 Y2.6406
G2 X126.4311 Y1.7188 I-2.9065 J0.0185
G2 X125.9311 Y0.9063 I-1.8717 J0.5917
G2 X124.9936 Y0.3125 I-1.835 J1.8604
G2 X123.4936 Y0.0938 I-1.3845 J4.2412
G1 X116.8373
G2 X115.6342 Y0.3438 I-0.0583 J2.7394
G2 X115.1967 Y0.6094 I1.4777 J2.927
G2 X114.8061 Y1.0313 I1.1832 J1.4874
G2 X114.5404 Y1.6406 I2.5944 J1.4935
G2 X114.4467 Y2.4375 I2.9693 J0.7533
G0 Z4.0
G0 X142.0248 Y8.9219
G0 Z1.0
G1 F300.0 Z-2.0
G3 F800.0 X141.9154 Y9.7188 I-2.649 J0.0424
G3 X141.6498 Y10.3125 I-1.8851 J-0.487
G3 X141.2592 Y10.7188 I-1.3462 J-0.9035
G3 X140.8217 Y11.0 I-1.6071 J-2.0191
G3 X139.6342 Y11.2656 I-1.2025 J-2.5887
G1 X132.9779
G3 X131.4936 Y11.0313 I-0.1091 J-4.1269
G3 X130.5404 Y10.4531 I0.8447 J-2.4674
G3 X130.0404 Y9.6406 I1.5838 J-1.5348
G3 X129.8998 Y8.7188 I2.9527 J-0.9221
G1 Y1.9219
G3 X130.0561 Y1.2656 I1.5934 J0.0326
G3 X130.4779 Y0.6563 I2.1363 J1.0283
G3 X131.1029 Y0.1875 I1.9322 J1.9253
G3 X131.8217 Y0.0 I0.7213 J1.2934
G1 X140.3373 Y0.0156
G3 X141.0717 Y0.1563 I0.0127 J1.9215
G3 X141.6811 Y0.5781 I-0.7123 J1.6799
G3 X142.1029 Y1.1875 I-1.4551 J1.4581
G3 X142.2592 Y1.9375 I-1.636 J0.7321
G1 Y4.2969
G3 X142.0873 Y5.0313 I-1.6198 J0.0082
G3 X141.6498 Y5.6406 I-1.8389 J-0.8585
G3 X141.0248 Y6.0469 I-1.2731 J-1.2747
G3 X140.3373 Y6.2031 I-0.7013 J-1.495
G1 X132.1342
G3 X131.3998 Y6.0469 I0.0401 J-1.9924
G3 X130.6654 Y5.6406 I0.9154 J-2.5217
G3 X130.1186 Y5.0156 I1.5147 J-1.8771
G3 X129.8998 Y4.2813 I1.1256 J-0.7351
G2 X130.1186 Y5.0156 I1.3444 J-0.0007
G2 X130.6654 Y5.6406 I2.0615 J-1.2521
G2 X131.3998 Y6.0469 I1.6505 J-2.1167
G2 X132.1342 Y6.2031 I0.7747 J-1.837
G1 X140.3373
G2 X141.0248 Y6.0469 I-0.0137 J-1.6511
G2 X141.6498 Y5.6406 I-0.6483 J-1.6812
G2 X142.0873 Y5.0313 I-1.4009 J-1.4675
G2 X142.2592 Y4.2969 I-1.448 J-0.7262
G1 Y1.9375
G2 X142.1029 Y1.1875 I-1.792 J-0.0179
G2 X141.6811 Y0.5781 I-1.8778 J0.8493
G2 X141.0717 Y0.1563 I-1.3214 J1.2576
G2 X140.3373 Y0.0156 I-0.7216 J1.7803
G1 X131.8217 Y0.0
G2 X131.1029 Y0.1875 I0.0026 J1.4812
G2 X130.4779 Y0.6563 I1.3062 J2.3926
G2 X130.0561 Y1.2656 I1.7139 J1.6372
G2 X129.8998 Y1.9219 I1.4371 J0.6889
G1 Y8.7188
G2 X130.0404 Y9.6406 I3.0934 J-0.0002
G2 X130.5404 Y10.4531 I2.0841 J-0.7224
G2 X131.4936 Y11.0313 I1.7982 J-1.8898
G2 X132.9779 Y11.2656 I1.3753 J-3.8927
G1 X139.6342
G2 X140.8217 Y11.0 I-0.0151 J-2.8547
G2 X141.2592 Y10.7188 I-1.1711 J-2.3026
G2 X141.6498 Y10.3125 I-0.9563 J-1.3105
G2 X141.9154 Y9.7188 I-1.6198 J-1.0809
G2 X142.0248 Y8.9219 I-2.5394 J-0.7545
G0 Z4.0
( === M5 )
( ===  )
( === M30 )
