( Made using CamBam - http://www.cambam.co.uk )
( AxePINOU 4/11/2021 12:40:57 PM )
( Post processor: eh-Default )
( === ( T0 : 3.0 ) )
( ===  )
( === G21 G90 G64 G40 )
G21 G90
G0 Z4.0
( remove G64, M4 S1000,      )
( Gravure1 )
G64 G17
M3 S1000
G0 X9.1055 Y13.0078
G0 Z1.0
G1 F300.0 Z-2.0
G1 F800.0 X10.3521
G1 X17.9219 Y0.0
G1 X10.3521 Y13.0078
G1 X9.1055
G1 X1.5356 Y0.0
G1 X9.1055 Y13.0078
G0 Z4.0
G0 X15.9526 Y3.3965
G0 Z1.0
G1 F300.0 Z-2.0
G1 F800.0 X3.5229
G1 X15.9526
G0 Z4.0
G0 X57.3098 Y13.0078
G0 Z1.0
G1 F300.0 Z-2.0
G1 F800.0 X69.8479
G2 X70.7151 Y12.791 I-0.002 J-1.851
G2 X71.4739 Y12.2129 I-1.1333 J-2.2745
G2 X71.9978 Y11.3457 I-2.1215 J-1.8736
G2 X72.1966 Y10.2979 I-2.5526 J-1.0269
G1 Y8.437
G2 X71.9978 Y7.3892 I-2.752 J-0.0208
G2 X71.492 Y6.54 I-2.455 J0.8873
G2 X70.7693 Y5.9619 I-1.8286 J1.545
G2 X69.9021 Y5.7632 I-0.8661 J1.7877
G1 X57.3098
G1 X69.9021
G3 X70.7693 Y5.9619 I0.0011 J1.9867
G3 X71.492 Y6.54 I-1.1062 J2.1234
G3 X71.9978 Y7.3892 I-1.9488 J1.7363
G3 X72.1966 Y8.437 I-2.5526 J1.0269
G1 Y10.2979
G3 X71.9978 Y11.3457 I-2.752 J0.0208
G3 X71.4739 Y12.2129 I-2.645 J-1.0061
G3 X70.7151 Y12.791 I-1.892 J-1.6962
G3 X69.8479 Y13.0078 I-0.8693 J-1.6344
G1 X57.3098
G1 Y0.0
G1 Y13.0078
G0 Z4.0
G0 X77.6707 Y13.0259
G0 Z1.0
G1 F300.0 Z-2.0
G1 F800.0 Y0.0
G1 Y13.0259
G0 Z4.0
G0 X99.26 Y0.0
G0 Z1.0
G1 F300.0 Z-2.0
G1 F800.0 X83.9397 Y13.0078
G1 Y0.0
G1 Y13.0078
G1 X99.26 Y0.0
G1 Y13.0078
G1 Y0.0
G0 Z4.0
G0 X105.045 Y2.5137
G0 Z1.0
G1 F300.0 Z-2.0
G2 F800.0 X104.7522 Y3.9385 I3.2417 J1.4086
G1 Y9.0693
G2 X105.0955 Y10.5869 I3.4196 J0.0241
G2 X106.0169 Y11.8516 I3.7709 J-1.7794
G2 X107.3899 Y12.7007 I2.9926 J-3.3045
G2 X109.0882 Y13.0078 I1.6665 J-4.3662
G1 X117.4348
G2 X119.115 Y12.7007 I0.0234 J-4.6215
G2 X120.5061 Y11.8516 I-1.5609 J-4.1214
G2 X121.4456 Y10.5869 I-2.7044 J-2.9902
G2 X121.7888 Y9.0693 I-3.076 J-1.4934
G1 Y3.9385
G2 X121.4456 Y2.4028 I-3.5349 J-0.016
G2 X120.5061 Y1.1563 I-3.6848 J1.7997
G2 X119.115 Y0.3071 I-2.9526 J3.2731
G2 X117.4348 Y0.0 I-1.657 J4.3152
G1 X109.0882
G2 X107.3899 Y0.3071 I-0.0319 J4.6724
G2 X106.0169 Y1.1563 I1.6194 J4.1533
G2 X105.0955 Y2.4028 I2.895 J3.1036
G2 X105.045 Y2.5137 I3.1912 J1.5195
G2 X104.7522 Y3.9385 I3.2417 J1.4086
G1 Y9.0693
G2 X105.0955 Y10.5869 I3.4196 J0.0241
G2 X106.0169 Y11.8516 I3.7709 J-1.7794
G2 X107.3899 Y12.7007 I2.9926 J-3.3045
G2 X109.0882 Y13.0078 I1.6665 J-4.3662
G1 X117.4348
G2 X119.115 Y12.7007 I0.0234 J-4.6215
G2 X120.5061 Y11.8516 I-1.5609 J-4.1214
G2 X121.4456 Y10.5869 I-2.7044 J-2.9902
G2 X121.7888 Y9.0693 I-3.076 J-1.4934
G1 Y3.9385
G2 X121.4456 Y2.4028 I-3.5349 J-0.016
G2 X120.5061 Y1.1563 I-3.6848 J1.7997
G2 X119.115 Y0.3071 I-2.9526 J3.2731
G2 X117.4348 Y0.0 I-1.657 J4.3152
G1 X109.0882
G2 X107.3899 Y0.3071 I-0.0319 J4.6724
G2 X106.0169 Y1.1563 I1.6194 J4.1533
G2 X105.0955 Y2.4028 I2.895 J3.1036
G2 X105.045 Y2.5137 I3.1912 J1.5195
G0 Z4.0
G0 X140.885 Y3.0532
G0 Z1.0
G1 F300.0 Z-2.0
G2 F800.0 X140.7586 Y1.9331 I-3.9507 J-0.1211
G2 X140.325 Y0.9575 I-2.6836 J0.6086
G2 X139.512 Y0.271 I-1.9191 J1.448
G2 X138.3015 Y0.0181 I-1.1422 J2.4435
G1 X128.4915
G2 X127.1184 Y0.2891 I-0.1126 J3.0435
G2 X126.3054 Y0.9937 I0.9421 J1.9084
G2 X125.8899 Y1.9692 I2.4642 J1.6259
G2 X125.7634 Y3.0532 I6.5157 J1.3095
G1 Y13.0259
G1 Y3.0532
G3 X125.8899 Y1.9692 I6.6472 J0.2261
G3 X126.3054 Y0.9937 I2.8792 J0.65
G3 X127.1184 Y0.2891 I1.7551 J1.2038
G3 X128.4915 Y0.0181 I1.2605 J2.7728
G1 X138.3015
G3 X139.512 Y0.271 I0.0682 J2.6966
G3 X140.325 Y0.9575 I-1.1059 J2.1342
G3 X140.7586 Y1.9331 I-2.25 J1.5841
G3 X140.885 Y3.0532 I-3.8244 J0.999
G1 Y13.0259
G1 Y3.0532
( Gravure2 )
S1000
G0 Z4.0
G0 X29.0542 Y12.5405
G0 Z1.0
G1 F300.0 Z-2.0
G1 F800.0 X18.6187 Y3.0
G1 X29.0542 Y12.5405
G0 Z4.0
G0 X33.4536 Y10.7442
G0 Z1.0
G1 F300.0 Z-2.0
G2 F800.0 X33.4722 Y10.7886 I2.3839 J-0.9733
G2 X34.0815 Y11.6455 I2.5213 J-1.1478
G2 X34.9575 Y12.2358 I1.9374 J-1.9298
G2 X36.043 Y12.4453 I1.0723 J-2.6396
G1 X42.1748
G2 X43.2603 Y12.2358 I0.0129 J-2.85
G2 X44.1553 Y11.6455 I-0.9995 J-2.4891
G2 X44.7456 Y10.7886 I-1.7396 J-1.8302
G2 X44.9741 Y9.7412 I-2.1619 J-1.0203
G1 Y8.2368
G1 X33.2627 Y8.2559
G1 X44.9741 Y8.2368
G1 Y9.7412
G3 X44.7456 Y10.7886 I-2.3905 J0.0271
G3 X44.1553 Y11.6455 I-2.3297 J-0.9731
G3 X43.2603 Y12.2358 I-1.8948 J-1.8992
G3 X42.1748 Y12.4453 I-1.0723 J-2.6396
G1 X36.043
G3 X34.9575 Y12.2358 I-0.0129 J-2.85
G3 X34.0815 Y11.6455 I1.0612 J-2.5198
G3 X33.4722 Y10.7886 I1.9121 J-2.0048
G3 X33.2627 Y9.7412 I2.3658 J-1.0178
G1 Y5.7041
G3 X33.4722 Y4.6377 I2.7097 J-0.0215
G3 X34.0815 Y3.7808 I2.7983 J1.3447
G3 X34.9575 Y3.2095 I1.9975 J2.1056
G3 X36.043 Y3.0 I1.0723 J2.6396
G1 X42.1748
G3 X43.9458 Y3.6094 I0.0596 J2.705
G3 X44.8979 Y5.1328 I-1.5743 J2.0432
G2 X43.9458 Y3.6094 I-2.5265 J0.5198
G2 X42.1748 Y3.0 I-1.7114 J2.0955
G1 X36.043
G2 X34.9575 Y3.2095 I-0.0129 J2.85
G2 X34.0815 Y3.7808 I1.1208 J2.6758
G2 X33.4722 Y4.6377 I2.1899 J2.2024
G2 X33.2627 Y5.7041 I2.5002 J1.0449
G1 Y9.7412
G2 X33.4536 Y10.7442 I2.5748 J0.0297
G0 Z4.0
G0 X29.4351 Y3.0
G0 Z1.0
G1 F300.0 Z-2.0
G1 F800.0 X18.9424 Y12.5405
G1 X29.4351 Y3.0
G0 Z4.0
( === M5 )
( ===  )
( === M30 )
