( Made using CamBam - http://www.cambam.co.uk )
( carre1 2/25/2021 11:59:11 AM )
( Post processor: LinuxCNC )
( T0 : 6.0 )
G21 G90 G64 G40
G91.1
G0 Z0.0
( T0 : 6.0 )
T0 M6
( Contour1 )
G17
(relative positionning)
G91
(tool down -1mm)
G0 Z-1
(set ZERO for absolute positionning)
G92 X0 Y0 Z0
(return to absolute)
G90
M3 S1000
G0 Z0.0
G0 X0.0 Y-3.0
G1 F300.0 X50.0 Z-0.75434
G3 X53.0 Y0.0 Z-0.82543 I0.0 J3.0
G1 Y40.0 Z-1.42891
G3 X50.0 Y43.0 Z-1.5 I-3.0 J0.0
G1 X0.0 Z-2.25434
G3 X-3.0 Y40.0 Z-2.32543 I0.0 J-3.0
G1 Y0.0 Z-2.92891
G3 X0.0 Y-3.0 Z-3.0 I3.0 J0.0
G1 X50.0 Z-3.75434
G3 X53.0 Y0.0 Z-3.82543 I0.0 J3.0
G1 Y40.0 Z-4.42891
G3 X50.0 Y43.0 Z-4.5 I-3.0 J0.0
G1 X0.0 Z-5.25434
G3 X-3.0 Y40.0 Z-5.32543 I0.0 J-3.0
G1 Y0.0 Z-5.92891
G3 X0.0 Y-3.0 Z-6.0 I3.0 J0.0
G1 X11.25 Z-6.16973
G1 X12.0 Z-6.18104
G1 X18.0 Z-6.27156
G1 X18.75 Z-6.28288
G1 X41.25 Z-6.62233
G1 X42.0 Z-6.63364
G1 X48.0 Z-6.72417
G1 X48.75 Z-6.73548
G1 X50.0 Z-6.75434
G3 X53.0 Y0.0 Z-6.82543 I0.0 J3.0
G1 Y21.25 Z-7.14603
G1 Y22.0 Z-7.15734
G1 Y28.0 Z-7.24786
G1 Y28.75 Z-7.25918
G1 Y40.0 Z-7.42891
G3 X50.0 Y43.0 Z-7.5 I-3.0 J0.0
G1 X38.75 Z-7.66973
G1 X38.0 Z-7.68104
G1 X32.0 Z-7.77156
G1 X31.25 Z-7.78288
G1 X8.75 Z-8.12233
G1 X8.0 Z-8.13364
G1 X2.0 Z-8.22417
G1 X1.25 Z-8.23548
G1 X0.0 Z-8.25434
G3 X-3.0 Y40.0 Z-8.32543 I0.0 J-3.0
G1 Y18.75 Z-8.64603
G1 Y18.0 Z-8.6
G1 Y12.0
G1 Y11.25 Z-8.75918
G1 Y0.0 Z-8.92891
G3 X0.0 Y-3.0 Z-9.0 I3.0 J0.0
G1 X11.25 Z-9.06223
G1 X12.0 Z-8.6
G1 X18.0
G1 X18.75 Z-9.10372
G1 X41.25 Z-9.22819
G1 X42.0 Z-8.6
G1 X48.0
G1 X48.75 Z-9.26968
G1 X50.0 Z-9.27659
G3 X53.0 Y0.0 Z-9.30266 I0.0 J3.0
G1 Y21.25 Z-9.42021
G1 Y22.0 Z-8.6
G1 Y28.0
G1 Y28.75 Z-9.4617
G1 Y40.0 Z-9.52393
G3 X50.0 Y43.0 Z-9.55 I-3.0 J0.0
G1 X38.75 Z-9.61223
G1 X38.0 Z-8.6
G1 X32.0
G1 X31.25 Z-9.65372
G1 X8.75 Z-9.77819
G1 X8.0 Z-8.6
G1 X2.0
G1 X1.25 Z-9.81968
G1 X0.0 Z-9.82659
G3 X-3.0 Y40.0 Z-9.85266 I0.0 J-3.0
G1 Y18.75 Z-9.97021
G1 Y18.0 Z-8.6
G1 Y12.0
G1 Y11.25 Z-10.0117
G1 Y0.0 Z-10.07393
G3 X0.0 Y-3.0 Z-10.1 I3.0 J0.0
G1 X11.25
G1 X12.0 Z-8.6
G1 X18.0
G1 X18.75 Z-10.1
G1 X41.25
G1 X42.0 Z-8.6
G1 X48.0
G1 X48.75 Z-10.1
G1 X50.0
G3 X53.0 Y0.0 I0.0 J3.0
G1 Y21.25
G1 Y22.0 Z-8.6
G1 Y28.0
G1 Y28.75 Z-10.1
G1 Y40.0
G3 X50.0 Y43.0 I-3.0 J0.0
G1 X38.75
G1 X38.0 Z-8.6
G1 X32.0
G1 X31.25 Z-10.1
G1 X8.75
G1 X8.0 Z-8.6
G1 X2.0
G1 X1.25 Z-10.1
G1 X0.0
G3 X-3.0 Y40.0 I0.0 J-3.0
G1 Y18.75
G1 Y18.0 Z-8.6
G1 Y12.0
G1 Y11.25 Z-10.1
G1 Y0.0
G3 X0.0 Y-3.0 I3.0 J0.0
( Poche1 )
S1000
G0 Z5.0
G0 X19.29289 Y19.29289
G0 Z0.0
G1 Z-1.0
G2 X19.5 Y20.86603 Z-1.58333 I0.70711 J0.70711
G2 X21.0 Y20.0 Z-2.25 I0.5 J-0.86603
G2 X19.5 Y19.13397 Z-2.91667 I-1.0 J0.0
G2 X19.29289 Y19.29289 Z-3.0 I0.5 J0.86603
G1 X18.44437 Y18.44437
G2 X18.9 Y21.90526 I1.55563 J1.55563
G2 X22.2 Y20.0 I1.1 J-1.90526
G2 X18.9 Y18.09474 I-2.2 J0.0
G2 X18.44437 Y18.44437 I1.1 J1.90526
G1 X16.74731 Y16.74731
G2 X17.7 Y23.98372 I3.25269 J3.25269
G2 X24.6 Y20.0 I2.3 J-3.98372
G2 X17.7 Y16.01628 I-4.6 J0.0
G2 X16.74731 Y16.74731 I2.3 J3.98372
G1 X15.05025 Y15.05025
G2 X16.5 Y26.06218 I4.94975 J4.94975
G2 X27.0 Y20.0 I3.5 J-6.06218
G2 X16.5 Y13.93782 I-7.0 J0.0
G2 X15.05025 Y15.05025 I3.5 J6.06218
G0 Z5.0
G0 X19.29289 Y19.29289
G0 Z-2.0
G1 Z-3.0
G2 X19.5 Y20.86603 Z-3.58333 I0.70711 J0.70711
G2 X21.0 Y20.0 Z-4.25 I0.5 J-0.86603
G2 X19.5 Y19.13397 Z-4.91667 I-1.0 J0.0
G2 X19.29289 Y19.29289 Z-5.0 I0.5 J0.86603
G2 X19.5 Y20.86603 I0.70711 J0.70711
G2 X21.0 Y20.0 I0.5 J-0.86603
G2 X19.5 Y19.13397 I-1.0 J0.0
G2 X19.29289 Y19.29289 I0.5 J0.86603
G1 X18.44437 Y18.44437
G2 X18.9 Y21.90526 I1.55563 J1.55563
G2 X22.2 Y20.0 I1.1 J-1.90526
G2 X18.9 Y18.09474 I-2.2 J0.0
G2 X18.44437 Y18.44437 I1.1 J1.90526
G1 X16.74731 Y16.74731
G2 X17.7 Y23.98372 I3.25269 J3.25269
G2 X24.6 Y20.0 I2.3 J-3.98372
G2 X17.7 Y16.01628 I-4.6 J0.0
G2 X16.74731 Y16.74731 I2.3 J3.98372
G1 X15.05025 Y15.05025
G2 X16.5 Y26.06218 I4.94975 J4.94975
G2 X27.0 Y20.0 I3.5 J-6.06218
G2 X16.5 Y13.93782 I-7.0 J0.0
G2 X15.05025 Y15.05025 I3.5 J6.06218
G0 Z5.0
M5
M30
