( Made using CamBam - http://www.cambam.co.uk )
( carre1 1/23/2021 5:18:20 PM )
( Post processor: Default )
( T0 : 6.0 )
G21 G90 G64 G40
G0 Z5.0
( T0 : 6.0 )
T0 M6
( Poche1 )
G17
M3 S1000
G0 X19.2929 Y19.2929
G0 Z0.0
G1 F300.0 Z-1.0
G2 X19.5 Y20.866 Z-1.5833 I0.7071 J0.7071
G2 X21.0 Y20.0 Z-2.25 I0.5 J-0.866
G2 X19.5 Y19.134 Z-2.9167 I-1.0 J0.0
G2 X19.2929 Y19.2929 Z-3.0 I0.5 J0.866
G1 X18.4444 Y18.4444
G2 X18.9 Y21.9053 I1.5556 J1.5556
G2 X22.2 Y20.0 I1.1 J-1.9053
G2 X18.9 Y18.0947 I-2.2 J0.0
G2 X18.4444 Y18.4444 I1.1 J1.9053
G1 X16.7473 Y16.7473
G2 X17.7 Y23.9837 I3.2527 J3.2527
G2 X24.6 Y20.0 I2.3 J-3.9837
G2 X17.7 Y16.0163 I-4.6 J0.0
G2 X16.7473 Y16.7473 I2.3 J3.9837
G1 X15.0503 Y15.0503
G2 X16.5 Y26.0622 I4.9497 J4.9497
G2 X27.0 Y20.0 I3.5 J-6.0622
G2 X16.5 Y13.9378 I-7.0 J0.0
G2 X15.0503 Y15.0503 I3.5 J6.0622
G0 Z5.0
G0 X19.2929 Y19.2929
G0 Z-2.0
G1 Z-3.0
G2 X19.5 Y20.866 Z-3.5833 I0.7071 J0.7071
G2 X21.0 Y20.0 Z-4.25 I0.5 J-0.866
G2 X19.5 Y19.134 Z-4.9167 I-1.0 J0.0
G2 X19.2929 Y19.2929 Z-5.0 I0.5 J0.866
G2 X19.5 Y20.866 I0.7071 J0.7071
G2 X21.0 Y20.0 I0.5 J-0.866
G2 X19.5 Y19.134 I-1.0 J0.0
G2 X19.2929 Y19.2929 I0.5 J0.866
G1 X18.4444 Y18.4444
G2 X18.9 Y21.9053 I1.5556 J1.5556
G2 X22.2 Y20.0 I1.1 J-1.9053
G2 X18.9 Y18.0947 I-2.2 J0.0
G2 X18.4444 Y18.4444 I1.1 J1.9053
G1 X16.7473 Y16.7473
G2 X17.7 Y23.9837 I3.2527 J3.2527
G2 X24.6 Y20.0 I2.3 J-3.9837
G2 X17.7 Y16.0163 I-4.6 J0.0
G2 X16.7473 Y16.7473 I2.3 J3.9837
G1 X15.0503 Y15.0503
G2 X16.5 Y26.0622 I4.9497 J4.9497
G2 X27.0 Y20.0 I3.5 J-6.0622
G2 X16.5 Y13.9378 I-7.0 J0.0
G2 X15.0503 Y15.0503 I3.5 J6.0622
G0 Z5.0
M5
M30
