( Made using CamBam - http://www.cambam.co.uk )
( Untitled 2/20/2021 11:13:53 AM )
( Post processor: LinuxCNC )
( T1 : 5.0 )
G21 G90 G64 G40
G91.1
G0 Z3.0
( T1 : 5.0 )
T1 M6
( Gravure1 )
G17
M3 S1000
G0 X34.0 Y0.0
G0 Z1.0
G1 F300.0 Z-0.4
G3 F800.0 X-17.0 Y29.44486 I-34.0 J0.0
G3 Y-29.44486 I17.0 J-29.44486
G3 X34.0 Y0.0 I17.0 J29.44486
G1 F300.0 Z-0.8
G3 F800.0 X-17.0 Y29.44486 I-34.0 J0.0
G3 Y-29.44486 I17.0 J-29.44486
G3 X34.0 Y0.0 I17.0 J29.44486
G1 F300.0 Z-1.2
G3 F800.0 X-17.0 Y29.44486 I-34.0 J0.0
G3 Y-29.44486 I17.0 J-29.44486
G3 X34.0 Y0.0 I17.0 J29.44486
G1 F300.0 Z-1.6
G3 F800.0 X-17.0 Y29.44486 I-34.0 J0.0
G3 Y-29.44486 I17.0 J-29.44486
G3 X34.0 Y0.0 I17.0 J29.44486
G1 F300.0 Z-2.0
G3 F800.0 X-17.0 Y29.44486 I-34.0 J0.0
G3 Y-29.44486 I17.0 J-29.44486
G3 X34.0 Y0.0 I17.0 J29.44486
G0 Z3.0
M5
M30
