( Made using CamBam - http://www.cambam.co.uk )
( coinceur1 4/1/2021 10:22:57 PM )
( Post processor: eh-Default )
( === ( T0 : 6.0 ) )
( ===  )
( === G21 G90 G64 G40 )
G21 G90
G0 Z3.0
( remove G64, M4 S1000,      )
( Contour1 )
G64 G17
M3 S1000
G0 X30.0 Y63.0
G0 Z1.0
G1 F300.0 Z-2.0
G3 F800.0 X13.5 Y58.5788 I0.0 J-33.0
G3 Y1.4212 I16.5 J-28.5788
G3 X62.9107 Y27.5736 I16.5 J28.5788
G1 X150.6508 Y47.0714
G3 X153.0 Y50.0 I-0.6508 J2.9286
G1 Y60.0
G3 X150.0 Y63.0 I-3.0 J0.0
G1 X30.0
G1 F300.0 Z-4.0
G3 F800.0 X13.5 Y58.5788 I0.0 J-33.0
G3 X4.7109 Y51.2005 I16.5 J-28.5788
G3 X3.7677 Y50.0216 Z-3.0 I25.2891 J-21.2005
G3 X0.576 Y44.9409 I26.2323 J-20.0216
G3 X-0.0765 Y43.5795 Z-4.0 I29.424 J-14.9409
G3 X13.5 Y1.4212 I30.0765 J-13.5795
G3 X21.8786 Y-1.985 I16.5 J28.5788
G3 X23.3501 Y-2.323 Z-3.0 I8.1214 J31.985
G3 X29.3126 Y-2.9928 I6.6499 J32.323
G3 X30.8224 Y-2.9898 Z-4.0 I0.6874 J32.9928
G3 X62.9107 Y27.5736 I-0.8224 J32.9898
G1 X66.1317 Y28.2894
G1 X67.596 Y28.6148 Z-3.0
G1 X73.4531 Y29.9164
G1 X74.9174 Y30.2418 Z-4.0
G1 X125.2833 Y41.4342
G1 X126.7476 Y41.7596 Z-3.0
G1 X132.6047 Y43.0612
G1 X134.069 Y43.3866 Z-4.0
G1 X150.6508 Y47.0714
G3 X153.0 Y50.0 I-0.6508 J2.9286
G1 Y60.0
G3 X150.0 Y63.0 I-3.0 J0.0
G1 X125.3918
G1 X123.8918 Z-3.0
G1 X117.8918
G1 X116.3918 Z-4.0
G1 X64.7973
G1 X63.2973 Z-3.0
G1 X57.2973
G1 X55.7973 Z-4.0
G1 X30.0
G1 F300.0 Z-6.0
G3 F800.0 X13.5 Y58.5788 I0.0 J-33.0
G3 X4.7109 Y51.2005 I16.5 J-28.5788
G3 X3.7677 Y50.0216 Z-3.0 I25.2891 J-21.2005
G3 X0.576 Y44.9409 I26.2323 J-20.0216
G3 X-0.0765 Y43.5795 Z-6.0 I29.424 J-14.9409
G3 X13.5 Y1.4212 I30.0765 J-13.5795
G3 X21.8786 Y-1.985 I16.5 J28.5788
G3 X23.3501 Y-2.323 Z-3.0 I8.1214 J31.985
G3 X29.3126 Y-2.9928 I6.6499 J32.323
G3 X30.8224 Y-2.9898 Z-6.0 I0.6874 J32.9928
G3 X62.9107 Y27.5736 I-0.8224 J32.9898
G1 X66.1317 Y28.2894
G1 X67.596 Y28.6148 Z-3.0
G1 X73.4531 Y29.9164
G1 X74.9174 Y30.2418 Z-6.0
G1 X125.2833 Y41.4342
G1 X126.7476 Y41.7596 Z-3.0
G1 X132.6047 Y43.0612
G1 X134.069 Y43.3866 Z-6.0
G1 X150.6508 Y47.0714
G3 X153.0 Y50.0 I-0.6508 J2.9286
G1 Y60.0
G3 X150.0 Y63.0 I-3.0 J0.0
G1 X125.3918
G1 X123.8918 Z-3.0
G1 X117.8918
G1 X116.3918 Z-6.0
G1 X64.7973
G1 X63.2973 Z-3.0
G1 X57.2973
G1 X55.7973 Z-6.0
G1 X30.0
G0 Z3.0
( === M5 )
( ===  )
( === M30 )
