( Made using CamBam - http://www.cambam.co.uk )
( DegemerMat 2/20/2021 2:52:07 PM )
( Post-pro: GRBL )
( T0 : 3.0 )
( === G21 G90 G40)
G21 G90
G0 Z3.0
( T0 : 3.0 )
( === T0 M6 )
( Gravure1 )
G17
( === M4 S1000 )
G0 X17.34 Y4.0
G0 Z1.0
G1 F300.0 Z-1.0
F700.0
G3X19.38Y4.4I0.03J5.27
G3X21.04Y5.52I-2.14J4.95
G3X22.16Y7.19I-3.41J3.52
G3X22.59Y9.25I-4.65J2.03
G1 Y15.65
G3X22.16Y17.69I-5.02J0.03
G3X21.04Y19.35I-4.53J-1.85
G3X19.38Y20.48I-3.52J-3.41
G3X17.34Y20.9I-2.01J-4.6
G1 X1.98
G1 Y4.0
G1 Y20.9
G1 X17.34
G2X19.38Y20.48I0.03J-5.02
G2X21.04Y19.35I-1.85J-4.53
G2X22.16Y17.69I-3.41J-3.52
G2X22.59Y15.65I-4.6J-2.01
G1 Y9.25
G2X22.16Y7.19I-5.07J-0.04
G2X21.04Y5.52I-4.53J1.85
G2X19.38Y4.4I-3.8J3.83
G2X17.34Y4.0I-2.01J4.87
G1 X1.98
G1 X17.34
G1 F300.0 Z-2.0
F700.0
G3X19.38Y4.4I0.03J5.27
G3X21.04Y5.52I-2.14J4.95
G3X22.16Y7.19I-3.41J3.52
G3X22.59Y9.25I-4.65J2.03
G1 Y15.65
G3X22.16Y17.69I-5.02J0.03
G3X21.04Y19.35I-4.53J-1.85
G3X19.38Y20.48I-3.52J-3.41
G3X17.34Y20.9I-2.01J-4.6
G1 X1.98
G1 Y4.0
G1 Y20.9
G1 X17.34
G2X19.38Y20.48I0.03J-5.02
G2X21.04Y19.35I-1.85J-4.53
G2X22.16Y17.69I-3.41J-3.52
G2X22.59Y15.65I-4.6J-2.01
G1 Y9.25
G2X22.16Y7.19I-5.07J-0.04
G2X21.04Y5.52I-4.53J1.85
G2X19.38Y4.4I-3.8J3.83
G2X17.34Y4.0I-2.01J4.87
G1 X1.98
G1 X17.34
G0 Z3.0
G0 X42.09 Y6.63
G0 Z1.0
G1 F300.0 Z-1.0
F700.0
G2X40.91Y4.75I-3.11J0.64
G2X38.73Y4.0I-2.11J2.58
G1 X31.19
G2X29.85Y4.26I-0.02J3.51
G2X28.77Y4.96I1.38J3.29
G2X28.02Y6.02I2.7J2.71
G2X27.77Y7.33I3.08J1.29
G1 Y12.3
G2X28.02Y13.59I3.17J0.04
G2X28.77Y14.64I3.1J-1.41
G2X29.85Y15.37I2.38J-2.38
G2X31.19Y15.63I1.32J-3.25
G1 X38.73
G2X40.07Y15.37I0.02J-3.51
G2X41.17Y14.64I-1.23J-3.06
G2X41.9Y13.59I-2.14J-2.25
G2X42.18Y12.3I-2.66J-1.26
G1 Y10.45
G1 X27.77 Y10.47
G1 X42.18 Y10.45
G1 Y12.3
G3X41.9Y13.59I-2.94J0.03
G3X41.17Y14.64I-2.87J-1.2
G3X40.07Y15.37I-2.33J-2.34
G3X38.73Y15.63I-1.32J-3.25
G1 X31.19
G3X29.85Y15.37I-0.02J-3.51
G3X28.77Y14.64I1.31J-3.1
G3X28.02Y13.59I2.35J-2.47
G3X27.77Y12.3I2.91J-1.25
G1 Y7.33
G3X28.02Y6.02I3.33J-0.03
G3X28.77Y4.96I3.44J1.66
G3X29.85Y4.26I2.46J2.59
G3X31.19Y4.0I1.32J3.25
G1 X38.73
G3X40.91Y4.75I0.07J3.33
G3X42.09Y6.63I-1.94J2.51
G1 F300.0 Z-2.0
F700.0
G2X40.91Y4.75I-3.11J0.64
G2X38.73Y4.0I-2.11J2.58
G1 X31.19
G2X29.85Y4.26I-0.02J3.51
G2X28.77Y4.96I1.38J3.29
G2X28.02Y6.02I2.7J2.71
G2X27.77Y7.33I3.08J1.29
G1 Y12.3
G2X28.02Y13.59I3.17J0.04
G2X28.77Y14.64I3.1J-1.41
G2X29.85Y15.37I2.38J-2.38
G2X31.19Y15.63I1.32J-3.25
G1 X38.73
G2X40.07Y15.37I0.02J-3.51
G2X41.17Y14.64I-1.23J-3.06
G2X41.9Y13.59I-2.14J-2.25
G2X42.18Y12.3I-2.66J-1.26
G1 Y10.45
G1 X27.77 Y10.47
G1 X42.18 Y10.45
G1 Y12.3
G3X41.9Y13.59I-2.94J0.03
G3X41.17Y14.64I-2.87J-1.2
G3X40.07Y15.37I-2.33J-2.34
G3X38.73Y15.63I-1.32J-3.25
G1 X31.19
G3X29.85Y15.37I-0.02J-3.51
G3X28.77Y14.64I1.31J-3.1
G3X28.02Y13.59I2.35J-2.47
G3X27.77Y12.3I2.91J-1.25
G1 Y7.33
G3X28.02Y6.02I3.33J-0.03
G3X28.77Y4.96I3.44J1.66
G3X29.85Y4.26I2.46J2.59
G3X31.19Y4.0I1.32J3.25
G1 X38.73
G3X40.91Y4.75I0.07J3.33
G3X42.09Y6.63I-1.94J2.51
G0 Z3.0
G0 X46.98 Y7.08
G0 Z1.0
G1 F300.0 Z-1.0
F700.0
G2X46.96Y7.42I3.49J0.33
G1 Y12.34
G2X47.22Y13.66I3.33J0.03
G2X47.95Y14.76I3.54J-1.54
G2X49.02Y15.48I2.38J-2.38
G2X50.36Y15.77I1.32J-2.97
G1 X58.45
G2X59.76Y15.48I0.02J-3.09
G2X60.84Y14.76I-1.13J-2.84
G2X61.56Y13.66I-2.34J-2.33
G2X61.84Y12.34I-2.81J-1.29
G3X61.56Y13.66I-3.09J0.02
G3X60.84Y14.76I-3.06J-1.23
G3X59.76Y15.48I-2.21J-2.11
G3X58.45Y15.77I-1.29J-2.81
G1 X50.36
G3X49.02Y15.48I-0.01J-3.25
G3X47.95Y14.76I1.31J-3.1
G3X47.22Y13.66I2.81J-2.64
G3X46.96Y12.34I3.08J-1.29
G1 Y7.42
G3X47.22Y6.09I3.51J-0.02
G3X47.95Y5.01I3.61J1.65
G3X49.02Y4.28I2.72J2.88
G3X50.36Y4.02I1.32J3.25
G1 X58.45
G3X59.76Y4.28I0.03J3.33
G3X60.84Y5.01I-1.41J3.25
G3X61.56Y6.09I-2.38J2.38
G3X61.84Y7.42I-2.97J1.32
G2X61.56Y6.09I-3.25J-0.01
G2X60.84Y5.01I-3.1J1.31
G2X59.76Y4.28I-2.48J2.52
G2X58.45Y4.02I-1.29J3.08
G1 X50.36
G2X49.02Y4.28I-0.02J3.51
G2X47.95Y5.01I1.65J3.61
G2X47.22Y6.09I2.88J2.72
G2X46.98Y7.08I3.25J1.32
G0 Z3.0
G0 X47.29 Y1.16
G0 Z1.0
G1 F300.0 Z-1.0
F700.0
G3X47.48Y-0.08I3.78J-0.05
G3X48.16Y-1.13I2.47J0.84
G3X50.57Y-1.98I2.23J2.5
G1 X58.21
G3X59.62Y-1.88I0.04J9.98
G3X60.79Y-1.46I-0.33J2.75
G3X61.56Y-0.5I-1.25J1.8
G3X61.84Y1.16I-3.86J1.51
G1 Y15.67
G1 Y1.16
G2X61.56Y-0.5I-4.15J-0.16
G2X60.79Y-1.46I-2.02J0.84
G2X59.62Y-1.88I-1.5J2.33
G2X58.21Y-1.98I-1.36J9.87
G1 X50.57
G2X49.28Y-1.79I-0.06J4.26
G2X48.16Y-1.13I0.82J2.68
G2X47.29Y1.16I2.16J2.13
G1 F300.0 Z-2.0
F700.0
G3X47.48Y-0.08I3.78J-0.05
G3X48.16Y-1.13I2.47J0.84
G3X50.57Y-1.98I2.23J2.5
G1 X58.21
G3X59.62Y-1.88I0.04J9.98
G3X60.79Y-1.46I-0.33J2.75
G3X61.56Y-0.5I-1.25J1.8
G3X61.84Y1.16I-3.86J1.51
G1 Y15.67
G1 Y1.16
G2X61.56Y-0.5I-4.15J-0.16
G2X60.79Y-1.46I-2.02J0.84
G2X59.62Y-1.88I-1.5J2.33
G2X58.21Y-1.98I-1.36J9.87
G1 X50.57
G2X49.28Y-1.79I-0.06J4.26
G2X48.16Y-1.13I0.82J2.68
G2X47.29Y1.16I2.16J2.13
G0 Z3.0
G0 X61.84 Y12.34
G0 Z0.0
G1 F300.0 Z-2.0
F700.0
G3X61.56Y13.66I-3.09J0.02
G3X60.84Y14.76I-3.06J-1.23
G3X59.76Y15.48I-2.21J-2.11
G3X58.45Y15.77I-1.29J-2.81
G1 X50.36
G3X49.02Y15.48I-0.01J-3.25
G3X47.95Y14.76I1.31J-3.1
G3X47.22Y13.66I2.81J-2.64
G3X46.96Y12.34I3.08J-1.29
G1 Y7.42
G3X47.22Y6.09I3.51J-0.02
G3X47.95Y5.01I3.61J1.65
G3X49.02Y4.28I2.72J2.88
G3X50.36Y4.02I1.32J3.25
G1 X58.45
G3X59.76Y4.28I0.03J3.33
G3X60.84Y5.01I-1.41J3.25
G3X61.56Y6.09I-2.38J2.38
G3X61.84Y7.42I-2.97J1.32
G2X61.56Y6.09I-3.25J-0.01
G2X60.84Y5.01I-3.1J1.31
G2X59.76Y4.28I-2.48J2.52
G2X58.45Y4.02I-1.29J3.08
G1 X50.36
G2X49.02Y4.28I-0.02J3.51
G2X47.95Y5.01I1.65J3.61
G2X47.22Y6.09I2.88J2.72
G2X46.96Y7.42I3.25J1.32
G1 Y12.34
G2X47.22Y13.66I3.33J0.03
G2X47.95Y14.76I3.54J-1.54
G2X49.02Y15.48I2.38J-2.38
G2X50.36Y15.77I1.32J-2.97
G1 X58.45
G2X59.76Y15.48I0.02J-3.09
G2X60.84Y14.76I-1.13J-2.84
G2X61.56Y13.66I-2.34J-2.33
G2X61.84Y12.34I-2.81J-1.29
G0 Z3.0
G0 X66.65
G0 Z1.0
G1 F300.0 Z-1.0
F700.0
G2X66.91Y13.59I3.17J0.0
G2X67.66Y14.64I3.1J-1.41
G2X68.73Y15.37I2.38J-2.38
G2X70.07Y15.63I1.32J-3.25
G1 X77.62
G2X78.95Y15.37I0.02J-3.51
G2X80.05Y14.64I-1.23J-3.06
G2X80.78Y13.59I-2.14J-2.25
G2X81.06Y12.3I-2.66J-1.26
G1 Y10.45
G1 X66.65 Y10.47
G1 X81.06 Y10.45
G1 Y12.3
G3X80.78Y13.59I-2.94J0.03
G3X80.05Y14.64I-2.87J-1.2
G3X78.95Y15.37I-2.33J-2.34
G3X77.62Y15.63I-1.32J-3.25
G1 X70.07
G3X68.73Y15.37I-0.02J-3.51
G3X67.66Y14.64I1.31J-3.1
G3X66.91Y13.59I2.35J-2.47
G3X66.65Y12.3I2.91J-1.25
G1 Y7.33
G3X66.91Y6.02I3.33J-0.03
G3X67.66Y4.96I3.44J1.66
G3X68.73Y4.26I2.46J2.59
G3X70.07Y4.0I1.32J3.25
G1 X77.62
G3X79.8Y4.75I0.07J3.33
G3X80.97Y6.63I-1.94J2.51
G2X79.8Y4.75I-3.11J0.64
G2X77.62Y4.0I-2.11J2.58
G1 X70.07
G2X68.73Y4.26I-0.02J3.51
G2X67.66Y4.96I1.38J3.29
G2X66.91Y6.02I2.7J2.71
G2X66.65Y7.33I3.08J1.29
G1 Y12.3
G2Y12.34I3.17J0.04
G1 F300.0 Z-2.0
F700.0
G2X66.91Y13.59I3.17J0.0
G2X67.66Y14.64I3.1J-1.41
G2X68.73Y15.37I2.38J-2.38
G2X70.07Y15.63I1.32J-3.25
G1 X77.62
G2X78.95Y15.37I0.02J-3.51
G2X80.05Y14.64I-1.23J-3.06
G2X80.78Y13.59I-2.14J-2.25
G2X81.06Y12.3I-2.66J-1.26
G1 Y10.45
G1 X66.65 Y10.47
G1 X81.06 Y10.45
G1 Y12.3
G3X80.78Y13.59I-2.94J0.03
G3X80.05Y14.64I-2.87J-1.2
G3X78.95Y15.37I-2.33J-2.34
G3X77.62Y15.63I-1.32J-3.25
G1 X70.07
G3X68.73Y15.37I-0.02J-3.51
G3X67.66Y14.64I1.31J-3.1
G3X66.91Y13.59I2.35J-2.47
G3X66.65Y12.3I2.91J-1.25
G1 Y7.33
G3X66.91Y6.02I3.33J-0.03
G3X67.66Y4.96I3.44J1.66
G3X68.73Y4.26I2.46J2.59
G3X70.07Y4.0I1.32J3.25
G1 X77.62
G3X79.8Y4.75I0.07J3.33
G3X80.97Y6.63I-1.94J2.51
G2X79.8Y4.75I-3.11J0.64
G2X77.62Y4.0I-2.11J2.58
G1 X70.07
G2X68.73Y4.26I-0.02J3.51
G2X67.66Y4.96I1.38J3.29
G2X66.91Y6.02I2.7J2.71
G2X66.65Y7.33I3.08J1.29
G1 Y12.3
G2Y12.34I3.17J0.04
G0 Z3.0
G0 X87.84 Y15.72
G0 Z1.0
G1 F300.0 Z-1.0
G1 F700.0 Y4.0
G1 Y15.72
G0 Z3.0
G0 X101.08 Y4.23
G0 Z1.0
G1 F300.0 Z-1.0
G1 F700.0 Y12.53
G3X100.93Y13.8I-4.81J0.07
G3X100.3Y14.92I-2.42J-0.61
G3X99.15Y15.56I-1.74J-1.77
G3X97.84Y15.72I-1.24J-4.87
G1 X91.63
G3X90.16Y15.55I-0.03J-6.48
G3X88.96Y14.99I0.71J-3.05
G3X88.14Y14.01I1.58J-2.15
G3X87.84Y12.53I2.99J-1.39
G2X88.14Y14.01I3.3J0.09
G2X88.96Y14.99I2.4J-1.17
G2X90.16Y15.55I1.9J-2.49
G2X91.63Y15.72I1.45J-6.32
G1 X97.84
G2X99.15Y15.56I0.07J-5.02
G2X100.3Y14.92I-0.59J-2.41
G2X100.93Y13.8I-1.8J-1.73
G2X101.08Y12.53I-4.66J-1.2
G1 Y4.23
G0 Z3.0
G0 Y12.53
G0 Z0.0
G1 F300.0 Z-1.0
F700.0
G2X101.38Y14.01I3.3J0.09
G2X102.18Y14.99I2.5J-1.21
G2X103.38Y15.55I1.9J-2.49
G2X104.85Y15.72I1.45J-6.32
G1 X111.06
G2X112.38Y15.56I0.07J-5.07
G2X113.55Y14.92I-0.62J-2.5
G2X114.19Y13.81I-1.75J-1.74
G2X114.34Y12.53I-4.51J-1.21
G1 Y4.23
G1 Y12.53
G3X114.19Y13.81I-4.67J0.07
G3X113.55Y14.92I-2.39J-0.63
G3X112.38Y15.56I-1.78J-1.86
G3X111.06Y15.72I-1.25J-4.91
G1 X104.85
G3X103.38Y15.55I-0.03J-6.48
G3X102.18Y14.99I0.71J-3.05
G3X101.38Y14.01I1.7J-2.19
G3X101.08Y12.53I2.99J-1.39
G0 Z3.0
G0 Y4.23
G0 Z0.0
G1 F300.0 Z-2.0
G1 F700.0 Y12.53
G3X100.93Y13.8I-4.81J0.07
G3X100.3Y14.92I-2.42J-0.61
G3X99.15Y15.56I-1.74J-1.77
G3X97.84Y15.72I-1.24J-4.87
G1 X91.63
G3X90.16Y15.55I-0.03J-6.48
G3X88.96Y14.99I0.71J-3.05
G3X88.14Y14.01I1.58J-2.15
G3X87.84Y12.53I2.99J-1.39
G2X88.14Y14.01I3.3J0.09
G2X88.96Y14.99I2.4J-1.17
G2X90.16Y15.55I1.9J-2.49
G2X91.63Y15.72I1.45J-6.32
G1 X97.84
G2X99.15Y15.56I0.07J-5.02
G2X100.3Y14.92I-0.59J-2.41
G2X100.93Y13.8I-1.8J-1.73
G2X101.08Y12.53I-4.66J-1.2
G1 Y4.23
G0 Z3.0
G0 Y12.53
G0 Z-1.0
G1 F300.0 Z-2.0
F700.0
G2X101.38Y14.01I3.3J0.09
G2X102.18Y14.99I2.5J-1.21
G2X103.38Y15.55I1.9J-2.49
G2X104.85Y15.72I1.45J-6.32
G1 X111.06
G2X112.38Y15.56I0.07J-5.07
G2X113.55Y14.92I-0.62J-2.5
G2X114.19Y13.81I-1.75J-1.74
G2X114.34Y12.53I-4.51J-1.21
G1 Y4.23
G1 Y12.53
G3X114.19Y13.81I-4.67J0.07
G3X113.55Y14.92I-2.39J-0.63
G3X112.38Y15.56I-1.78J-1.86
G3X111.06Y15.72I-1.25J-4.91
G1 X104.85
G3X103.38Y15.55I-0.03J-6.48
G3X102.18Y14.99I0.71J-3.05
G3X101.38Y14.01I1.7J-2.19
G3X101.08Y12.53I2.99J-1.39
G0 Z3.0
G0 X87.84 Y15.72
G0 Z0.0
G1 F300.0 Z-2.0
G1 F700.0 Y4.0
G1 Y15.72
G0 Z3.0
G0 X120.83 Y12.63
G0 Z1.0
G1 F300.0 Z-1.0
F700.0
G2X121.07Y13.59I3.16J-0.3
G2X121.82Y14.64I3.1J-1.41
G2X122.9Y15.37I2.38J-2.38
G2X124.23Y15.63I1.32J-3.25
G1 X131.78
G2X133.12Y15.37I0.02J-3.51
G2X134.22Y14.64I-1.23J-3.06
G2X134.95Y13.59I-2.14J-2.25
G2X135.23Y12.3I-2.66J-1.26
G1 Y10.45
G1 X120.81 Y10.47
G1 X135.23 Y10.45
G1 Y12.3
G3X134.95Y13.59I-2.94J0.03
G3X134.22Y14.64I-2.87J-1.2
G3X133.12Y15.37I-2.33J-2.34
G3X131.78Y15.63I-1.32J-3.25
G1 X124.23
G3X122.9Y15.37I-0.02J-3.51
G3X121.82Y14.64I1.31J-3.1
G3X121.07Y13.59I2.35J-2.47
G3X120.81Y12.3I2.91J-1.25
G1 Y7.33
G3X121.07Y6.02I3.33J-0.03
G3X121.82Y4.96I3.44J1.66
G3X122.9Y4.26I2.46J2.59
G3X124.23Y4.0I1.32J3.25
G1 X131.78
G3X133.96Y4.75I0.07J3.33
G3X135.13Y6.63I-1.94J2.51
G2X133.96Y4.75I-3.11J0.64
G2X131.78Y4.0I-2.11J2.58
G1 X124.23
G2X122.9Y4.26I-0.02J3.51
G2X121.82Y4.96I1.38J3.29
G2X121.07Y6.02I2.7J2.71
G2X120.81Y7.33I3.08J1.29
G1 Y12.3
G2X120.83Y12.63I3.17J0.04
G1 F300.0 Z-2.0
F700.0
G2X121.07Y13.59I3.16J-0.3
G2X121.82Y14.64I3.1J-1.41
G2X122.9Y15.37I2.38J-2.38
G2X124.23Y15.63I1.32J-3.25
G1 X131.78
G2X133.12Y15.37I0.02J-3.51
G2X134.22Y14.64I-1.23J-3.06
G2X134.95Y13.59I-2.14J-2.25
G2X135.23Y12.3I-2.66J-1.26
G1 Y10.45
G1 X120.81 Y10.47
G1 X135.23 Y10.45
G1 Y12.3
G3X134.95Y13.59I-2.94J0.03
G3X134.22Y14.64I-2.87J-1.2
G3X133.12Y15.37I-2.33J-2.34
G3X131.78Y15.63I-1.32J-3.25
G1 X124.23
G3X122.9Y15.37I-0.02J-3.51
G3X121.82Y14.64I1.31J-3.1
G3X121.07Y13.59I2.35J-2.47
G3X120.81Y12.3I2.91J-1.25
G1 Y7.33
G3X121.07Y6.02I3.33J-0.03
G3X121.82Y4.96I3.44J1.66
G3X122.9Y4.26I2.46J2.59
G3X124.23Y4.0I1.32J3.25
G1 X131.78
G3X133.96Y4.75I0.07J3.33
G3X135.13Y6.63I-1.94J2.51
G2X133.96Y4.75I-3.11J0.64
G2X131.78Y4.0I-2.11J2.58
G1 X124.23
G2X122.9Y4.26I-0.02J3.51
G2X121.82Y4.96I1.38J3.29
G2X121.07Y6.02I2.7J2.71
G2X120.81Y7.33I3.08J1.29
G1 Y12.3
G2X120.83Y12.63I3.17J0.04
G0 Z3.0
G0 X142.0 Y4.0
G0 Z1.0
G1 F300.0 Z-1.0
G1 F700.0 Y15.72
G1 Y4.0
G0 Z3.0
G0 Y10.56
G0 Z1.0
G1 F300.0 Z-1.0
F700.0
G2X142.47Y12.77I4.98J0.09
G2X143.62Y14.38I5.15J-2.44
G2X145.07Y15.37I3.61J-3.76
G2X146.45Y15.72I1.52J-3.1
G1 X151.12
G2X152.03Y15.53I-0.03J-2.46
G2X152.9Y14.95I-0.83J-2.16
G2X153.51Y13.91I-2.25J-2.02
G2X153.74Y12.39I-4.21J-1.43
G1 Y11.08
G1 Y12.39
G3X153.51Y13.89I-4.35J0.09
G3X152.9Y14.92I-2.86J-0.99
G3X152.03Y15.53I-1.66J-1.44
G3X151.12Y15.72I-0.94J-2.27
G1 X146.45
G3X145.07Y15.37I0.14J-3.45
G3X143.62Y14.38I2.16J-4.75
G3X142.47Y12.77I4.0J-4.06
G3X142.0Y10.56I4.51J-2.11
G1 F300.0 Z-2.0
F700.0
G2X142.47Y12.77I4.98J0.09
G2X143.62Y14.38I5.15J-2.44
G2X145.07Y15.37I3.61J-3.76
G2X146.45Y15.72I1.52J-3.1
G1 X151.12
G2X152.03Y15.53I-0.03J-2.46
G2X152.9Y14.95I-0.83J-2.16
G2X153.51Y13.91I-2.25J-2.02
G2X153.74Y12.39I-4.21J-1.43
G1 Y11.08
G1 Y12.39
G3X153.51Y13.89I-4.35J0.09
G3X152.9Y14.92I-2.86J-0.99
G3X152.03Y15.53I-1.66J-1.44
G3X151.12Y15.72I-0.94J-2.27
G1 X146.45
G3X145.07Y15.37I0.14J-3.45
G3X143.62Y14.38I2.16J-4.75
G3X142.47Y12.77I4.0J-4.06
G3X142.0Y10.56I4.51J-2.11
G0 Z3.0
G0 Y4.0
G0 Z0.0
G1 F300.0 Z-2.0
G1 F700.0 Y15.72
G1 Y4.0
G0 Z3.0
G0 X182.49
G0 Z1.0
G1 F300.0 Z-1.0
G1 F700.0 Y20.9
G1 X183.76
G1 X195.01 Y4.0
G1 X196.01
G1 X207.33 Y20.9
G1 X208.53
G1 Y4.0
G1 Y20.9
G1 X207.33
G1 X196.01 Y4.0
G1 X195.01
G1 X183.76 Y20.9
G1 X182.49
G1 Y4.0
G1 F300.0 Z-2.0
G1 F700.0 Y20.9
G1 X183.76
G1 X195.01 Y4.0
G1 X196.01
G1 X207.33 Y20.9
G1 X208.53
G1 Y4.0
G1 Y20.9
G1 X207.33
G1 X196.01 Y4.0
G1 X195.01
G1 X183.76 Y20.9
G1 X182.49
G1 Y4.0
G0 Z3.0
G0 X215.99 Y6.46
G0 Z1.0
G1 F300.0 Z-1.0
F700.0
G2X215.98Y6.67I2.64J0.19
G1 Y7.8
G2X216.19Y8.83I2.49J0.03
G2X216.76Y9.67I2.46J-1.03
G2X217.6Y10.26I2.01J-1.99
G2X218.65Y10.47I1.04J-2.44
G1 X226.55
G2X228.24Y10.19I0.05J-4.91
G2X229.58Y9.48I-1.33J-4.14
G2X230.44Y8.5I-1.8J-2.46
G2X230.77Y7.42I-1.74J-1.12
G1 Y6.67
G2X230.56Y5.62I-2.65J-0.02
G2X229.97Y4.77I-2.29J0.96
G2X229.11Y4.21I-2.02J2.17
G2X228.08Y4.0I-1.0J2.28
G1 X218.65
G2X217.6Y4.21I-0.02J2.65
G2X216.76Y4.77I1.25J2.79
G2X216.19Y5.62I1.89J1.87
G2X215.99Y6.46I2.44J1.04
G2X215.98Y6.67I2.64J0.19
G1 Y7.8
G2X216.19Y8.83I2.49J0.03
G2X216.76Y9.67I2.46J-1.03
G2X217.6Y10.26I2.01J-1.99
G2X218.65Y10.47I1.04J-2.44
G1 X226.55
G2X228.24Y10.19I0.05J-4.91
G2X229.58Y9.48I-1.33J-4.14
G2X230.44Y8.5I-1.8J-2.46
G2X230.77Y7.42I-1.74J-1.12
G1 Y6.67
G2X230.56Y5.62I-2.65J-0.02
G2X229.97Y4.77I-2.29J0.96
G2X229.11Y4.21I-2.02J2.17
G2X228.08Y4.0I-1.0J2.28
G1 X218.65
G2X217.6Y4.21I-0.02J2.65
G2X216.76Y4.77I1.25J2.79
G2X216.19Y5.62I1.89J1.87
G2X215.99Y6.46I2.44J1.04
G0 Z3.0
G0 X217.15 Y12.88
G0 Z1.0
G1 F300.0 Z-1.0
G1 F700.0 Y13.26
G2X217.34Y14.22I2.45J0.02
G2X217.86Y14.99I2.21J-0.92
G2X218.65Y15.51I1.83J-1.96
G2X219.59Y15.72I0.93J-1.95
G1 X228.31
G2X229.25Y15.51I0.01J-2.16
G2X230.05Y14.99I-0.85J-2.18
G2X230.56Y14.22I-1.7J-1.69
G2X230.77Y13.26I-2.01J-0.94
G1 Y4.0
G1 Y13.26
G3X230.56Y14.22I-2.22J0.02
G3X230.05Y14.99I-2.21J-0.92
G3X229.25Y15.51I-1.64J-1.67
G3X228.31Y15.72I-0.93J-1.95
G1 X219.59
G3X218.65Y15.51I-0.01J-2.16
G3X217.86Y14.99I1.04J-2.48
G3X217.34Y14.22I1.7J-1.69
G3X217.15Y13.26I2.26J-0.94
G1 Y12.88
G1 F300.0 Z-2.0
G1 F700.0 Y13.26
G2X217.34Y14.22I2.45J0.02
G2X217.86Y14.99I2.21J-0.92
G2X218.65Y15.51I1.83J-1.96
G2X219.59Y15.72I0.93J-1.95
G1 X228.31
G2X229.25Y15.51I0.01J-2.16
G2X230.05Y14.99I-0.85J-2.18
G2X230.56Y14.22I-1.7J-1.69
G2X230.77Y13.26I-2.01J-0.94
G1 Y4.0
G1 Y13.26
G3X230.56Y14.22I-2.22J0.02
G3X230.05Y14.99I-2.21J-0.92
G3X229.25Y15.51I-1.64J-1.67
G3X228.31Y15.72I-0.93J-1.95
G1 X219.59
G3X218.65Y15.51I-0.01J-2.16
G3X217.86Y14.99I1.04J-2.48
G3X217.34Y14.22I1.7J-1.69
G3X217.15Y13.26I2.26J-0.94
G1 Y12.88
G0 Z3.0
G0 X217.89 Y10.36
G0 Z0.0
G1 F300.0 Z-2.0
F700.0
G2X218.65Y10.47I0.74J-2.54
G1 X226.55
G2X228.24Y10.19I0.05J-4.91
G2X229.58Y9.48I-1.33J-4.14
G2X230.44Y8.5I-1.8J-2.46
G2X230.77Y7.42I-1.74J-1.12
G1 Y6.67
G2X230.56Y5.62I-2.65J-0.02
G2X229.97Y4.77I-2.29J0.96
G2X229.11Y4.21I-2.02J2.17
G2X228.08Y4.0I-1.0J2.28
G1 X218.65
G2X217.6Y4.21I-0.02J2.65
G2X216.76Y4.77I1.25J2.79
G2X216.19Y5.62I1.89J1.87
G2X215.98Y6.67I2.44J1.04
G1 Y7.8
G2X216.19Y8.83I2.49J0.03
G2X216.76Y9.67I2.46J-1.03
G2X217.6Y10.26I2.01J-1.99
G2X217.89Y10.36I1.04J-2.44
G2X218.65Y10.47I0.74J-2.54
G1 X226.55
G2X228.24Y10.19I0.05J-4.91
G2X229.58Y9.48I-1.33J-4.14
G2X230.44Y8.5I-1.8J-2.46
G2X230.77Y7.42I-1.74J-1.12
G1 Y6.67
G2X230.56Y5.62I-2.65J-0.02
G2X229.97Y4.77I-2.29J0.96
G2X229.11Y4.21I-2.02J2.17
G2X228.08Y4.0I-1.0J2.28
G1 X218.65
G2X217.6Y4.21I-0.02J2.65
G2X216.76Y4.77I1.25J2.79
G2X216.19Y5.62I1.89J1.87
G2X215.98Y6.67I2.44J1.04
G1 Y7.8
G2X216.19Y8.83I2.49J0.03
G2X216.76Y9.67I2.46J-1.03
G2X217.6Y10.26I2.01J-1.99
G2X217.89Y10.36I1.04J-2.44
G0 Z3.0
G0 X236.54 Y15.72
G0 Z1.0
G1 F300.0 Z-1.0
G1 F700.0 X248.87
G1 X236.54
G0 Z3.0
G0 X249.76 Y8.57
G0 Z1.0
G1 F300.0 Z-1.0
G1 F700.0 Y6.88
G2X249.5Y5.69I-2.74J-0.03
G2X248.87Y4.77I-2.98J1.39
G2X248.07Y4.19I-1.93J1.79
G2X247.3Y4.0I-0.83J1.75
G1 X243.24
G2X242.33Y4.09I0.15J5.98
G2X241.27Y4.52I0.78J3.47
G2X240.4Y5.38I1.55J2.42
G2X240.03Y6.88I2.33J1.38
G1 Y18.44
G1 Y6.88
G3X240.4Y5.38I2.76J-0.11
G3X241.27Y4.52I2.42J1.55
G3X242.33Y4.09I1.83J3.05
G3X243.24Y4.0I1.06J5.88
G1 X247.3
G3X248.07Y4.19I-0.06J1.94
G3X248.87Y4.77I-1.13J2.37
G3X249.5Y5.69I-2.34J2.3
G3X249.76Y6.88I-2.48J1.16
G1 Y8.57
G1 F300.0 Z-2.0
G1 F700.0 Y6.88
G2X249.5Y5.69I-2.74J-0.03
G2X248.87Y4.77I-2.98J1.39
G2X248.07Y4.19I-1.93J1.79
G2X247.3Y4.0I-0.83J1.75
G1 X243.24
G2X242.33Y4.09I0.15J5.98
G2X241.27Y4.52I0.78J3.47
G2X240.4Y5.38I1.55J2.42
G2X240.03Y6.88I2.33J1.38
G1 Y18.44
G1 Y6.88
G3X240.4Y5.38I2.76J-0.11
G3X241.27Y4.52I2.42J1.55
G3X242.33Y4.09I1.83J3.05
G3X243.24Y4.0I1.06J5.88
G1 X247.3
G3X248.07Y4.19I-0.06J1.94
G3X248.87Y4.77I-1.13J2.37
G3X249.5Y5.69I-2.34J2.3
G3X249.76Y6.88I-2.48J1.16
G1 Y8.57
G0 Z3.0
G0 X248.87 Y15.72
G0 Z0.0
G1 F300.0 Z-2.0
G1 F700.0 X236.54
G1 X248.87
G0 Z3.0
( === M5)
( === M30)
