( Made using CamBam - http://www.cambam.co.uk )
( DegemerMat2 4/9/2021 3:09:59 PM )
( Post processor: eh-Default )
( === ( T0 : 3.0 ) )
( ===  )
( === G21 G90 G64 G40 )
G21 G90
G0 Z4.0
( remove G64, M4 S1000,      )
( Gravure1 )
G64 G17
M4 S1000
G0 X6.5039 Y10.0
G0 Z1.0
G1 F300.0 Z-1.5
G1 F800.0 X6.4746 Y20.7813
G1 X17.4609
G1 Y10.0
G1 Y20.7813
G1 X20.2441
G1 X17.4609
G1 Y31.0645
G1 Y20.7813
G1 X6.4746
G1 Y31.123
G1 Y20.7813
G1 X3.75
G1 X6.4746
G1 X6.5039 Y10.0
G1 F300.0 Z-3.0
G1 F800.0 X6.4746 Y20.7813
G1 X17.4609
G1 Y10.0
G1 Y20.7813
G1 X20.2441
G1 X17.4609
G1 Y31.0645
G1 Y20.7813
G1 X6.4746
G1 Y31.123
G1 Y20.7813
G1 X3.75
G1 X6.4746
G1 X6.5039 Y10.0
G0 Z4.0
G0 X36.6211 Y31.0938
G0 Z1.0
G1 F300.0 Z-1.5
G1 F800.0 X27.4512 Y10.0293
G2 X31.9336 Y15.1563 I21.4691 J-14.2472
G2 X36.5625 Y18.291 I14.4798 J-16.3964
G2 X41.0449 Y19.6973 I6.6915 J-13.4822
G2 X45.0586 Y19.7852 I2.327 J-14.5763
G3 X41.0449 Y19.6973 I-1.6867 J-14.6638
G3 X36.5625 Y18.291 I2.2097 J-14.8903
G3 X31.9336 Y15.1563 I9.8495 J-19.5291
G3 X27.4512 Y10.0293 I16.9889 J-19.376
G1 X36.6211 Y31.0938
G1 X44.9707 Y10.0293
G1 X36.6211 Y31.0938
G1 F300.0 Z-3.0
G1 F800.0 X27.4512 Y10.0293
G2 X31.9336 Y15.1563 I21.4691 J-14.2472
G2 X36.5625 Y18.291 I14.4798 J-16.3964
G2 X41.0449 Y19.6973 I6.6915 J-13.4822
G2 X45.0586 Y19.7852 I2.327 J-14.5763
G3 X41.0449 Y19.6973 I-1.6867 J-14.6638
G3 X36.5625 Y18.291 I2.2097 J-14.8903
G3 X31.9336 Y15.1563 I9.8495 J-19.5291
G3 X27.4512 Y10.0293 I16.9889 J-19.376
G1 X36.6211 Y31.0938
G1 X44.9707 Y10.0293
G1 X36.6211 Y31.0938
G0 Z4.0
G0 X53.4961 Y10.0
G0 Z1.0
G1 F300.0 Z-1.5
G1 F800.0 Y31.2695
G1 Y20.7813
G2 X53.877 Y24.6191 I22.6215 J-0.307
G2 X54.9902 Y27.959 I11.8433 J-2.0923
G2 X56.9824 Y30.3027 I5.8218 J-2.9299
G2 X60.0586 Y31.2109 I2.9203 J-4.2275
G2 X61.7578 Y30.6543 I0.0706 J-2.6563
G2 X62.9297 Y29.3359 I-2.3271 J-3.2485
G2 X63.5449 Y27.6367 I-4.9939 J-2.7691
G2 X63.6328 Y26.0254 I-5.0307 J-1.0825
G2 X62.666 Y23.7988 I-4.3734 J0.5758
G2 X60.7324 Y22.2168 I-4.9934 J4.1304
G2 X58.0371 Y21.2207 I-4.9443 J9.2341
G2 X54.9316 Y20.8691 I-3.3535 J15.7312
G1 X64.6875 Y10.0
G1 X54.9316 Y20.8691
G3 X58.0371 Y21.2207 I-0.2494 J16.0945
G3 X60.7324 Y22.2168 I-2.2484 J10.2286
G3 X62.666 Y23.7988 I-3.0599 J5.7126
G3 X63.6328 Y26.0254 I-3.4069 J2.8025
G3 X63.5449 Y27.6367 I-5.1158 J0.529
G3 X62.9297 Y29.3359 I-5.608 J-1.0695
G3 X61.7578 Y30.6543 I-3.4993 J-1.9305
G3 X60.0586 Y31.2109 I-1.6287 J-2.0998
G3 X56.9824 Y30.3027 I-0.1558 J-5.136
G3 X54.9902 Y27.959 I3.8302 J-5.2742
G3 X53.877 Y24.6191 I10.7278 J-5.4314
G3 X53.4961 Y20.7813 I22.2385 J-4.1447
G1 Y10.0
G1 F300.0 Z-3.0
G1 F800.0 Y31.2695
G1 Y20.7813
G2 X53.877 Y24.6191 I22.6215 J-0.307
G2 X54.9902 Y27.959 I11.8433 J-2.0923
G2 X56.9824 Y30.3027 I5.8218 J-2.9299
G2 X60.0586 Y31.2109 I2.9203 J-4.2275
G2 X61.7578 Y30.6543 I0.0706 J-2.6563
G2 X62.9297 Y29.3359 I-2.3271 J-3.2485
G2 X63.5449 Y27.6367 I-4.9939 J-2.7691
G2 X63.6328 Y26.0254 I-5.0307 J-1.0825
G2 X62.666 Y23.7988 I-4.3734 J0.5758
G2 X60.7324 Y22.2168 I-4.9934 J4.1304
G2 X58.0371 Y21.2207 I-4.9443 J9.2341
G2 X54.9316 Y20.8691 I-3.3535 J15.7312
G1 X64.6875 Y10.0
G1 X54.9316 Y20.8691
G3 X58.0371 Y21.2207 I-0.2494 J16.0945
G3 X60.7324 Y22.2168 I-2.2484 J10.2286
G3 X62.666 Y23.7988 I-3.0599 J5.7126
G3 X63.6328 Y26.0254 I-3.4069 J2.8025
G3 X63.5449 Y27.6367 I-5.1158 J0.529
G3 X62.9297 Y29.3359 I-5.608 J-1.0695
G3 X61.7578 Y30.6543 I-3.4993 J-1.9305
G3 X60.0586 Y31.2109 I-1.6287 J-2.0998
G3 X56.9824 Y30.3027 I-0.1558 J-5.136
G3 X54.9902 Y27.959 I3.8302 J-5.2742
G3 X53.877 Y24.6191 I10.7278 J-5.4314
G3 X53.4961 Y20.7813 I22.2385 J-4.1447
G1 Y10.0
G0 Z4.0
G0 X72.9199 Y10.0293
G0 Z1.0
G1 F300.0 Z-1.5
G1 F800.0 Y31.0059
G1 Y21.3086
G2 X73.8867 Y25.8496 I15.0945 J-0.8402
G2 X75.7324 Y28.8965 I9.3667 J-3.5916
G2 X78.0762 Y30.5957 I5.0682 J-4.5246
G2 X80.625 Y31.1816 I2.9647 J-7.0597
G2 X83.7598 Y30.6543 I0.4867 J-6.6875
G2 X86.0449 Y28.8965 I-2.4043 J-5.4898
G2 X87.4219 Y26.2012 I-5.7183 J-4.6207
G2 X87.8613 Y22.8613 I-10.4494 J-3.0738
G2 X87.3047 Y19.3164 I-12.3589 J0.1245
G2 X85.9277 Y16.2109 I-14.187 J4.4325
G2 X83.9941 Y13.6621 I-12.715 J7.638
G2 X81.7969 Y11.7578 I-10.277 J9.6383
G2 X79.5117 Y10.5859 I-5.9408 J8.7706
G2 X77.4609 Y10.2637 I-1.8426 J5.0391
G2 X76.6699 Y10.3223 I3.0896 J47.0787
G2 X75.9961 Y10.4102 I0.5789 J7.0654
G3 X75.3223 Y10.5273 I-12.6299 J-70.6258
G3 X74.5605 Y10.7324 I-19.7329 J-71.7763
G1 X75.3223 Y10.5273
G2 X75.9961 Y10.4102 I-6.0213 J-36.6184
G3 X76.6699 Y10.3223 I1.2394 J6.8755
G3 X77.4609 Y10.2637 I4.1003 J49.9854
G3 X79.5117 Y10.5859 I0.2083 J5.3606
G3 X81.7969 Y11.7578 I-3.6533 J9.9379
G3 X83.9941 Y13.6621 I-8.0746 J11.5367
G3 X85.9277 Y16.2109 I-10.7807 J10.1863
G3 X87.3047 Y19.3164 I-12.8053 J7.5358
G3 X87.8613 Y22.8613 I-11.8027 J3.6695
G3 X87.4219 Y26.2012 I-10.8898 J0.266
G3 X86.0449 Y28.8965 I-7.0947 J-1.9251
G3 X83.7598 Y30.6543 I-4.6898 J-3.7325
G3 X80.625 Y31.1816 I-2.6481 J-6.1604
G3 X78.0762 Y30.5957 I0.4156 J-7.6447
G3 X75.7324 Y28.8965 I2.7239 J-6.2231
G3 X73.8867 Y25.8496 I7.5207 J-6.6383
G3 X72.9199 Y21.3086 I14.1293 J-5.3816
G1 Y31.0059
G1 Y10.0293
G1 F300.0 Z-3.0
G1 F800.0 Y31.0059
G1 Y21.3086
G2 X73.8867 Y25.8496 I15.0945 J-0.8402
G2 X75.7324 Y28.8965 I9.3667 J-3.5916
G2 X78.0762 Y30.5957 I5.0682 J-4.5246
G2 X80.625 Y31.1816 I2.9647 J-7.0597
G2 X83.7598 Y30.6543 I0.4867 J-6.6875
G2 X86.0449 Y28.8965 I-2.4043 J-5.4898
G2 X87.4219 Y26.2012 I-5.7183 J-4.6207
G2 X87.8613 Y22.8613 I-10.4494 J-3.0738
G2 X87.3047 Y19.3164 I-12.3589 J0.1245
G2 X85.9277 Y16.2109 I-14.187 J4.4325
G2 X83.9941 Y13.6621 I-12.715 J7.638
G2 X81.7969 Y11.7578 I-10.277 J9.6383
G2 X79.5117 Y10.5859 I-5.9408 J8.7706
G2 X77.4609 Y10.2637 I-1.8426 J5.0391
G2 X76.6699 Y10.3223 I3.0896 J47.0787
G2 X75.9961 Y10.4102 I0.5789 J7.0654
G3 X75.3223 Y10.5273 I-12.6299 J-70.6258
G3 X74.5605 Y10.7324 I-19.7329 J-71.7763
G1 X75.3223 Y10.5273
G2 X75.9961 Y10.4102 I-6.0213 J-36.6184
G3 X76.6699 Y10.3223 I1.2394 J6.8755
G3 X77.4609 Y10.2637 I4.1003 J49.9854
G3 X79.5117 Y10.5859 I0.2083 J5.3606
G3 X81.7969 Y11.7578 I-3.6533 J9.9379
G3 X83.9941 Y13.6621 I-8.0746 J11.5367
G3 X85.9277 Y16.2109 I-10.7807 J10.1863
G3 X87.3047 Y19.3164 I-12.8053 J7.5358
G3 X87.8613 Y22.8613 I-11.8027 J3.6695
G3 X87.4219 Y26.2012 I-10.8898 J0.266
G3 X86.0449 Y28.8965 I-7.0947 J-1.9251
G3 X83.7598 Y30.6543 I-4.6898 J-3.7325
G3 X80.625 Y31.1816 I-2.6481 J-6.1604
G3 X78.0762 Y30.5957 I0.4156 J-7.6447
G3 X75.7324 Y28.8965 I2.7239 J-6.2231
G3 X73.8867 Y25.8496 I7.5207 J-6.6383
G3 X72.9199 Y21.3086 I14.1293 J-5.3816
G1 Y31.0059
G1 Y10.0293
G0 Z4.0
G0 X98.6133 Y10.0
G0 Z1.0
G1 F300.0 Z-1.5
G1 F800.0 X101.9824 Y16.0938
G1 X95.1563 Y31.4746
G1 X101.9824 Y16.0938
G1 X110.5371 Y31.4746
G1 X98.6133 Y10.0
G1 F300.0 Z-3.0
G1 F800.0 X101.9824 Y16.0938
G1 X95.1563 Y31.4746
G1 X101.9824 Y16.0938
G1 X110.5371 Y31.4746
G1 X98.6133 Y10.0
G0 Z4.0
G0 X144.5569 Y20.8691
G0 Z1.0
G1 F300.0 Z-1.5
G1 F800.0 X145.846
G1 Y10.0
G1 X155.6604
G1 X145.846
G1 Y20.8691
G1 X154.3421
G1 X145.846
G1 Y31.1523
G1 X154.8694
G1 X145.846
G1 Y20.8691
G1 X144.5569
G1 F300.0 Z-3.0
G1 F800.0 X145.846
G1 Y10.0
G1 X155.6604
G1 X145.846
G1 Y20.8691
G1 X154.3421
G1 X145.846
G1 Y31.1523
G1 X154.8694
G1 X145.846
G1 Y20.8691
G1 X144.5569
G0 Z4.0
G0 X172.4183 Y22.1582
G0 Z1.0
G1 F300.0 Z-1.5
G3 F800.0 X172.5062 Y23.4766 I-28.0525 J2.5323
G3 X172.4476 Y24.707 I-6.2115 J0.3208
G3 X172.096 Y25.6152 I-2.0145 J-0.2577
G3 X171.3636 Y26.0254 I-0.7353 J-0.4541
G3 X169.7229 Y25.4395 I-0.1627 J-2.1344
G3 X168.6683 Y23.5059 I3.2091 J-3.0049
G3 X167.6722 Y20.3125 I184.0975 J-59.1769
G3 X166.7933 Y17.1777 I215.354 J-62.0702
G3 X165.9729 Y13.8086 I170.6439 J-43.3325
G3 X165.094 Y10.0 I327.3479 J-77.5475
G1 Y26.0254
G1 Y10.0
G2 X165.9729 Y13.8086 I353.3692 J-79.541
G2 X166.7933 Y17.1777 I166.7203 J-38.8083
G2 X167.6722 Y20.3125 I214.8443 J-58.5461
G2 X168.6683 Y23.5059 I175.275 J-52.9209
G2 X169.7229 Y25.4395 I4.2641 J-1.0714
G2 X171.3636 Y26.0254 I1.478 J-1.5484
G2 X172.096 Y25.6152 I-0.0029 J-0.8643
G2 X172.4476 Y24.707 I-1.6631 J-1.1659
G2 X172.5062 Y23.4766 I-6.1439 J-0.9092
G2 X172.4183 Y22.1582 I-27.814 J1.1922
G1 F300.0 Z-3.0
G3 F800.0 X172.5062 Y23.4766 I-28.0525 J2.5323
G3 X172.4476 Y24.707 I-6.2115 J0.3208
G3 X172.096 Y25.6152 I-2.0145 J-0.2577
G3 X171.3636 Y26.0254 I-0.7353 J-0.4541
G3 X169.7229 Y25.4395 I-0.1627 J-2.1344
G3 X168.6683 Y23.5059 I3.2091 J-3.0049
G3 X167.6722 Y20.3125 I184.0975 J-59.1769
G3 X166.7933 Y17.1777 I215.354 J-62.0702
G3 X165.9729 Y13.8086 I170.6439 J-43.3325
G3 X165.094 Y10.0 I327.3479 J-77.5475
G1 Y26.0254
G1 Y10.0
G2 X165.9729 Y13.8086 I353.3692 J-79.541
G2 X166.7933 Y17.1777 I166.7203 J-38.8083
G2 X167.6722 Y20.3125 I214.8443 J-58.5461
G2 X168.6683 Y23.5059 I175.275 J-52.9209
G2 X169.7229 Y25.4395 I4.2641 J-1.0714
G2 X171.3636 Y26.0254 I1.478 J-1.5484
G2 X172.096 Y25.6152 I-0.0029 J-0.8643
G2 X172.4476 Y24.707 I-1.6631 J-1.1659
G2 X172.5062 Y23.4766 I-6.1439 J-0.9092
G2 X172.4183 Y22.1582 I-27.814 J1.1922
G0 Z4.0
G0 X180.7386 Y26.0254
G0 Z1.0
G1 F300.0 Z-1.5
G1 F800.0 Y10.0
G1 Y26.0254
G1 F300.0 Z-3.0
G1 F800.0 Y10.0
G1 Y26.0254
G0 Z4.0
G0 Y31.0938
G0 Z1.0
G1 F300.0 Z-1.5
G1 F800.0 Y34.0234
G1 Y31.0938
G1 F300.0 Z-3.0
G1 F800.0 Y34.0234
G1 Y31.0938
G0 Z4.0
G0 X191.0594 Y22.9364
G0 Z1.0
G1 F300.0 Z-1.5
G2 F800.0 X193.1604 Y24.9121 I7.708 J-6.0922
G2 X196.2659 Y26.0254 I3.5407 J-4.9887
G2 X197.7308 Y25.7324 I0.2091 J-2.7633
G2 X198.5804 Y24.9414 I-0.9402 J-1.8616
G2 X199.0198 Y23.9453 I-2.3229 J-1.6198
G2 X199.137 Y23.0371 I-4.2284 J-1.0073
G1 Y20.8398
G1 Y23.0371
G3 X199.0198 Y23.9453 I-4.3444 J-0.0989
G3 X198.5804 Y24.9414 I-2.7625 J-0.6238
G3 X197.7308 Y25.7324 I-1.7897 J-1.0705
G3 X196.2659 Y26.0254 I-1.2558 J-2.4705
G3 X193.1604 Y24.9121 I0.4352 J-6.1019
G3 X190.6995 Y22.4512 I5.6079 J-8.0689
G3 X189.0589 Y19.1113 I9.9115 J-6.9417
G3 X188.4729 Y15.4199 I11.5583 J-3.7269
G3 X188.8538 Y13.0176 I6.1231 J-0.2606
G3 X190.0257 Y11.3477 I4.5531 J1.949
G3 X191.7249 Y10.3223 I3.3873 J3.6927
G3 X193.7757 Y10.0 I2.0131 J6.1243
G3 X195.2698 Y10.1758 I-0.0233 J6.6364
G3 X196.764 Y10.5859 I-3.2406 J14.7318
G3 X198.0823 Y11.1426 I-4.0816 J11.5064
G3 X199.0491 Y11.6992 I-2.4671 J5.4029
G2 X198.0823 Y11.1426 I-3.4372 J4.852
G2 X196.764 Y10.5859 I-5.4147 J10.9848
G2 X195.2698 Y10.1758 I-4.7248 J14.2852
G2 X193.7757 Y10.0 I-1.5172 J6.4582
G2 X191.7249 Y10.3223 I-0.0378 J6.4457
G2 X190.0257 Y11.3477 I1.6876 J4.7172
G2 X188.8538 Y13.0176 I3.3816 J3.6192
G2 X188.4729 Y15.4199 I5.7431 J2.1419
G2 X189.0589 Y19.1113 I12.1442 J-0.0354
G2 X190.6995 Y22.4512 I11.5498 J-3.6007
G2 X191.0594 Y22.9364 I8.0679 J-5.6069
G1 F300.0 Z-3.0
G2 F800.0 X193.1604 Y24.9121 I7.708 J-6.0922
G2 X196.2659 Y26.0254 I3.5407 J-4.9887
G2 X197.7308 Y25.7324 I0.2091 J-2.7633
G2 X198.5804 Y24.9414 I-0.9402 J-1.8616
G2 X199.0198 Y23.9453 I-2.3229 J-1.6198
G2 X199.137 Y23.0371 I-4.2284 J-1.0073
G1 Y20.8398
G1 Y23.0371
G3 X199.0198 Y23.9453 I-4.3444 J-0.0989
G3 X198.5804 Y24.9414 I-2.7625 J-0.6238
G3 X197.7308 Y25.7324 I-1.7897 J-1.0705
G3 X196.2659 Y26.0254 I-1.2558 J-2.4705
G3 X193.1604 Y24.9121 I0.4352 J-6.1019
G3 X190.6995 Y22.4512 I5.6079 J-8.0689
G3 X189.0589 Y19.1113 I9.9115 J-6.9417
G3 X188.4729 Y15.4199 I11.5583 J-3.7269
G3 X188.8538 Y13.0176 I6.1231 J-0.2606
G3 X190.0257 Y11.3477 I4.5531 J1.949
G3 X191.7249 Y10.3223 I3.3873 J3.6927
G3 X193.7757 Y10.0 I2.0131 J6.1243
G3 X195.2698 Y10.1758 I-0.0233 J6.6364
G3 X196.764 Y10.5859 I-3.2406 J14.7318
G3 X198.0823 Y11.1426 I-4.0816 J11.5064
G3 X199.0491 Y11.6992 I-2.4671 J5.4029
G2 X198.0823 Y11.1426 I-3.4372 J4.852
G2 X196.764 Y10.5859 I-5.4147 J10.9848
G2 X195.2698 Y10.1758 I-4.7248 J14.2852
G2 X193.7757 Y10.0 I-1.5172 J6.4582
G2 X191.7249 Y10.3223 I-0.0378 J6.4457
G2 X190.0257 Y11.3477 I1.6876 J4.7172
G2 X188.8538 Y13.0176 I3.3816 J3.6192
G2 X188.4729 Y15.4199 I5.7431 J2.1419
G2 X189.0589 Y19.1113 I12.1442 J-0.0354
G2 X190.6995 Y22.4512 I11.5498 J-3.6007
G2 X191.0594 Y22.9364 I8.0679 J-5.6069
G0 Z4.0
( === M5 )
( ===  )
( === M30 )
