( Made using CamBam - http://www.cambam.co.uk )
( lettreA 1/23/2021 5:23:06 PM )
( Post processor: Default )
( T0 : 3.0 )
G21 G90 G64 G40
G0 Z5.0
( T0 : 3.0 )
T0 M6
( Gravure1 )
G17
M3 S1000
G0 X11.4327 Y10.2828
G0 Z0.0
G1 F300.0 Z-2.0
G3 F800.0 X11.4502 Y10.2637 I1.1323 J1.0184
G3 X11.8832 Y10.0148 I0.8309 J0.9443
G3 X13.3545 Y9.8242 I1.324 J4.4475
G3 X14.0805 Y9.8572 I0.0383 J7.1534
G3 X14.79 Y10.0146 I-0.2089 J2.6198
G3 X15.4461 Y10.4147 I-1.2953 J2.8624
G3 X16.0352 Y10.9082 I-5.4016 J7.0455
G1 X16.1084 Y10.4688
G3 X16.2549 Y10.0732 I0.9065 J0.1109
G3 X16.6064 Y10.0 I0.3011 J0.5647
G1 X17.7344
G3 X17.9748 Y10.0119 I0.0155 J2.125
G3 X18.2031 Y10.0879 I-0.0185 J0.4367
G3 X18.2907 Y10.2915 I-0.2629 J0.2337
G3 X18.3057 Y10.5127 I-1.406 J0.2063
G3 X18.2906 Y10.7545 I-1.6575 J0.0183
G3 X18.2599 Y10.8759 I-0.5516 J-0.0749
G3 X18.1738 Y10.9668 I-0.1307 J-0.0376
G3 X17.4561 Y11.0107 I-0.5952 J-3.8378
G1 X17.0898
G1 Y14.248
G3 X17.0322 Y15.341 I-8.9796 J0.074
G3 X16.9251 Y15.8838 I-3.5097 J-0.41
G3 X16.665 Y16.3721 I-1.0763 J-0.2599
G3 X16.1389 Y16.6246 I-0.7863 J-0.9638
G3 X14.4092 Y16.7822 I-1.5418 J-7.3506
G3 X13.3284 Y16.7431 I-0.0682 J-13.0563
G3 X12.2705 Y16.5186 I0.1516 J-3.3189
G3 X11.8899 Y16.2276 I0.4056 J-0.9251
G3 X11.7432 Y15.7715 I0.5871 J-0.4405
G3 X11.759 Y15.5223 I1.7312 J-0.0153
G3 X11.8457 Y15.2881 I0.4789 J0.0442
G3 X12.2266 Y15.1709 I0.338 J0.4209
G3 X13.0762 Y15.4639 I0.0741 J1.1635
G2 X13.7027 Y15.725 I0.736 J-0.8837
G2 X14.3799 Y15.7715 I0.6327 J-4.2643
G2 X15.0725 Y15.7359 I0.0467 J-5.8481
G2 X15.4167 Y15.6698 I-0.2582 J-2.2743
G2 X15.7275 Y15.5078 I-0.1601 J-0.6863
G2 X15.8895 Y15.197 I-0.5244 J-0.4709
G2 X15.9912 Y14.1602 I-4.0812 J-0.9236
G1 Y14.1309
G1 Y14.1162
G3 X15.127 Y14.292 I-1.9242 J-7.2479
G3 X14.292 Y14.3359 I-0.7392 J-6.0903
G3 X12.9027 Y14.2709 I-0.0892 J-12.9702
G3 X12.2125 Y14.1538 I0.5561 J-5.3674
G3 X11.5674 Y13.8818 I0.3817 J-1.8066
G3 X11.2429 Y13.4754 I0.6941 J-0.8869
G3 X11.0307 Y12.7333 I2.2529 J-1.0457
G3 X10.9814 Y11.9629 I5.4227 J-0.7333
G3 X11.0597 Y11.0702 I4.4967 J-0.0554
G3 X11.4327 Y10.2828 I1.5052 J0.2309
G1 F300.0 X12.3784 Y11.1813
G2 F800.0 X12.1745 Y11.5686 I0.5838 J0.5547
G2 X12.124 Y12.0361 I1.8834 J0.4399
G2 X12.1986 Y12.6275 I2.0855 J0.0372
G2 X12.5342 Y13.1201 I0.8506 J-0.2188
G2 X12.9999 Y13.297 I0.7198 J-1.1935
G2 X14.4824 Y13.4131 I1.328 J-7.4371
G2 X15.2588 Y13.3691 I0.0928 J-5.2398
G2 X15.9912 Y13.1641 I-1.248 J-5.8674
G1 Y12.3877
G2 X15.4053 Y11.333 I-1.2421 J-0.0001
G2 X14.4965 Y10.9965 I-1.2323 J1.9327
G2 X13.5303 Y10.9229 I-0.9141 J5.6164
G2 X12.9497 Y10.9602 I-0.0354 J3.9764
G2 X12.4023 Y11.1572 I0.1203 J1.1934
G2 X12.3784 Y11.1813 I0.5599 J0.5789
G1 F300.0 Z-3.0
G2 F800.0 X12.1745 Y11.5686 I0.5838 J0.5547
G2 X12.124 Y12.0361 I1.8834 J0.4399
G2 X12.1986 Y12.6275 I2.0855 J0.0372
G2 X12.5342 Y13.1201 I0.8506 J-0.2188
G2 X12.9999 Y13.297 I0.7198 J-1.1935
G2 X14.4824 Y13.4131 I1.328 J-7.4371
G2 X15.2588 Y13.3691 I0.0928 J-5.2398
G2 X15.9912 Y13.1641 I-1.248 J-5.8674
G1 Y12.3877
G2 X15.4053 Y11.333 I-1.2421 J-0.0001
G2 X14.4965 Y10.9965 I-1.2323 J1.9327
G2 X13.5303 Y10.9229 I-0.9141 J5.6164
G2 X12.9497 Y10.9602 I-0.0354 J3.9764
G2 X12.4023 Y11.1572 I0.1203 J1.1934
G2 X12.3784 Y11.1813 I0.5599 J0.5789
G1 F300.0 X12.0708 Y9.9632
G3 F800.0 X13.3545 Y9.8242 I1.1364 J4.4991
G3 X14.0805 Y9.8572 I0.0383 J7.1534
G3 X14.79 Y10.0146 I-0.2089 J2.6198
G3 X15.4461 Y10.4147 I-1.2953 J2.8624
G3 X16.0352 Y10.9082 I-5.4016 J7.0455
G1 X16.1084 Y10.4688
G3 X16.2549 Y10.0732 I0.9065 J0.1109
G3 X16.6064 Y10.0 I0.3011 J0.5647
G1 X17.7344
G3 X17.9748 Y10.0119 I0.0155 J2.125
G3 X18.2031 Y10.0879 I-0.0185 J0.4367
G3 X18.2907 Y10.2915 I-0.2629 J0.2337
G3 X18.3057 Y10.5127 I-1.406 J0.2063
G3 X18.2906 Y10.7545 I-1.6575 J0.0183
G3 X18.2599 Y10.8759 I-0.5516 J-0.0749
G3 X18.1738 Y10.9668 I-0.1307 J-0.0376
G3 X17.4561 Y11.0107 I-0.5952 J-3.8378
G1 X17.0898
G1 Y14.248
G3 X17.0322 Y15.341 I-8.9796 J0.074
G3 X16.9251 Y15.8838 I-3.5097 J-0.41
G3 X16.665 Y16.3721 I-1.0763 J-0.2599
G3 X16.1389 Y16.6246 I-0.7863 J-0.9638
G3 X14.4092 Y16.7822 I-1.5418 J-7.3506
G3 X13.3284 Y16.7431 I-0.0682 J-13.0563
G3 X12.2705 Y16.5186 I0.1516 J-3.3189
G3 X11.8899 Y16.2276 I0.4056 J-0.9251
G3 X11.7432 Y15.7715 I0.5871 J-0.4405
G3 X11.759 Y15.5223 I1.7312 J-0.0153
G3 X11.8457 Y15.2881 I0.4789 J0.0442
G3 X12.2266 Y15.1709 I0.338 J0.4209
G3 X13.0762 Y15.4639 I0.0741 J1.1635
G2 X13.7027 Y15.725 I0.736 J-0.8837
G2 X14.3799 Y15.7715 I0.6327 J-4.2643
G2 X15.0725 Y15.7359 I0.0467 J-5.8481
G2 X15.4167 Y15.6698 I-0.2582 J-2.2743
G2 X15.7275 Y15.5078 I-0.1601 J-0.6863
G2 X15.8895 Y15.197 I-0.5244 J-0.4709
G2 X15.9912 Y14.1602 I-4.0812 J-0.9236
G1 Y14.1309
G1 Y14.1162
G3 X15.127 Y14.292 I-1.9242 J-7.2479
G3 X14.292 Y14.3359 I-0.7392 J-6.0903
G3 X12.9027 Y14.2709 I-0.0892 J-12.9702
G3 X12.2125 Y14.1538 I0.5561 J-5.3674
G3 X11.5674 Y13.8818 I0.3817 J-1.8066
G3 X11.2429 Y13.4754 I0.6941 J-0.8869
G3 X11.0307 Y12.7333 I2.2529 J-1.0457
G3 X10.9814 Y11.9629 I5.4227 J-0.7333
G3 X11.0597 Y11.0702 I4.4967 J-0.0554
G3 X11.4502 Y10.2637 I1.5052 J0.2309
G3 X11.8832 Y10.0148 I0.8309 J0.9443
G3 X12.0708 Y9.9632 I1.324 J4.4475
G0 Z5.0
M5
M30
