( Made using CamBam - http://www.cambam.co.uk )
( lettreA 1/23/2021 6:56:55 PM )
( Post processor: LinuxCNC )
( T0 : 3.0 )
G21 G90 G64 G40
G91.1
G0 Z5.0
( T0 : 3.0 )
T0 M6
( Gravure1 )
G17
M3 S1000
G0 X11.43272 Y10.28277
G0 Z0.0
G1 F300.0 Z-2.0
G3 F800.0 X11.4502 Y10.26367 I1.13226 J1.01837
G3 X11.88316 Y10.01476 I0.83093 J0.94431
G3 X13.35449 Y9.82422 I1.32396 J4.44755
G3 X14.08051 Y9.85725 I0.03832 J7.15341
G3 X14.79004 Y10.01465 I-0.20894 J2.61977
G3 X15.44613 Y10.4147 I-1.29535 J2.86237
G3 X16.03516 Y10.9082 I-5.40159 J7.04551
G1 X16.1084 Y10.46875
G3 X16.25488 Y10.07324 I0.9065 J0.11086
G3 X16.60645 Y10.0 I0.30105 J0.56468
G1 X17.73438
G3 X17.97476 Y10.01187 I0.01553 J2.12498
G3 X18.20313 Y10.08789 I-0.01852 J0.43666
G3 X18.29069 Y10.29153 I-0.26294 J0.2337
G3 X18.30566 Y10.5127 I-1.40596 J0.20631
G3 X18.29063 Y10.75452 I-1.65748 J0.01831
G3 X18.25993 Y10.8759 I-0.55159 J-0.07492
G3 X18.17383 Y10.9668 I-0.13072 J-0.03759
G3 X17.45605 Y11.01074 I-0.5952 J-3.83781
G1 X17.08984
G1 Y14.24805
G3 X17.03215 Y15.341 I-8.97956 J0.07401
G3 X16.92514 Y15.88379 I-3.50973 J-0.40998
G3 X16.66504 Y16.37207 I-1.07633 J-0.25994
G3 X16.13891 Y16.62462 I-0.78629 J-0.96375
G3 X14.40918 Y16.78223 I-1.54181 J-7.35062
G3 X13.32842 Y16.74308 I-0.06821 J-13.05629
G3 X12.27051 Y16.51855 I0.15161 J-3.31888
G3 X11.88987 Y16.22759 I0.40559 J-0.92505
G3 X11.74316 Y15.77148 I0.58707 J-0.44047
G3 X11.75898 Y15.52226 I1.73121 J-0.01527
G3 X11.8457 Y15.28809 I0.47894 J0.04422
G3 X12.22656 Y15.1709 I0.33797 J0.42092
G3 X13.07617 Y15.46387 I0.07411 J1.16351
G2 X13.7027 Y15.72503 I0.73605 J-0.88369
G2 X14.37988 Y15.77148 I0.63274 J-4.26433
G2 X15.07254 Y15.73589 I0.04668 J-5.84813
G2 X15.41674 Y15.6698 I-0.25821 J-2.27434
G2 X15.72754 Y15.50781 I-0.16011 J-0.68634
G2 X15.88953 Y15.19701 I-0.52442 J-0.47094
G2 X15.99121 Y14.16016 I-4.0812 J-0.92365
G1 Y14.13086
G1 Y14.11621
G3 X15.12695 Y14.29199 I-1.92415 J-7.24789
G3 X14.29199 Y14.33594 I-0.73918 J-6.09032
G3 X12.90268 Y14.27092 I-0.08917 J-12.97016
G3 X12.21249 Y14.15376 I0.55608 J-5.36738
G3 X11.56738 Y13.88184 I0.38165 J-1.80661
G3 X11.24293 Y13.47545 I0.69412 J-0.88689
G3 X11.03068 Y12.73326 I2.25292 J-1.04571
G3 X10.98145 Y11.96289 I5.42269 J-0.73335
G3 X11.05973 Y11.07022 I4.49671 J-0.0554
G3 X11.43272 Y10.28277 I1.50524 J0.23092
G1 F300.0 X12.37844 Y11.18135
G2 F800.0 X12.17453 Y11.5686 I0.58384 J0.55473
G2 X12.12402 Y12.03613 I1.88341 J0.43995
G2 X12.19865 Y12.62749 I2.08554 J0.03721
G2 X12.53418 Y13.12012 I0.8506 J-0.21876
G2 X12.99992 Y13.29702 I0.71981 J-1.19349
G2 X14.48242 Y13.41309 I1.32802 J-7.43706
G2 X15.25879 Y13.36914 I0.09284 J-5.23979
G2 X15.99121 Y13.16406 I-1.24795 J-5.8674
G1 Y12.3877
G2 X15.40527 Y11.33301 I-1.2421 J-0.00005
G2 X14.49652 Y10.99651 I-1.23234 J1.93269
G2 X13.53027 Y10.92285 I-0.91405 J5.61642
G2 X12.94973 Y10.96024 I-0.03536 J3.97636
G2 X12.40234 Y11.15723 I0.12034 J1.19344
G2 X12.37844 Y11.18135 I0.55993 J0.57885
G1 F300.0 Z-3.0
G2 F800.0 X12.17453 Y11.5686 I0.58384 J0.55473
G2 X12.12402 Y12.03613 I1.88341 J0.43995
G2 X12.19865 Y12.62749 I2.08554 J0.03721
G2 X12.53418 Y13.12012 I0.8506 J-0.21876
G2 X12.99992 Y13.29702 I0.71981 J-1.19349
G2 X14.48242 Y13.41309 I1.32802 J-7.43706
G2 X15.25879 Y13.36914 I0.09284 J-5.23979
G2 X15.99121 Y13.16406 I-1.24795 J-5.8674
G1 Y12.3877
G2 X15.40527 Y11.33301 I-1.2421 J-0.00005
G2 X14.49652 Y10.99651 I-1.23234 J1.93269
G2 X13.53027 Y10.92285 I-0.91405 J5.61642
G2 X12.94973 Y10.96024 I-0.03536 J3.97636
G2 X12.40234 Y11.15723 I0.12034 J1.19344
G2 X12.37844 Y11.18135 I0.55993 J0.57885
G1 F300.0 X12.07076 Y9.96316
G3 F800.0 X13.35449 Y9.82422 I1.13635 J4.49914
G3 X14.08051 Y9.85725 I0.03832 J7.15341
G3 X14.79004 Y10.01465 I-0.20894 J2.61977
G3 X15.44613 Y10.4147 I-1.29535 J2.86237
G3 X16.03516 Y10.9082 I-5.40159 J7.04551
G1 X16.1084 Y10.46875
G3 X16.25488 Y10.07324 I0.9065 J0.11086
G3 X16.60645 Y10.0 I0.30105 J0.56468
G1 X17.73438
G3 X17.97476 Y10.01187 I0.01553 J2.12498
G3 X18.20313 Y10.08789 I-0.01852 J0.43666
G3 X18.29069 Y10.29153 I-0.26294 J0.2337
G3 X18.30566 Y10.5127 I-1.40596 J0.20631
G3 X18.29063 Y10.75452 I-1.65748 J0.01831
G3 X18.25993 Y10.8759 I-0.55159 J-0.07492
G3 X18.17383 Y10.9668 I-0.13072 J-0.03759
G3 X17.45605 Y11.01074 I-0.5952 J-3.83781
G1 X17.08984
G1 Y14.24805
G3 X17.03215 Y15.341 I-8.97956 J0.07401
G3 X16.92514 Y15.88379 I-3.50973 J-0.40998
G3 X16.66504 Y16.37207 I-1.07633 J-0.25994
G3 X16.13891 Y16.62462 I-0.78629 J-0.96375
G3 X14.40918 Y16.78223 I-1.54181 J-7.35062
G3 X13.32842 Y16.74308 I-0.06821 J-13.05629
G3 X12.27051 Y16.51855 I0.15161 J-3.31888
G3 X11.88987 Y16.22759 I0.40559 J-0.92505
G3 X11.74316 Y15.77148 I0.58707 J-0.44047
G3 X11.75898 Y15.52226 I1.73121 J-0.01527
G3 X11.8457 Y15.28809 I0.47894 J0.04422
G3 X12.22656 Y15.1709 I0.33797 J0.42092
G3 X13.07617 Y15.46387 I0.07411 J1.16351
G2 X13.7027 Y15.72503 I0.73605 J-0.88369
G2 X14.37988 Y15.77148 I0.63274 J-4.26433
G2 X15.07254 Y15.73589 I0.04668 J-5.84813
G2 X15.41674 Y15.6698 I-0.25821 J-2.27434
G2 X15.72754 Y15.50781 I-0.16011 J-0.68634
G2 X15.88953 Y15.19701 I-0.52442 J-0.47094
G2 X15.99121 Y14.16016 I-4.0812 J-0.92365
G1 Y14.13086
G1 Y14.11621
G3 X15.12695 Y14.29199 I-1.92415 J-7.24789
G3 X14.29199 Y14.33594 I-0.73918 J-6.09032
G3 X12.90268 Y14.27092 I-0.08917 J-12.97016
G3 X12.21249 Y14.15376 I0.55608 J-5.36738
G3 X11.56738 Y13.88184 I0.38165 J-1.80661
G3 X11.24293 Y13.47545 I0.69412 J-0.88689
G3 X11.03068 Y12.73326 I2.25292 J-1.04571
G3 X10.98145 Y11.96289 I5.42269 J-0.73335
G3 X11.05973 Y11.07022 I4.49671 J-0.0554
G3 X11.4502 Y10.26367 I1.50524 J0.23092
G3 X11.88316 Y10.01476 I0.83093 J0.94431
G3 X12.07076 Y9.96316 I1.32396 J4.44755
G0 Z5.0
M5
M30
