( Made using CamBam - http://www.cambam.co.uk )
( RD6006_front 4/6/2021 6:25:28 PM )
( Post processor: eh-Default )
( === ( T3 : 3.0 ) )
( ===  )
( === G21 G90 G64 G40 )
G21 G90
G0 Z3.0
( remove G64, M4 S1000,      )
( RD6006 )
( T3 : 3.0 )
T3 M6
G64 G17
M3 S1000
G0 X21.5 Y36.5
G0 Z1.0
G1 F300.0 Z-1.5
G1 F800.0 Y71.6667
G1 Y73.1667 Z0.0
G1 Y76.1667
G1 Y77.6667 Z-1.5
G1 Y109.5
G1 X60.0
G1 X61.5 Z0.0
G1 X64.5
G1 X66.0 Z-1.5
G1 X139.3333
G1 X140.8333 Z0.0
G1 X143.8333
G1 X145.3333 Z-1.5
G1 X180.5
G1 Y74.3333
G1 Y72.8333 Z0.0
G1 Y69.8333
G1 Y68.3333 Z-1.5
G1 Y36.5
G1 X142.0
G1 X140.5 Z0.0
G1 X137.5
G1 X136.0 Z-1.5
G1 X62.6667
G1 X61.1667 Z0.0
G1 X58.1667
G1 X56.6667 Z-1.5
G1 X21.5
G1 F300.0 Z-3.0
G1 F800.0 Y71.6667
G1 Y73.1667 Z0.0
G1 Y76.1667
G1 Y77.6667 Z-3.0
G1 Y109.5
G1 X60.0
G1 X61.5 Z0.0
G1 X64.5
G1 X66.0 Z-3.0
G1 X139.3333
G1 X140.8333 Z0.0
G1 X143.8333
G1 X145.3333 Z-3.0
G1 X180.5
G1 Y74.3333
G1 Y72.8333 Z0.0
G1 Y69.8333
G1 Y68.3333 Z-3.0
G1 Y36.5
G1 X142.0
G1 X140.5 Z0.0
G1 X137.5
G1 X136.0 Z-3.0
G1 X62.6667
G1 X61.1667 Z0.0
G1 X58.1667
G1 X56.6667 Z-3.0
G1 X21.5
( Interrupteur )
S1000
G0 Z3.0
G0 X196.5 Y71.5
G0 Z1.0
G1 F300.0 Z-1.5
G1 F800.0 Y79.6667
G1 Y81.1667 Z0.0
G1 Y84.1667
G1 Y85.6667 Z-1.5
G1 Y94.5
G1 X205.5
G1 Y71.5
G1 X196.5
G1 F300.0 Z-3.0
G1 F800.0 Y79.6667
G1 Y81.1667 Z0.0
G1 Y84.1667
G1 Y85.6667 Z-3.0
G1 Y94.5
G1 X205.5
G1 Y71.5
G1 X196.5
G0 Z3.0
( === M5 )
( ===  )
( === M30 )
