( Made using CamBam - http://www.cambam.co.uk )
( RD6006-Front 4/6/2021 6:20:15 PM )
( Post processor: eh-Default )
( === ( T0 : 3.0 ) )
( ===  )
( === G21 G90 G64 G40 )
G21 G90
G0 Z3.0
( remove G64, M4 S1000,      )
( Contour1 )
G64 G17
M3 S1000
G0 X16.5 Y31.5
G0 Z1.0
G1 F300.0 Z-1.0
G1 F800.0 Y86.75
G1 Y88.25 Z0.0
G1 Y91.25
G1 Y92.75 Z-1.0
G1 Y105.5
G1 X114.25
G1 X115.75 Z0.0
G1 X118.75
G1 X120.25 Z-1.0
G1 X175.5
G1 Y50.25
G1 Y48.75 Z0.0
G1 Y45.75
G1 Y44.25 Z-1.0
G1 Y31.5
G1 X77.75
G1 X76.25 Z0.0
G1 X73.25
G1 X71.75 Z-1.0
G1 X16.5
G1 F300.0 Z-2.0
G1 F800.0 Y86.75
G1 Y88.25 Z0.0
G1 Y91.25
G1 Y92.75 Z-2.0
G1 Y105.5
G1 X114.25
G1 X115.75 Z0.0
G1 X118.75
G1 X120.25 Z-2.0
G1 X175.5
G1 Y50.25
G1 Y48.75 Z0.0
G1 Y45.75
G1 Y44.25 Z-2.0
G1 Y31.5
G1 X77.75
G1 X76.25 Z0.0
G1 X73.25
G1 X71.75 Z-2.0
G1 X16.5
G1 F300.0 Z-3.0
G1 F800.0 Y86.75
G1 Y88.25 Z0.0
G1 Y91.25
G1 Y92.75 Z-3.0
G1 Y105.5
G1 X114.25
G1 X115.75 Z0.0
G1 X118.75
G1 X120.25 Z-3.0
G1 X175.5
G1 Y50.25
G1 Y48.75 Z0.0
G1 Y45.75
G1 Y44.25 Z-3.0
G1 Y31.5
G1 X77.75
G1 X76.25 Z0.0
G1 X73.25
G1 X71.75 Z-3.0
G1 X16.5
G0 Z3.0
( === M5 )
( ===  )
( === M30 )
