( Made using CamBam - http://www.cambam.co.uk )
( texte1 1/23/2021 4:57:41 PM )
( Post processor: Default )
( T0 : 3.0 )
G21 G90 G64 G40
G0 Z5.0
( T0 : 3.0 )
T0 M6
( Gravure1 )
G17
M3 S1000
G0 X1.8473 Y5.0273
G0 Z0.0
G1 F300.0 Z-3.0
G3 X1.8832 Y5.0148 I0.4338 J1.1807
G3 X3.3545 Y4.8242 I1.324 J4.4475
G3 X4.0805 Y4.8572 I0.0383 J7.1534
G3 X4.79 Y5.0146 I-0.2089 J2.6198
G3 X5.4461 Y5.4147 I-1.2953 J2.8624
G3 X6.0352 Y5.9082 I-5.4016 J7.0455
G1 X6.1084 Y5.4688
G3 X6.2549 Y5.0732 I0.9065 J0.1109
G3 X6.6064 Y5.0 I0.3011 J0.5647
G1 X7.7344
G3 X7.9748 Y5.0119 I0.0155 J2.125
G3 X8.2031 Y5.0879 I-0.0185 J0.4367
G3 X8.2907 Y5.2915 I-0.2629 J0.2337
G3 X8.3057 Y5.5127 I-1.406 J0.2063
G3 X8.2906 Y5.7545 I-1.6575 J0.0183
G3 X8.2599 Y5.8759 I-0.5516 J-0.0749
G3 X8.1738 Y5.9668 I-0.1307 J-0.0376
G3 X7.4561 Y6.0107 I-0.5952 J-3.8378
G1 X7.0898
G1 Y9.248
G3 X7.0322 Y10.341 I-8.9796 J0.074
G3 X6.9251 Y10.8838 I-3.5097 J-0.41
G3 X6.665 Y11.3721 I-1.0763 J-0.2599
G3 X6.1389 Y11.6246 I-0.7863 J-0.9638
G3 X4.4092 Y11.7822 I-1.5418 J-7.3506
G3 X3.3284 Y11.7431 I-0.0682 J-13.0563
G3 X2.2705 Y11.5186 I0.1516 J-3.3189
G3 X1.8899 Y11.2276 I0.4056 J-0.9251
G3 X1.7432 Y10.7715 I0.5871 J-0.4405
G3 X1.759 Y10.5223 I1.7312 J-0.0153
G3 X1.8457 Y10.2881 I0.4789 J0.0442
G3 X2.2266 Y10.1709 I0.338 J0.4209
G3 X3.0762 Y10.4639 I0.0741 J1.1635
G2 X3.7027 Y10.725 I0.736 J-0.8837
G2 X4.3799 Y10.7715 I0.6327 J-4.2643
G2 X5.0725 Y10.7359 I0.0467 J-5.8481
G2 X5.4167 Y10.6698 I-0.2582 J-2.2743
G2 X5.7275 Y10.5078 I-0.1601 J-0.6863
G2 X5.8895 Y10.197 I-0.5244 J-0.4709
G2 X5.9912 Y9.1602 I-4.0812 J-0.9236
G1 Y9.1309
G1 Y9.1162
G3 X5.127 Y9.292 I-1.9242 J-7.2479
G3 X4.292 Y9.3359 I-0.7392 J-6.0903
G3 X2.9027 Y9.2709 I-0.0892 J-12.9702
G3 X2.2125 Y9.1538 I0.5561 J-5.3674
G3 X1.5674 Y8.8818 I0.3817 J-1.8066
G3 X1.2429 Y8.4754 I0.6941 J-0.8869
G3 X1.0307 Y7.7333 I2.2529 J-1.0457
G3 X0.9814 Y6.9629 I5.4227 J-0.7333
G3 X1.0597 Y6.0702 I4.4967 J-0.0554
G3 X1.4502 Y5.2637 I1.5052 J0.2309
G3 X1.8473 Y5.0273 I0.8309 J0.9443
G1 X2.4721 Y6.1139
G2 X2.4023 Y6.1572 I0.598 J1.0398
G2 X2.1745 Y6.5686 I0.5599 J0.5789
G2 X2.124 Y7.0361 I1.8834 J0.4399
G2 X2.1986 Y7.6275 I2.0855 J0.0372
G2 X2.5342 Y8.1201 I0.8506 J-0.2188
G2 X2.9999 Y8.297 I0.7198 J-1.1935
G2 X4.4824 Y8.4131 I1.328 J-7.4371
G2 X5.2588 Y8.3691 I0.0928 J-5.2398
G2 X5.9912 Y8.1641 I-1.248 J-5.8674
G1 Y7.3877
G2 X5.4053 Y6.333 I-1.2421 J-0.0001
G2 X4.4965 Y5.9965 I-1.2323 J1.9327
G2 X3.5303 Y5.9229 I-0.9141 J5.6164
G2 X2.9497 Y5.9602 I-0.0354 J3.9764
G2 X2.4721 Y6.1139 I0.1203 J1.1934
G1 Z-4.0
G2 X2.4023 Y6.1572 I0.598 J1.0398
G2 X2.1745 Y6.5686 I0.5599 J0.5789
G2 X2.124 Y7.0361 I1.8834 J0.4399
G2 X2.1986 Y7.6275 I2.0855 J0.0372
G2 X2.5342 Y8.1201 I0.8506 J-0.2188
G2 X2.9999 Y8.297 I0.7198 J-1.1935
G2 X4.4824 Y8.4131 I1.328 J-7.4371
G2 X5.2588 Y8.3691 I0.0928 J-5.2398
G2 X5.9912 Y8.1641 I-1.248 J-5.8674
G1 Y7.3877
G2 X5.4053 Y6.333 I-1.2421 J-0.0001
G2 X4.4965 Y5.9965 I-1.2323 J1.9327
G2 X3.5303 Y5.9229 I-0.9141 J5.6164
G2 X2.9497 Y5.9602 I-0.0354 J3.9764
G2 X2.4721 Y6.1139 I0.1203 J1.1934
G0 Z5.0
G0 X9.6421 Y7.073
G0 Z0.0
G1 Z-3.0
G3 X9.6742 Y6.8543 I8.6619 J1.1588
G3 X9.8653 Y6.1339 I3.8514 J0.6363
G3 X10.2539 Y5.498 I1.7098 J0.6082
G3 X10.9111 Y5.113 I1.2334 J1.3519
G3 X12.0211 Y4.8785 I1.5518 J4.6016
G3 X13.1543 Y4.8242 I1.0801 J10.6857
G3 X14.6338 Y4.9414 I0.1592 J7.3885
G3 X16.1426 Y5.542 I-2.15 J7.5966
G3 X16.6699 Y5.8496 I-1.0918 J2.4775
G3 X16.7725 Y6.2598 I-0.5596 J0.3578
G3 X16.6553 Y6.626 I-0.488 J0.0457
G3 X16.2744 Y6.7285 I-0.3301 J-0.4674
G3 X15.1611 Y6.2744 I-0.0189 J-1.5454
G2 X14.729 Y6.0234 I-0.8112 J0.899
G2 X13.2568 Y5.835 I-1.3226 J4.4873
G2 X12.2638 Y5.8922 I-0.0631 J7.547
G2 X11.7729 Y5.994 I0.4124 J3.2231
G2 X11.3232 Y6.2158 I0.3333 J1.2422
G2 X11.0621 Y6.6092 I0.7716 J0.7957
G2 X10.8105 Y7.9883 I4.1567 J1.4706
G1 X15.6152
G1 X16.6406
G3 X16.7546 Y8.1303 I-0.0508 J0.1576
G3 X16.8018 Y8.6621 I-2.2451 J0.467
G3 X16.6725 Y9.9006 I-5.3767 J0.0648
G3 X16.1279 Y11.0205 I-2.5189 J-0.5325
G3 X15.5107 Y11.4563 I-1.2594 J-1.1287
G3 X14.4221 Y11.7328 I-1.5281 J-3.7355
G3 X13.3008 Y11.7969 I-1.0676 J-8.8353
G3 X11.7554 Y11.6806 I-0.0962 J-9.0526
G3 X10.9995 Y11.4792 I0.6909 J-4.1109
G3 X10.3271 Y11.0791 I0.6867 J-1.919
G3 X9.91 Y10.4742 I1.2688 J-1.3213
G3 X9.6316 Y9.4167 I3.6105 J-1.5161
G3 X9.5654 Y8.3252 I8.1503 J-1.0416
G3 X9.6421 Y7.073 I8.7386 J-0.0934
G1 X8.2346 Y5.9243
G1 Z-4.0
G3 X8.1738 Y5.9668 I-0.1054 J-0.086
G3 X7.4561 Y6.0107 I-0.5952 J-3.8378
G1 X7.0898
G1 Y9.248
G3 X7.0322 Y10.341 I-8.9796 J0.074
G3 X6.9251 Y10.8838 I-3.5097 J-0.41
G3 X6.665 Y11.3721 I-1.0763 J-0.2599
G3 X6.1389 Y11.6246 I-0.7863 J-0.9638
G3 X4.4092 Y11.7822 I-1.5418 J-7.3506
G3 X3.3284 Y11.7431 I-0.0682 J-13.0563
G3 X2.2705 Y11.5186 I0.1516 J-3.3189
G3 X1.8899 Y11.2276 I0.4056 J-0.9251
G3 X1.7432 Y10.7715 I0.5871 J-0.4405
G3 X1.759 Y10.5223 I1.7312 J-0.0153
G3 X1.8457 Y10.2881 I0.4789 J0.0442
G3 X2.2266 Y10.1709 I0.338 J0.4209
G3 X3.0762 Y10.4639 I0.0741 J1.1635
G2 X3.7027 Y10.725 I0.736 J-0.8837
G2 X4.3799 Y10.7715 I0.6327 J-4.2643
G2 X5.0725 Y10.7359 I0.0467 J-5.8481
G2 X5.4167 Y10.6698 I-0.2582 J-2.2743
G2 X5.7275 Y10.5078 I-0.1601 J-0.6863
G2 X5.8895 Y10.197 I-0.5244 J-0.4709
G2 X5.9912 Y9.1602 I-4.0812 J-0.9236
G1 Y9.1309
G1 Y9.1162
G3 X5.127 Y9.292 I-1.9242 J-7.2479
G3 X4.292 Y9.3359 I-0.7392 J-6.0903
G3 X2.9027 Y9.2709 I-0.0892 J-12.9702
G3 X2.2125 Y9.1538 I0.5561 J-5.3674
G3 X1.5674 Y8.8818 I0.3817 J-1.8066
G3 X1.2429 Y8.4754 I0.6941 J-0.8869
G3 X1.0307 Y7.7333 I2.2529 J-1.0457
G3 X0.9814 Y6.9629 I5.4227 J-0.7333
G3 X1.0597 Y6.0702 I4.4967 J-0.0554
G3 X1.4502 Y5.2637 I1.5052 J0.2309
G3 X1.8832 Y5.0148 I0.8309 J0.9443
G3 X3.3545 Y4.8242 I1.324 J4.4475
G3 X4.0805 Y4.8572 I0.0383 J7.1534
G3 X4.79 Y5.0146 I-0.2089 J2.6198
G3 X5.4461 Y5.4147 I-1.2953 J2.8624
G3 X6.0352 Y5.9082 I-5.4016 J7.0455
G1 X6.1084 Y5.4688
G3 X6.2549 Y5.0732 I0.9065 J0.1109
G3 X6.6064 Y5.0 I0.3011 J0.5647
G1 X7.7344
G3 X7.9748 Y5.0119 I0.0155 J2.125
G3 X8.2031 Y5.0879 I-0.0185 J0.4367
G3 X8.2907 Y5.2915 I-0.2629 J0.2337
G3 X8.3057 Y5.5127 I-1.406 J0.2063
G3 X8.2906 Y5.7545 I-1.6575 J0.0183
G3 X8.2599 Y5.8759 I-0.5516 J-0.0749
G3 X8.2346 Y5.9243 I-0.1307 J-0.0376
G0 Z5.0
G0 X10.8398 Y8.9258
G0 Z0.0
G1 Z-3.0
G2 X11.0935 Y9.7484 I5.3777 J-1.2078
G2 X11.5723 Y10.4639 I1.6592 J-0.5924
G2 X12.4124 Y10.7581 I1.0422 J-1.6291
G2 X13.3008 Y10.8154 I0.8354 J-6.0348
G2 X14.1361 Y10.7506 I0.0488 J-4.7831
G2 X14.9121 Y10.4346 I-0.2298 J-1.6751
G2 X15.3361 Y9.7311 I-1.0002 J-1.0824
G2 X15.498 Y8.9258 I-4.1403 J-1.2514
G1 X10.8398
G0 Z5.0
G0 X12.3432 Y13.1852
G0 Z0.0
G1 Z-3.0
G1 X14.5752 Y12.3975
G1 X14.7656 Y12.7783
G1 X11.3525 Y14.7705
G3 X11.2939 Y14.7852 I-0.06 J-0.1156
G3 X11.25 Y14.7998 I-0.0397 J-0.046
G3 X11.0449 Y14.7559 I-0.0266 J-0.3764
G3 X10.9131 Y14.5801 I0.2752 J-0.3437
G1 X10.6787 Y14.1553
G3 X10.6494 Y14.0674 I0.1288 J-0.0918
G1 Y13.9941
G3 X10.6787 Y13.8184 I0.4255 J-0.0194
G3 X10.8398 Y13.7158 I0.2703 J0.2469
G1 X12.3432 Y13.1852
G1 Z-4.0
G1 X14.5752 Y12.3975
G1 X14.7656 Y12.7783
G1 X11.3525 Y14.7705
G3 X11.2939 Y14.7852 I-0.06 J-0.1156
G3 X11.25 Y14.7998 I-0.0397 J-0.046
G3 X11.0449 Y14.7559 I-0.0266 J-0.3764
G3 X10.9131 Y14.5801 I0.2752 J-0.3437
G1 X10.6787 Y14.1553
G3 X10.6494 Y14.0674 I0.1288 J-0.0918
G1 Y13.9941
G3 X10.6787 Y13.8184 I0.4255 J-0.0194
G3 X10.8398 Y13.7158 I0.2703 J0.2469
G1 X12.3432 Y13.1852
G1 X12.4602 Y11.7667
G3 X11.7554 Y11.6806 I0.7444 J-9.0225
G3 X10.9995 Y11.4792 I0.6909 J-4.1109
G3 X10.3271 Y11.0791 I0.6867 J-1.919
G3 X9.91 Y10.4742 I1.2688 J-1.3213
G3 X9.6316 Y9.4167 I3.6105 J-1.5161
G3 X9.5654 Y8.3252 I8.1503 J-1.0416
G3 X9.6742 Y6.8543 I8.7386 J-0.0934
G3 X9.8653 Y6.1339 I3.8514 J0.6363
G3 X10.2539 Y5.498 I1.7098 J0.6082
G3 X10.9111 Y5.113 I1.2334 J1.3519
G3 X12.0211 Y4.8785 I1.5518 J4.6016
G3 X13.1543 Y4.8242 I1.0801 J10.6857
G3 X14.6338 Y4.9414 I0.1592 J7.3885
G3 X16.1426 Y5.542 I-2.15 J7.5966
G3 X16.6699 Y5.8496 I-1.0918 J2.4775
G3 X16.7725 Y6.2598 I-0.5596 J0.3578
G3 X16.6553 Y6.626 I-0.488 J0.0457
G3 X16.2744 Y6.7285 I-0.3301 J-0.4674
G3 X15.1611 Y6.2744 I-0.0189 J-1.5454
G2 X14.729 Y6.0234 I-0.8112 J0.899
G2 X13.2568 Y5.835 I-1.3226 J4.4873
G2 X12.2638 Y5.8922 I-0.0631 J7.547
G2 X11.7729 Y5.994 I0.4124 J3.2231
G2 X11.3232 Y6.2158 I0.3333 J1.2422
G2 X11.0621 Y6.6092 I0.7716 J0.7957
G2 X10.8105 Y7.9883 I4.1567 J1.4706
G1 X15.6152
G1 X16.6406
G3 X16.7546 Y8.1303 I-0.0508 J0.1576
G3 X16.8018 Y8.6621 I-2.2451 J0.467
G3 X16.6725 Y9.9006 I-5.3767 J0.0648
G3 X16.1279 Y11.0205 I-2.5189 J-0.5325
G3 X15.5107 Y11.4563 I-1.2594 J-1.1287
G3 X14.4221 Y11.7328 I-1.5281 J-3.7355
G3 X13.3008 Y11.7969 I-1.0676 J-8.8353
G3 X12.4602 Y11.7667 I-0.0962 J-9.0526
G1 X12.5708 Y10.7779
G2 X13.3008 Y10.8154 I0.677 J-6.0546
G2 X14.1361 Y10.7506 I0.0488 J-4.7831
G2 X14.9121 Y10.4346 I-0.2298 J-1.6751
G2 X15.3361 Y9.7311 I-1.0002 J-1.0824
G2 X15.498 Y8.9258 I-4.1403 J-1.2514
G1 X10.8398
G2 X11.0935 Y9.7484 I5.3777 J-1.2078
G2 X11.5723 Y10.4639 I1.6592 J-0.5924
G2 X12.4124 Y10.7581 I1.0422 J-1.6291
G2 X12.5708 Y10.7779 I0.8354 J-6.0348
G0 Z5.0
G0 X19.6298 Y11.0408
G0 Z0.0
G1 Z-3.0
G3 X19.6439 Y10.8872 I1.4236 J0.053
G3 X19.7314 Y10.6836 I0.3505 J0.0301
G3 X19.9749 Y10.608 I0.2684 J0.4342
G3 X20.2295 Y10.5957 I0.2376 J2.2824
G1 X21.6211
G1 Y6.0107
G1 X19.4385
G3 X19.1839 Y5.9985 I-0.0165 J-2.3071
G3 X18.9404 Y5.9229 I0.025 J-0.51
G3 X18.8521 Y5.727 I0.2199 J-0.217
G3 X18.8379 Y5.5127 I1.3865 J-0.1996
G3 X18.8504 Y5.2938 I1.6685 J-0.0143
G3 X18.9258 Y5.0879 I0.3877 J0.0252
G3 X19.1618 Y5.0125 I0.2632 J0.4166
G3 X19.4092 Y5.0 I0.2313 J2.1289
G1 X24.9609
G3 X25.459 Y5.0439 I0.0867 J1.8611
G3 X25.5365 Y5.272 I-0.2997 J0.229
G3 X25.5469 Y5.5127 I-2.3823 J0.2236
G3 X25.5352 Y5.7318 I-1.7939 J0.0145
G3 X25.459 Y5.9375 I-0.3549 J-0.0145
G3 X25.2362 Y6.0009 I-0.2399 J-0.42
G3 X25.0049 Y6.0107 I-0.2154 J-2.3332
G1 X22.7051
G1 Y11.3135
G3 X22.6318 Y11.5479 I-0.3078 J0.0324
G3 X22.2949 Y11.6064 I-0.2804 J-0.6146
G1 X20.2002
G3 X19.9528 Y11.594 I-0.0163 J-2.138
G3 X19.7168 Y11.5186 I0.0271 J-0.4917
G3 X19.6408 Y11.3204 I0.2637 J-0.2148
G3 X19.6289 Y11.1084 I1.6271 J-0.1974
G3 X19.6298 Y11.0408 I1.4245 J-0.0146
G0 Z5.0
G0 X21.4453 Y13.0273
G0 Z0.0
G1 Z-3.0
G3 X21.7802 Y12.9751 I0.3227 J0.9697
G3 X22.1191 Y12.9688 I0.3143 J7.6947
G3 X22.4738 Y12.9754 I0.027 J7.9689
G3 X22.6519 Y12.9884 I-0.1173 J2.8352
G3 X22.8223 Y13.042 I0.0006 J0.2957
G3 X22.8516 Y13.877 I-7.5592 J0.6832
G3 X22.8467 Y14.3026 I-15.0244 J0.0413
G3 X22.8076 Y14.7266 I-2.1816 J0.0126
G3 X22.6489 Y14.8093 I-0.1716 J-0.1357
G3 X22.1191 Y14.8438 I-0.4675 J-3.0958
G3 X21.7598 Y14.8317 I-0.0257 J-4.6024
G3 X21.5791 Y14.8081 I0.115 J-1.5826
G3 X21.416 Y14.7266 I0.0186 J-0.2411
G3 X21.3767 Y14.1999 I3.1535 J-0.5003
G3 X21.3721 Y13.6719 I27.9066 J-0.5081
G3 X21.3798 Y13.3463 I5.8414 J-0.0237
G3 X21.4453 Y13.0273 I0.7371 J-0.0149
G1 Z-4.0
G3 X21.7802 Y12.9751 I0.3227 J0.9697
G3 X22.1191 Y12.9688 I0.3143 J7.6947
G3 X22.4738 Y12.9754 I0.027 J7.9689
G3 X22.6519 Y12.9884 I-0.1173 J2.8352
G3 X22.8223 Y13.042 I0.0006 J0.2957
G3 X22.8516 Y13.877 I-7.5592 J0.6832
G3 X22.8467 Y14.3026 I-15.0244 J0.0413
G3 X22.8076 Y14.7266 I-2.1816 J0.0126
G3 X22.6489 Y14.8093 I-0.1716 J-0.1357
G3 X22.1191 Y14.8438 I-0.4675 J-3.0958
G3 X21.7598 Y14.8317 I-0.0257 J-4.6024
G3 X21.5791 Y14.8081 I0.115 J-1.5826
G3 X21.416 Y14.7266 I0.0186 J-0.2411
G3 X21.3767 Y14.1999 I3.1535 J-0.5003
G3 X21.3721 Y13.6719 I27.9066 J-0.5081
G3 X21.3798 Y13.3463 I5.8414 J-0.0237
G3 X21.4453 Y13.0273 I0.7371 J-0.0149
G0 Z5.0
G0 X27.4759 Y10.3291
G0 Z0.0
G1 Z-3.0
G3 X27.293 Y9.7304 I2.3061 J-1.0318
G3 X27.1582 Y8.2959 I6.6455 J-1.3482
G3 X27.2899 Y6.8639 I6.9149 J-0.0859
G3 X27.9199 Y5.5713 I2.5127 J0.4247
G3 X28.5586 Y5.1662 I1.4145 J1.5238
G3 X29.6514 Y4.8907 I1.5868 J3.9898
G3 X30.7764 Y4.8242 I1.0748 J8.635
G3 X32.0785 Y4.9194 I0.0699 J7.9979
G3 X33.3105 Y5.3516 I-0.4433 J3.2359
G3 X33.8665 Y5.858 I-1.2323 J1.9112
G3 X34.1162 Y6.5674 I-0.9177 J0.7216
G3 X34.0137 Y6.9629 I-0.6035 J0.0546
G3 X33.6182 Y7.0654 I-0.3409 J-0.501
G3 X33.0908 Y6.8896 I-0.0657 J-0.6818
G2 X32.5195 Y6.4209 I-2.006 J1.8623
G2 X31.7139 Y5.9814 I-2.4558 J3.544
G2 X30.8496 Y5.8936 I-0.7686 J3.2651
G2 X29.8181 Y5.9729 I-0.0655 J5.8958
G2 X29.314 Y6.112 I0.4501 J2.6144
G2 X28.8721 Y6.3916 I0.4411 J1.186
G2 X28.4799 Y7.3125 I1.4324 J1.1539
G2 X28.4033 Y8.3105 I5.6641 J0.9367
G2 X28.4891 Y9.2877 I4.9192 J0.0603
G2 X28.916 Y10.1709 I1.6548 J-0.2551
G2 X29.8702 Y10.5876 I1.1966 J-1.4394
G2 X30.9082 Y10.6689 I0.9739 J-5.7636
G2 X31.5134 Y10.6352 I0.0356 J-4.8006
G2 X32.0947 Y10.4639 I-0.1423 J-1.5553
G2 X32.5366 Y10.0236 I-0.9003 J-1.3452
G2 X32.8711 Y9.4971 I-4.3763 J-3.1502
G3 X33.1641 Y9.0137 I4.4787 J2.3839
G3 X33.3472 Y8.9381 I0.2043 J0.2355
G3 X33.5449 Y8.9258 I0.1843 J1.3612
G3 X33.771 Y8.9381 I0.0153 J1.8033
G3 X33.9844 Y9.0137 I-0.0228 J0.4033
G3 X34.0722 Y9.2249 I-0.2757 J0.2386
G3 X34.0869 Y9.4531 I-1.5236 J0.2126
G1 Y10.7861
G3 X34.043 Y11.5332 I-4.2439 J0.1252
G3 X33.823 Y11.6502 I-0.2164 J-0.1417
G3 X33.5742 Y11.665 I-0.2302 J-1.7663
G3 X33.1055 Y11.5918 I-0.0728 J-1.0704
G3 X33.029 Y11.4089 I0.2067 J-0.1939
G3 X33.0176 Y11.2109 I1.4731 J-0.1842
G1 Y11.1963
G1 Y11.1816
G3 X31.8604 Y11.6797 I-3.7951 J-7.2247
G3 X30.7617 Y11.7822 I-0.9672 J-4.426
G3 X29.2808 Y11.6514 I-0.0887 J-7.4436
G3 X27.9346 Y11.0205 I0.4264 J-2.6615
G3 X27.4759 Y10.3291 I1.8475 J-1.7233
G3 X27.293 Y9.7304 I2.3061 J-1.0318
G3 X27.1582 Y8.2959 I6.6455 J-1.3482
G3 X27.2899 Y6.8639 I6.9149 J-0.0859
G3 X27.9199 Y5.5713 I2.5127 J0.4247
G3 X28.5586 Y5.1662 I1.4145 J1.5238
G3 X29.6514 Y4.8907 I1.5868 J3.9898
G3 X30.7764 Y4.8242 I1.0748 J8.635
G3 X32.0785 Y4.9194 I0.0699 J7.9979
G3 X33.3105 Y5.3516 I-0.4433 J3.2359
G3 X33.8665 Y5.858 I-1.2323 J1.9112
G3 X34.1162 Y6.5674 I-0.9177 J0.7216
G3 X34.0137 Y6.9629 I-0.6035 J0.0546
G3 X33.6182 Y7.0654 I-0.3409 J-0.501
G3 X33.0908 Y6.8896 I-0.0657 J-0.6818
G2 X32.5195 Y6.4209 I-2.006 J1.8623
G2 X31.7139 Y5.9814 I-2.4558 J3.544
G2 X30.8496 Y5.8936 I-0.7686 J3.2651
G2 X29.8181 Y5.9729 I-0.0655 J5.8958
G2 X29.314 Y6.112 I0.4501 J2.6144
G2 X28.8721 Y6.3916 I0.4411 J1.186
G2 X28.4799 Y7.3125 I1.4324 J1.1539
G2 X28.4033 Y8.3105 I5.6641 J0.9367
G2 X28.4891 Y9.2877 I4.9192 J0.0603
G2 X28.916 Y10.1709 I1.6548 J-0.2551
G2 X29.8702 Y10.5876 I1.1966 J-1.4394
G2 X30.9082 Y10.6689 I0.9739 J-5.7636
G2 X31.5134 Y10.6352 I0.0356 J-4.8006
G2 X32.0947 Y10.4639 I-0.1423 J-1.5553
G2 X32.5366 Y10.0236 I-0.9003 J-1.3452
G2 X32.8711 Y9.4971 I-4.3763 J-3.1502
G3 X33.1641 Y9.0137 I4.4787 J2.3839
G3 X33.3472 Y8.9381 I0.2043 J0.2355
G3 X33.5449 Y8.9258 I0.1843 J1.3612
G3 X33.771 Y8.9381 I0.0153 J1.8033
G3 X33.9844 Y9.0137 I-0.0228 J0.4033
G3 X34.0722 Y9.2249 I-0.2757 J0.2386
G3 X34.0869 Y9.4531 I-1.5236 J0.2126
G1 Y10.7861
G3 X34.043 Y11.5332 I-4.2439 J0.1252
G3 X33.823 Y11.6502 I-0.2164 J-0.1417
G3 X33.5742 Y11.665 I-0.2302 J-1.7663
G3 X33.1055 Y11.5918 I-0.0728 J-1.0704
G3 X33.029 Y11.4089 I0.2067 J-0.1939
G3 X33.0176 Y11.2109 I1.4731 J-0.1842
G1 Y11.1963
G1 Y11.1816
G3 X31.8604 Y11.6797 I-3.7951 J-7.2247
G3 X30.7617 Y11.7822 I-0.9672 J-4.426
G3 X29.2808 Y11.6514 I-0.0887 J-7.4436
G3 X27.9346 Y11.0205 I0.4264 J-2.6615
G3 X27.4759 Y10.3291 I1.8475 J-1.7233
G0 Z5.0
G0 X22.7051
G0 Z-1.0
G1 Z-4.0
G1 Y11.3135
G3 X22.6318 Y11.5479 I-0.3078 J0.0324
G3 X22.2949 Y11.6064 I-0.2804 J-0.6146
G1 X20.2002
G3 X19.9528 Y11.594 I-0.0163 J-2.138
G3 X19.7168 Y11.5186 I0.0271 J-0.4917
G3 X19.6408 Y11.3204 I0.2637 J-0.2148
G3 X19.6289 Y11.1084 I1.6271 J-0.1974
G3 X19.6439 Y10.8872 I1.4245 J-0.0146
G3 X19.7314 Y10.6836 I0.3505 J0.0301
G3 X19.9749 Y10.608 I0.2684 J0.4342
G3 X20.2295 Y10.5957 I0.2376 J2.2824
G1 X21.6211
G1 Y6.0107
G1 X19.4385
G3 X19.1839 Y5.9985 I-0.0165 J-2.3071
G3 X18.9404 Y5.9229 I0.025 J-0.51
G3 X18.8521 Y5.727 I0.2199 J-0.217
G3 X18.8379 Y5.5127 I1.3865 J-0.1996
G3 X18.8504 Y5.2938 I1.6685 J-0.0143
G3 X18.9258 Y5.0879 I0.3877 J0.0252
G3 X19.1618 Y5.0125 I0.2632 J0.4166
G3 X19.4092 Y5.0 I0.2313 J2.1289
G1 X24.9609
G3 X25.459 Y5.0439 I0.0867 J1.8611
G3 X25.5365 Y5.272 I-0.2997 J0.229
G3 X25.5469 Y5.5127 I-2.3823 J0.2236
G3 X25.5352 Y5.7318 I-1.7939 J0.0145
G3 X25.459 Y5.9375 I-0.3549 J-0.0145
G3 X25.2362 Y6.0009 I-0.2399 J-0.42
G3 X25.0049 Y6.0107 I-0.2154 J-2.3332
G1 X22.7051
G1 Y10.3291
G0 Z5.0
G0 X30.4688 Y4.8682
G0 Z0.0
G1 Z-3.0
G1 Y3.4473
G2 X30.7471 Y3.4912 I0.5053 J-2.2968
G1 X30.8643
G2 X31.1852 Y3.4769 I0.0205 J-3.1479
G2 X31.4941 Y3.3887 I-0.0311 J-0.6939
G2 X31.6068 Y3.1443 I-0.2878 J-0.2808
G2 X31.626 Y2.876 I-1.6134 J-0.2504
G2 X31.6087 Y2.6243 I-1.6008 J-0.0163
G2 X31.5088 Y2.3926 I-0.4035 J0.0365
G2 X31.2298 Y2.3044 I-0.3077 J0.4878
G2 X30.9375 Y2.29 I-0.2733 J2.5892
G2 X30.4345 Y2.3217 I-0.0294 J3.5412
G2 X29.9561 Y2.4805 I0.1246 J1.1759
G3 X29.4141 Y2.6563 I-0.5564 J-0.792
G3 X29.1357 Y2.5977 I-0.0386 J-0.5068
G3 X29.0625 Y2.3779 I0.2075 J-0.1912
G3 X29.2401 Y1.9893 I0.4979 J-0.0073
G3 X29.6191 Y1.792 I0.6668 J0.8182
G3 X31.1279 Y1.6016 I1.375 J4.8219
G3 X31.8091 Y1.6352 I0.0437 J6.022
G3 X32.4609 Y1.8359 I-0.0808 J1.4213
G3 X32.708 Y2.3276 I-0.582 J0.6004
G3 X32.7539 Y2.876 I-2.8207 J0.5123
G3 X32.7106 Y3.3905 I-2.6936 J0.0321
G3 X32.4902 Y3.8574 I-0.8689 J-0.1245
G3 X32.0133 Y4.0664 I-0.5905 J-0.6991
G3 X31.4941 Y4.1064 I-0.4868 J-2.9252
G3 X31.2891 Y4.0918 I-0.0122 J-1.2719
G2 X30.9668 Y4.0479 I-1.4904 J9.726
G1 Y4.8682
G1 X30.4688
G1 Y3.4473
G2 X30.7471 Y3.4912 I0.5053 J-2.2968
G1 X30.8643
G2 X31.1852 Y3.4769 I0.0205 J-3.1479
G2 X31.4941 Y3.3887 I-0.0311 J-0.6939
G2 X31.6068 Y3.1443 I-0.2878 J-0.2808
G2 X31.626 Y2.876 I-1.6134 J-0.2504
G2 X31.6087 Y2.6243 I-1.6008 J-0.0163
G2 X31.5088 Y2.3926 I-0.4035 J0.0365
G2 X31.2298 Y2.3044 I-0.3077 J0.4878
G2 X30.9375 Y2.29 I-0.2733 J2.5892
G2 X30.4345 Y2.3217 I-0.0294 J3.5412
G2 X29.9561 Y2.4805 I0.1246 J1.1759
G3 X29.4141 Y2.6563 I-0.5564 J-0.792
G3 X29.1357 Y2.5977 I-0.0386 J-0.5068
G3 X29.0625 Y2.3779 I0.2075 J-0.1912
G3 X29.2401 Y1.9893 I0.4979 J-0.0073
G3 X29.6191 Y1.792 I0.6668 J0.8182
G3 X31.1279 Y1.6016 I1.375 J4.8219
G3 X31.8091 Y1.6352 I0.0437 J6.022
G3 X32.4609 Y1.8359 I-0.0808 J1.4213
G3 X32.708 Y2.3276 I-0.582 J0.6004
G3 X32.7539 Y2.876 I-2.8207 J0.5123
G3 X32.7106 Y3.3905 I-2.6936 J0.0321
G3 X32.4902 Y3.8574 I-0.8689 J-0.1245
G3 X32.0133 Y4.0664 I-0.5905 J-0.6991
G3 X31.4941 Y4.1064 I-0.4868 J-2.9252
G3 X31.2891 Y4.0918 I-0.0122 J-1.2719
G2 X30.9668 Y4.0479 I-1.4904 J9.726
G1 Y4.8682
G1 X30.4688
G1 Z-4.0
G1 Y3.4473
G2 X30.7471 Y3.4912 I0.5053 J-2.2968
G1 X30.8643
G2 X31.1852 Y3.4769 I0.0205 J-3.1479
G2 X31.4941 Y3.3887 I-0.0311 J-0.6939
G2 X31.6068 Y3.1443 I-0.2878 J-0.2808
G2 X31.626 Y2.876 I-1.6134 J-0.2504
G2 X31.6087 Y2.6243 I-1.6008 J-0.0163
G2 X31.5088 Y2.3926 I-0.4035 J0.0365
G2 X31.2298 Y2.3044 I-0.3077 J0.4878
G2 X30.9375 Y2.29 I-0.2733 J2.5892
G2 X30.4345 Y2.3217 I-0.0294 J3.5412
G2 X29.9561 Y2.4805 I0.1246 J1.1759
G3 X29.4141 Y2.6563 I-0.5564 J-0.792
G3 X29.1357 Y2.5977 I-0.0386 J-0.5068
G3 X29.0625 Y2.3779 I0.2075 J-0.1912
G3 X29.2401 Y1.9893 I0.4979 J-0.0073
G3 X29.6191 Y1.792 I0.6668 J0.8182
G3 X31.1279 Y1.6016 I1.375 J4.8219
G3 X31.8091 Y1.6352 I0.0437 J6.022
G3 X32.4609 Y1.8359 I-0.0808 J1.4213
G3 X32.708 Y2.3276 I-0.582 J0.6004
G3 X32.7539 Y2.876 I-2.8207 J0.5123
G3 X32.7106 Y3.3905 I-2.6936 J0.0321
G3 X32.4902 Y3.8574 I-0.8689 J-0.1245
G3 X32.0133 Y4.0664 I-0.5905 J-0.6991
G3 X31.4941 Y4.1064 I-0.4868 J-2.9252
G3 X31.2891 Y4.0918 I-0.0122 J-1.2719
G2 X30.9668 Y4.0479 I-1.4904 J9.726
G1 Y4.8682
G1 X30.4688
G1 Y3.4473
G2 X30.7471 Y3.4912 I0.5053 J-2.2968
G1 X30.8643
G2 X31.1852 Y3.4769 I0.0205 J-3.1479
G2 X31.4941 Y3.3887 I-0.0311 J-0.6939
G2 X31.6068 Y3.1443 I-0.2878 J-0.2808
G2 X31.626 Y2.876 I-1.6134 J-0.2504
G2 X31.6087 Y2.6243 I-1.6008 J-0.0163
G2 X31.5088 Y2.3926 I-0.4035 J0.0365
G2 X31.2298 Y2.3044 I-0.3077 J0.4878
G2 X30.9375 Y2.29 I-0.2733 J2.5892
G2 X30.4345 Y2.3217 I-0.0294 J3.5412
G2 X29.9561 Y2.4805 I0.1246 J1.1759
G3 X29.4141 Y2.6563 I-0.5564 J-0.792
G3 X29.1357 Y2.5977 I-0.0386 J-0.5068
G3 X29.0625 Y2.3779 I0.2075 J-0.1912
G3 X29.2401 Y1.9893 I0.4979 J-0.0073
G3 X29.6191 Y1.792 I0.6668 J0.8182
G3 X31.1279 Y1.6016 I1.375 J4.8219
G3 X31.8091 Y1.6352 I0.0437 J6.022
G3 X32.4609 Y1.8359 I-0.0808 J1.4213
G3 X32.708 Y2.3276 I-0.582 J0.6004
G3 X32.7539 Y2.876 I-2.8207 J0.5123
G3 X32.7106 Y3.3905 I-2.6936 J0.0321
G3 X32.4902 Y3.8574 I-0.8689 J-0.1245
G3 X32.0133 Y4.0664 I-0.5905 J-0.6991
G3 X31.4941 Y4.1064 I-0.4868 J-2.9252
G3 X31.2891 Y4.0918 I-0.0122 J-1.2719
G2 X30.9668 Y4.0479 I-1.4904 J9.726
G1 Y4.8682
G1 X30.4688
G1 X30.4676 Y4.8279
G3 X30.7764 Y4.8242 I0.2586 J8.6978
G3 X32.0785 Y4.9194 I0.0699 J7.9979
G3 X33.3105 Y5.3516 I-0.4433 J3.2359
G3 X33.8665 Y5.858 I-1.2323 J1.9112
G3 X34.1162 Y6.5674 I-0.9177 J0.7216
G3 X34.0137 Y6.9629 I-0.6035 J0.0546
G3 X33.6182 Y7.0654 I-0.3409 J-0.501
G3 X33.0908 Y6.8896 I-0.0657 J-0.6818
G2 X32.5195 Y6.4209 I-2.006 J1.8623
G2 X31.7139 Y5.9814 I-2.4558 J3.544
G2 X30.8496 Y5.8936 I-0.7686 J3.2651
G2 X29.8181 Y5.9729 I-0.0655 J5.8958
G2 X29.314 Y6.112 I0.4501 J2.6144
G2 X28.8721 Y6.3916 I0.4411 J1.186
G2 X28.4799 Y7.3125 I1.4324 J1.1539
G2 X28.4033 Y8.3105 I5.6641 J0.9367
G2 X28.4891 Y9.2877 I4.9192 J0.0603
G2 X28.916 Y10.1709 I1.6548 J-0.2551
G2 X29.8702 Y10.5876 I1.1966 J-1.4394
G2 X30.9082 Y10.6689 I0.9739 J-5.7636
G2 X31.5134 Y10.6352 I0.0356 J-4.8006
G2 X32.0947 Y10.4639 I-0.1423 J-1.5553
G2 X32.5366 Y10.0236 I-0.9003 J-1.3452
G2 X32.8711 Y9.4971 I-4.3763 J-3.1502
G3 X33.1641 Y9.0137 I4.4787 J2.3839
G3 X33.3472 Y8.9381 I0.2043 J0.2355
G3 X33.5449 Y8.9258 I0.1843 J1.3612
G3 X33.771 Y8.9381 I0.0153 J1.8033
G3 X33.9844 Y9.0137 I-0.0228 J0.4033
G3 X34.0722 Y9.2249 I-0.2757 J0.2386
G3 X34.0869 Y9.4531 I-1.5236 J0.2126
G1 Y10.7861
G3 X34.043 Y11.5332 I-4.2439 J0.1252
G3 X33.823 Y11.6502 I-0.2164 J-0.1417
G3 X33.5742 Y11.665 I-0.2302 J-1.7663
G3 X33.1055 Y11.5918 I-0.0728 J-1.0704
G3 X33.029 Y11.4089 I0.2067 J-0.1939
G3 X33.0176 Y11.2109 I1.4731 J-0.1842
G1 Y11.1963
G1 Y11.1816
G3 X31.8604 Y11.6797 I-3.7951 J-7.2247
G3 X30.7617 Y11.7822 I-0.9672 J-4.426
G3 X29.2808 Y11.6514 I-0.0887 J-7.4436
G3 X27.9346 Y11.0205 I0.4264 J-2.6615
G3 X27.293 Y9.7304 I1.8475 J-1.7233
G3 X27.1582 Y8.2959 I6.6455 J-1.3482
G3 X27.2899 Y6.8639 I6.9149 J-0.0859
G3 X27.9199 Y5.5713 I2.5127 J0.4247
G3 X28.5586 Y5.1662 I1.4145 J1.5238
G3 X29.6514 Y4.8907 I1.5868 J3.9898
G3 X30.4676 Y4.8279 I1.0748 J8.635
G3 X30.7764 Y4.8242 I0.2586 J8.6978
G3 X32.0785 Y4.9194 I0.0699 J7.9979
G3 X33.3105 Y5.3516 I-0.4433 J3.2359
G3 X33.8665 Y5.858 I-1.2323 J1.9112
G3 X34.1162 Y6.5674 I-0.9177 J0.7216
G3 X34.0137 Y6.9629 I-0.6035 J0.0546
G3 X33.6182 Y7.0654 I-0.3409 J-0.501
G3 X33.0908 Y6.8896 I-0.0657 J-0.6818
G2 X32.5195 Y6.4209 I-2.006 J1.8623
G2 X31.7139 Y5.9814 I-2.4558 J3.544
G2 X30.8496 Y5.8936 I-0.7686 J3.2651
G2 X29.8181 Y5.9729 I-0.0655 J5.8958
G2 X29.314 Y6.112 I0.4501 J2.6144
G2 X28.8721 Y6.3916 I0.4411 J1.186
G2 X28.4799 Y7.3125 I1.4324 J1.1539
G2 X28.4033 Y8.3105 I5.6641 J0.9367
G2 X28.4891 Y9.2877 I4.9192 J0.0603
G2 X28.916 Y10.1709 I1.6548 J-0.2551
G2 X29.8702 Y10.5876 I1.1966 J-1.4394
G2 X30.9082 Y10.6689 I0.9739 J-5.7636
G2 X31.5134 Y10.6352 I0.0356 J-4.8006
G2 X32.0947 Y10.4639 I-0.1423 J-1.5553
G2 X32.5366 Y10.0236 I-0.9003 J-1.3452
G2 X32.8711 Y9.4971 I-4.3763 J-3.1502
G3 X33.1641 Y9.0137 I4.4787 J2.3839
G3 X33.3472 Y8.9381 I0.2043 J0.2355
G3 X33.5449 Y8.9258 I0.1843 J1.3612
G3 X33.771 Y8.9381 I0.0153 J1.8033
G3 X33.9844 Y9.0137 I-0.0228 J0.4033
G3 X34.0722 Y9.2249 I-0.2757 J0.2386
G3 X34.0869 Y9.4531 I-1.5236 J0.2126
G1 Y10.7861
G3 X34.043 Y11.5332 I-4.2439 J0.1252
G3 X33.823 Y11.6502 I-0.2164 J-0.1417
G3 X33.5742 Y11.665 I-0.2302 J-1.7663
G3 X33.1055 Y11.5918 I-0.0728 J-1.0704
G3 X33.029 Y11.4089 I0.2067 J-0.1939
G3 X33.0176 Y11.2109 I1.4731 J-0.1842
G1 Y11.1963
G1 Y11.1816
G3 X31.8604 Y11.6797 I-3.7951 J-7.2247
G3 X30.7617 Y11.7822 I-0.9672 J-4.426
G3 X29.2808 Y11.6514 I-0.0887 J-7.4436
G3 X27.9346 Y11.0205 I0.4264 J-2.6615
G3 X27.293 Y9.7304 I1.8475 J-1.7233
G3 X27.1582 Y8.2959 I6.6455 J-1.3482
G3 X27.2899 Y6.8639 I6.9149 J-0.0859
G3 X27.9199 Y5.5713 I2.5127 J0.4247
G3 X28.5586 Y5.1662 I1.4145 J1.5238
G3 X29.6514 Y4.8907 I1.5868 J3.9898
G3 X30.4676 Y4.8279 I1.0748 J8.635
G0 Z5.0
G0 X36.7176 Y5.4505
G0 Z0.0
G1 Z-3.0
G3 X36.7286 Y5.3623 I1.7638 J0.1757
G3 X36.8408 Y5.1025 I0.4564 J0.043
G3 X37.1796 Y5.0143 I0.3724 J0.7353
G3 X37.5293 Y5.0 I0.3271 J3.7138
G1 X41.8506
G3 X42.5537 Y5.0586 I0.1119 J2.9048
G3 X42.6823 Y5.3146 I-0.2045 J0.263
G3 X42.7002 Y5.6006 I-1.9515 J0.2656
G1 Y6.7871
G3 X42.6883 Y7.0275 I-2.125 J0.0155
G3 X42.6123 Y7.2559 I-0.4367 J-0.0185
G3 X42.4165 Y7.3442 I-0.217 J-0.2199
G3 X42.2021 Y7.3584 I-0.1996 J-1.3865
G3 X41.9331 Y7.3396 I-0.02 J-1.6473
G3 X41.7986 Y7.3007 I0.0825 J-0.538
G3 X41.7041 Y7.1973 I0.0511 J-0.1415
G3 X41.6895 Y6.377 I15.2619 J-0.6828
G1 Y6.0107
G1 X38.1299
G1 X42.0557 Y9.8486
G3 X42.583 Y10.4346 I-2.6804 J2.9426
G3 X42.7002 Y10.8887 I-0.6945 J0.4214
G3 X42.6736 Y11.2 I-1.5909 J0.021
G3 X42.5244 Y11.4746 I-0.4242 J-0.0527
G3 X42.1145 Y11.5887 I-0.4405 J-0.789
G3 X41.6895 Y11.6064 I-0.3975 J-4.43
G1 X37.8662
G3 X37.4454 Y11.5945 I-0.0294 J-6.3642
G3 X37.0313 Y11.5186 I0.0333 J-1.3494
G3 X36.8929 Y11.2961 I0.1612 J-0.2545
G3 X36.8701 Y11.0352 I1.2664 J-0.2422
G1 Y9.8193
G3 X36.8826 Y9.5719 I2.138 J-0.0163
G3 X36.958 Y9.3359 I0.4917 J0.0271
G3 X37.1639 Y9.2606 I0.231 J0.3123
G3 X37.3828 Y9.248 I0.2043 J1.6505
G3 X37.6419 Y9.2639 I0.0193 J1.8135
G3 X37.7729 Y9.2969 I-0.0774 J0.5826
G3 X37.8662 Y9.3945 I-0.0342 J0.1262
G3 X37.8955 Y10.2295 I-7.9994 J0.6987
G1 Y10.5957
G1 X41.3086
G1 X37.2217 Y6.5088
G1 X36.8115 Y6.0986
G3 X36.7244 Y5.8797 I0.3242 J-0.2558
G3 X36.709 Y5.6445 I1.55 J-0.2197
G3 X36.7176 Y5.4505 I1.7725 J-0.0183
G1 Z-4.0
G3 X36.7286 Y5.3623 I1.7638 J0.1757
G3 X36.8408 Y5.1025 I0.4564 J0.043
G3 X37.1796 Y5.0143 I0.3724 J0.7353
G3 X37.5293 Y5.0 I0.3271 J3.7138
G1 X41.8506
G3 X42.5537 Y5.0586 I0.1119 J2.9048
G3 X42.6823 Y5.3146 I-0.2045 J0.263
G3 X42.7002 Y5.6006 I-1.9515 J0.2656
G1 Y6.7871
G3 X42.6883 Y7.0275 I-2.125 J0.0155
G3 X42.6123 Y7.2559 I-0.4367 J-0.0185
G3 X42.4165 Y7.3442 I-0.217 J-0.2199
G3 X42.2021 Y7.3584 I-0.1996 J-1.3865
G3 X41.9331 Y7.3396 I-0.02 J-1.6473
G3 X41.7986 Y7.3007 I0.0825 J-0.538
G3 X41.7041 Y7.1973 I0.0511 J-0.1415
G3 X41.6895 Y6.377 I15.2619 J-0.6828
G1 Y6.0107
G1 X38.1299
G1 X42.0557 Y9.8486
G3 X42.583 Y10.4346 I-2.6804 J2.9426
G3 X42.7002 Y10.8887 I-0.6945 J0.4214
G3 X42.6736 Y11.2 I-1.5909 J0.021
G3 X42.5244 Y11.4746 I-0.4242 J-0.0527
G3 X42.1145 Y11.5887 I-0.4405 J-0.789
G3 X41.6895 Y11.6064 I-0.3975 J-4.43
G1 X37.8662
G3 X37.4454 Y11.5945 I-0.0294 J-6.3642
G3 X37.0313 Y11.5186 I0.0333 J-1.3494
G3 X36.8929 Y11.2961 I0.1612 J-0.2545
G3 X36.8701 Y11.0352 I1.2664 J-0.2422
G1 Y9.8193
G3 X36.8826 Y9.5719 I2.138 J-0.0163
G3 X36.958 Y9.3359 I0.4917 J0.0271
G3 X37.1639 Y9.2606 I0.231 J0.3123
G3 X37.3828 Y9.248 I0.2043 J1.6505
G3 X37.6419 Y9.2639 I0.0193 J1.8135
G3 X37.7729 Y9.2969 I-0.0774 J0.5826
G3 X37.8662 Y9.3945 I-0.0342 J0.1262
G3 X37.8955 Y10.2295 I-7.9994 J0.6987
G1 Y10.5957
G1 X41.3086
G1 X37.2217 Y6.5088
G1 X36.8115 Y6.0986
G3 X36.7244 Y5.8797 I0.3242 J-0.2558
G3 X36.709 Y5.6445 I1.55 J-0.2197
G3 X36.7176 Y5.4505 I1.7725 J-0.0183
G0 Z5.0
M5
M30
